{"type":"map","version":"1.10","tiledversion":"1.11.0","orientation":"orthogonal","renderorder":"right-down","infinite":false,"width":100,"height":68,"tilewidth":32,"tileheight":32,"nextlayerid":8,"nextobjectid":1083,"layers":[{"id":1,"name":"floor","type":"tilelayer","width":100,"height":68,"x":0,"y":0,"opacity":1,"visible":true,"data":[17,1,10,7,16,7,9,3,57,17,17,17,191,191,191,191,191,191,191,191,191,191,191,191,191,191,191,191,191,191,191,191,191,191,191,191,191,191,191,191,191,191,191,191,191,191,191,191,191,191,191,191,191,191,191,191,191,191,191,191,191,191,191,191,191,191,191,191,191,191,191,191,191,191,191,191,191,191,191,191,191,189,189,189,189,189,189,189,189,189,189,189,189,189,189,189,189,189,189,189,17,6,16,7,7,16,16,8,57,17,17,17,191,191,191,191,191,191,191,191,191,191,191,191,191,191,191,191,191,191,191,191,191,191,191,191,191,191,191,191,191,191,191,191,191,191,191,191,191,191,191,191,191,191,191,191,191,191,191,191,191,191,191,191,191,191,191,191,191,191,191,191,191,191,191,191,191,191,191,191,191,189,189,189,189,189,189,189,189,189,189,189,189,189,189,189,189,189,189,189,17,6,16,7,7,7,16,8,57,17,17,17,57,57,57,57,57,57,57,57,57,57,57,57,57,57,57,57,57,57,57,57,57,57,57,57,57,57,57,57,57,57,57,57,57,57,57,57,57,57,57,57,57,57,57,57,57,57,57,57,57,57,57,57,57,57,57,57,57,57,57,57,57,57,57,57,57,57,57,57,57,189,189,189,189,189,189,189,189,189,189,189,189,189,189,189,189,189,189,189,17,6,7,16,7,7,7,8,57,17,17,57,57,57,57,57,57,57,57,57,57,57,57,57,57,57,57,57,57,57,57,57,57,57,57,57,57,57,57,57,57,57,57,57,57,57,57,57,57,57,57,57,57,57,57,57,57,57,57,57,57,57,57,57,57,57,57,57,57,57,57,57,57,57,57,57,57,57,57,57,57,189,189,73,73,73,73,75,73,75,73,73,73,189,189,189,189,189,189,189,17,6,7,16,16,16,16,8,57,17,17,57,57,57,57,57,57,57,57,57,57,57,57,57,57,57,57,57,57,57,57,57,57,57,57,57,57,57,57,57,57,37,37,37,37,37,37,37,37,57,57,57,57,57,57,57,57,57,57,57,57,57,57,57,57,57,57,57,57,57,57,57,57,57,57,57,57,57,57,57,57,189,189,75,73,75,73,73,73,73,73,75,73,189,189,189,189,189,189,189,17,6,7,16,7,7,7,8,57,17,17,57,57,57,57,57,57,57,57,57,57,57,57,57,57,57,57,57,57,57,57,57,57,57,57,57,57,57,57,37,37,37,37,37,37,37,37,37,37,37,37,37,37,57,57,57,57,57,57,57,57,57,57,57,57,57,57,57,57,57,57,190,190,190,190,190,57,57,57,57,57,189,189,73,73,73,73,75,73,73,73,73,73,189,189,189,189,189,189,189,17,6,7,16,7,16,7,8,57,17,17,57,57,191,57,57,57,57,57,57,57,57,57,57,57,57,57,57,57,57,57,57,57,57,57,57,37,37,37,37,37,37,37,37,37,37,37,37,37,37,37,37,37,37,57,57,57,57,57,57,57,57,57,57,57,57,57,57,57,57,57,190,190,190,190,190,57,57,57,57,57,189,189,75,73,75,73,73,73,73,73,73,73,189,189,189,189,189,189,189,17,6,7,16,7,7,16,8,57,17,17,57,57,191,191,57,57,57,57,57,57,57,57,57,57,57,57,57,57,57,57,57,57,57,57,57,37,37,37,37,21,22,22,22,22,22,22,22,22,22,23,37,37,37,57,57,57,57,57,57,57,57,57,57,57,57,57,57,57,57,57,190,190,190,190,190,57,57,57,57,57,189,189,73,73,73,73,73,73,73,75,73,73,189,189,189,189,189,189,189,17,6,16,7,7,16,16,8,57,17,17,57,57,191,57,57,57,57,57,57,57,57,57,57,57,57,57,57,57,57,57,57,57,57,57,57,37,37,37,37,26,27,27,36,27,36,36,36,36,36,28,37,37,37,57,57,57,191,191,191,191,191,57,57,57,57,57,57,57,57,57,190,190,190,190,190,57,57,57,57,57,189,189,73,73,75,190,190,73,73,73,73,73,189,189,189,189,189,189,189,17,6,16,7,16,16,7,8,57,17,17,57,57,191,191,57,57,57,57,57,57,57,57,57,57,57,57,57,57,57,57,57,57,57,57,57,37,37,37,37,31,32,32,32,32,32,32,32,32,32,33,37,37,37,191,191,191,57,191,57,57,191,191,191,191,191,191,191,191,191,191,191,57,57,57,57,57,57,57,57,57,189,189,73,73,73,190,190,75,73,73,75,73,73,73,75,73,75,73,189,17,6,16,16,7,16,7,8,57,17,17,57,57,191,191,57,57,57,57,57,57,57,57,41,42,42,42,42,42,42,43,57,57,57,57,57,57,37,37,37,37,37,37,37,37,37,37,37,37,37,37,37,37,37,191,191,191,57,57,57,57,57,57,191,57,57,57,191,57,191,191,191,57,57,57,57,57,57,57,57,57,189,189,73,73,73,75,73,73,73,73,73,73,73,73,73,73,73,73,189,17,6,7,16,16,7,16,8,57,17,17,57,57,191,191,57,57,57,57,41,42,42,42,50,47,47,56,56,56,56,49,43,57,57,191,191,57,57,37,37,37,37,37,37,37,37,37,37,37,37,37,37,37,57,57,57,57,57,57,57,57,57,57,57,57,57,57,57,57,57,57,57,57,57,57,57,57,57,57,57,57,189,189,73,75,73,73,73,73,190,190,190,73,73,75,73,75,73,75,189,17,6,16,7,7,7,16,8,57,17,17,57,57,191,191,57,57,57,41,50,56,56,47,47,56,47,47,56,56,47,56,48,191,191,191,57,57,57,57,57,57,57,37,37,37,37,37,37,37,37,57,57,57,57,57,57,57,57,57,57,57,57,57,57,57,57,57,57,57,57,57,57,57,57,57,57,57,57,57,57,57,189,189,73,73,73,75,73,73,190,190,190,75,73,73,73,73,73,73,189,17,6,16,16,16,7,7,8,57,17,17,57,57,191,57,57,57,57,51,45,56,56,47,56,56,47,47,56,47,47,56,191,191,57,191,57,57,57,57,57,57,41,42,50,56,56,47,49,42,42,43,57,57,57,57,57,57,57,57,57,57,57,57,57,57,57,57,57,57,57,57,57,57,57,57,57,57,57,57,57,57,189,189,75,73,73,73,73,73,73,73,73,73,73,73,73,73,73,73,189,17,6,7,7,16,7,7,8,57,17,17,57,57,191,191,57,57,57,57,51,191,45,56,56,47,47,56,47,56,56,44,53,57,57,57,57,57,57,57,57,41,50,47,56,56,56,56,47,56,47,49,43,57,57,57,57,57,57,57,57,57,57,57,57,57,57,57,57,57,57,57,57,57,57,57,57,57,57,57,57,57,189,189,73,73,75,73,75,73,73,73,75,73,190,190,73,73,73,73,189,17,6,16,7,7,16,7,8,57,17,17,17,191,191,57,57,57,57,191,191,191,191,45,47,56,56,56,56,44,52,53,57,57,57,57,57,57,57,57,57,51,45,47,47,56,56,56,56,47,56,47,48,57,57,57,57,57,57,57,57,57,57,57,57,57,57,57,57,57,57,57,57,57,57,57,57,57,57,57,57,57,189,189,73,73,73,73,73,73,73,73,73,73,190,190,73,75,73,73,189,17,6,16,7,16,7,16,8,57,17,17,17,191,57,57,57,57,57,57,191,57,57,190,190,61,63,190,190,190,57,57,57,57,57,57,190,190,190,190,190,190,190,190,47,56,56,47,56,56,56,44,53,191,191,191,57,57,57,57,57,57,57,57,57,57,57,57,57,57,57,57,57,57,57,57,57,57,57,57,57,57,189,189,73,73,73,75,73,73,75,73,73,73,75,73,73,73,73,73,189,17,6,7,16,7,7,7,8,57,17,17,17,191,57,57,57,57,57,57,57,57,57,190,63,63,63,63,63,190,57,57,57,57,57,57,190,66,68,66,68,66,66,190,45,56,47,56,47,44,52,53,57,191,57,191,191,191,191,191,57,57,57,57,57,57,57,57,57,57,57,57,57,57,57,57,57,57,57,57,57,57,189,189,73,73,73,73,73,73,73,73,73,73,73,73,73,75,73,73,189,17,6,16,7,7,7,16,8,57,17,17,17,191,57,57,190,190,190,190,190,190,190,190,63,63,63,63,63,190,190,190,190,190,57,57,190,66,66,66,66,66,68,190,51,52,52,52,52,53,57,57,57,57,57,190,190,190,190,190,190,191,191,191,57,57,57,57,57,57,57,57,57,57,57,57,57,57,57,57,57,57,189,189,73,75,73,73,73,73,73,75,73,73,75,73,73,73,73,73,189,17,6,16,7,16,7,16,8,57,17,17,17,191,191,57,190,63,63,61,63,61,190,63,61,63,63,63,63,63,61,63,61,190,190,190,190,66,68,66,68,66,66,190,66,66,190,190,57,57,57,57,57,57,57,190,66,68,66,66,190,57,191,191,191,191,57,57,57,57,57,57,57,57,57,57,57,57,57,57,57,57,189,189,73,73,73,73,73,73,73,73,73,73,73,73,73,75,73,73,189,17,6,16,16,7,7,16,8,57,17,17,17,191,57,57,190,63,63,63,63,63,190,63,63,63,63,63,61,63,63,63,63,190,66,66,68,66,66,66,66,66,68,66,68,66,68,190,57,57,57,57,57,57,57,190,66,66,66,66,190,57,57,191,57,191,191,57,57,57,57,57,57,57,57,57,57,57,57,57,57,57,189,189,189,189,189,189,189,189,189,189,189,189,189,189,189,189,189,189,189,17,6,16,16,7,16,7,8,57,17,17,17,191,57,57,190,61,63,63,61,63,63,61,63,63,63,63,63,63,61,63,61,190,66,66,66,66,68,66,68,66,66,66,66,66,66,190,57,57,57,57,57,57,57,190,68,66,66,66,190,57,57,57,57,57,191,191,57,57,57,57,57,57,57,57,57,57,57,57,57,57,189,189,189,189,189,189,189,189,189,189,189,189,189,189,189,189,189,189,189,17,6,16,16,7,7,7,8,57,17,17,17,191,191,191,190,63,63,63,63,63,63,63,63,63,63,63,63,63,63,63,63,190,66,68,66,66,66,66,66,66,66,66,66,68,66,190,190,190,190,190,190,190,190,190,66,66,190,190,190,190,190,190,190,190,190,190,191,57,57,57,57,57,57,57,57,57,57,57,57,57,189,189,189,189,189,189,189,189,189,189,189,189,189,189,189,189,189,189,189,17,6,7,7,7,7,16,8,57,17,17,57,57,191,191,190,63,63,63,63,63,190,63,61,63,63,61,63,63,63,63,61,190,66,66,66,66,66,66,66,66,66,66,66,66,66,66,66,66,68,66,66,66,66,190,68,66,66,68,190,74,74,74,76,74,74,190,191,191,191,57,57,57,57,57,57,57,57,57,57,57,189,189,189,189,189,189,189,189,189,189,189,189,189,189,189,189,189,189,189,17,6,7,16,7,7,7,8,57,17,17,57,57,191,191,190,190,190,61,63,190,190,63,63,63,63,63,63,63,63,63,63,190,66,68,66,66,66,66,66,66,66,66,66,66,68,66,66,66,66,66,66,66,66,190,66,66,66,66,190,76,74,74,74,74,74,190,57,191,57,57,57,57,57,57,57,57,57,57,57,57,189,189,189,189,189,189,189,189,189,189,189,189,189,189,189,189,189,189,189,17,6,16,16,7,7,16,8,57,17,17,57,57,191,191,190,61,63,63,63,63,190,63,63,61,63,61,63,63,63,61,63,63,66,66,66,68,66,66,66,66,66,66,66,66,66,66,66,66,66,66,68,66,68,66,66,68,66,66,190,74,74,76,74,74,76,190,57,191,57,57,57,57,57,57,57,57,57,57,57,57,189,190,190,190,190,190,190,190,190,190,190,190,190,190,190,190,190,190,190,17,6,7,16,7,7,16,8,57,17,17,57,57,191,191,190,63,63,61,63,61,63,61,63,63,63,63,63,63,63,63,63,63,68,66,66,66,66,66,66,66,66,66,66,66,66,66,66,66,66,66,66,66,66,66,66,66,66,66,190,76,74,74,74,74,74,190,57,57,57,57,57,57,57,57,57,57,57,57,57,57,189,190,76,76,76,76,76,76,76,76,76,76,190,76,76,76,76,74,190,17,6,7,7,16,16,16,8,57,17,17,57,57,191,57,190,63,63,63,63,63,63,63,63,61,63,61,63,61,63,63,63,190,66,66,66,66,68,66,66,66,66,66,66,66,66,66,66,66,66,66,66,68,66,190,68,66,66,68,66,74,74,76,74,76,74,190,57,57,57,57,57,57,57,57,57,57,57,57,57,57,189,190,74,76,76,76,76,76,76,76,76,76,76,76,76,76,76,76,190,17,6,16,16,7,7,7,8,57,17,17,57,57,191,191,190,61,63,61,63,61,190,61,63,63,63,63,63,63,63,63,63,190,66,66,66,66,66,66,68,66,66,66,66,66,66,66,66,68,66,68,66,66,66,190,66,66,66,66,66,74,74,74,74,74,74,190,57,57,57,57,57,57,57,57,57,57,57,57,57,57,189,190,76,76,76,76,76,76,76,74,76,76,76,76,74,76,74,76,190,17,6,7,16,7,7,16,8,57,17,17,57,57,191,57,190,190,63,63,190,190,190,190,190,190,190,190,190,190,190,190,190,190,190,190,190,190,190,190,190,190,190,190,190,190,190,190,190,190,66,66,190,190,190,190,190,190,190,190,190,76,74,74,74,76,74,190,57,57,57,57,57,57,57,57,57,57,57,57,57,57,189,190,76,76,76,76,76,76,76,76,76,76,190,76,76,76,76,76,190,17,6,7,7,7,16,16,8,57,17,17,57,57,191,191,190,64,64,64,64,64,64,64,64,64,64,64,64,64,64,64,64,190,63,61,61,61,63,61,63,61,61,61,61,61,61,61,61,62,62,62,62,62,62,62,62,62,62,62,190,74,74,74,74,74,74,190,57,57,57,57,57,57,57,57,57,57,57,57,57,57,189,190,74,76,74,76,76,76,76,76,76,76,190,76,74,76,76,76,190,17,6,16,7,7,7,7,8,57,17,17,57,57,57,57,190,64,64,64,64,64,64,64,64,64,64,64,64,64,64,64,64,190,61,61,61,61,61,61,61,61,61,61,61,61,61,61,61,62,62,62,62,62,62,62,62,62,62,62,190,74,74,74,74,74,74,190,57,57,57,57,57,57,57,57,57,57,57,57,57,57,189,190,76,76,76,76,76,76,76,74,76,76,190,190,190,76,76,190,190,17,6,16,7,16,16,7,8,57,17,17,57,57,57,190,190,64,64,64,64,64,64,64,64,64,64,64,64,64,64,64,64,190,61,61,63,61,61,61,61,61,63,61,61,61,61,61,190,62,62,62,62,62,62,62,62,62,62,62,190,74,76,74,74,76,74,190,57,57,57,57,57,57,57,57,57,57,57,57,57,57,189,190,76,74,76,76,76,76,76,76,76,74,190,76,74,76,76,76,190,17,6,16,7,7,16,16,8,57,17,17,57,57,57,190,190,190,64,64,64,64,64,64,64,190,190,64,64,64,64,64,64,190,190,190,61,61,190,190,190,61,61,190,190,190,190,190,190,62,62,62,62,62,62,62,62,62,62,62,190,190,74,74,190,190,190,190,190,190,190,190,190,190,57,57,57,57,57,57,57,57,189,190,76,76,76,74,76,76,76,74,76,76,76,76,76,76,76,74,190,17,6,7,16,7,16,7,8,57,17,17,57,57,57,190,190,190,64,64,64,64,64,64,64,190,190,64,64,64,64,64,64,190,63,61,61,63,61,61,61,61,61,61,61,63,61,61,190,62,62,62,62,62,62,62,62,62,62,62,190,74,74,76,74,76,74,74,74,76,74,76,74,190,57,57,57,57,57,57,57,57,189,190,76,76,76,76,76,76,76,76,76,76,76,76,76,76,76,76,190,17,6,7,7,7,16,7,8,57,17,17,57,57,57,190,190,64,64,64,64,64,64,64,64,64,64,64,64,64,64,64,64,190,61,61,61,61,61,61,61,61,63,61,61,61,61,61,190,62,62,62,62,62,62,62,62,62,62,62,190,74,74,74,74,74,74,74,74,74,74,74,74,190,57,57,57,57,57,57,57,57,189,190,76,76,76,76,76,76,74,76,76,76,190,74,76,74,76,76,190,17,6,7,7,16,16,7,8,57,17,17,57,57,57,57,190,64,64,64,64,64,64,64,64,64,64,64,64,64,64,64,64,190,61,61,61,61,63,61,61,61,61,190,190,190,190,190,190,62,62,62,62,62,62,62,62,62,62,62,190,76,74,76,74,74,74,74,74,74,76,74,74,190,57,57,57,57,57,57,57,57,189,190,76,74,76,76,74,76,190,190,190,190,190,76,76,76,76,76,190,17,6,16,16,16,7,7,8,57,17,17,57,57,57,57,190,64,64,64,64,64,64,64,64,64,64,64,64,64,64,64,64,190,61,63,61,61,61,61,61,63,61,61,71,69,71,69,190,62,62,62,62,62,62,62,62,62,62,62,190,74,74,74,74,74,74,74,74,74,74,74,74,190,57,57,57,57,57,57,57,57,189,190,76,76,76,76,76,76,190,190,190,190,190,190,76,76,190,190,190,17,6,7,7,16,16,7,8,57,17,17,57,57,57,57,190,190,190,190,190,64,64,64,64,64,64,64,64,64,64,64,64,64,61,61,61,61,61,61,61,61,61,61,69,69,69,69,190,62,62,62,62,62,62,62,62,62,62,62,190,74,76,74,76,74,74,74,74,74,74,74,74,190,57,57,57,57,57,57,57,57,189,190,74,76,74,76,76,74,190,76,76,76,76,74,76,76,76,74,190,17,6,16,7,16,7,16,8,57,17,17,57,57,57,57,57,57,57,57,190,64,64,64,64,64,64,64,64,64,64,64,64,64,63,61,63,61,61,61,61,61,63,190,71,69,71,69,190,62,62,62,62,62,62,62,62,62,62,62,190,74,74,74,74,74,74,74,74,74,74,76,74,190,57,57,57,57,57,57,57,57,189,190,76,76,76,76,76,76,76,76,76,76,76,76,76,74,76,76,190,17,6,7,7,7,7,7,8,57,17,17,57,57,57,57,57,57,57,57,190,64,64,64,64,64,64,64,64,64,64,64,64,190,61,61,61,61,63,61,61,61,61,190,190,190,190,190,190,190,190,190,62,62,62,62,62,190,190,190,190,76,74,76,74,76,74,74,74,74,74,74,74,190,57,57,57,57,57,57,57,57,189,190,76,76,76,76,74,76,76,76,76,76,76,76,76,76,76,74,190,17,6,7,16,7,16,16,8,57,17,17,57,57,57,57,57,57,57,57,190,64,64,64,64,64,64,64,64,64,64,64,64,190,190,61,61,190,190,190,190,190,190,190,57,57,57,191,191,191,57,190,62,62,62,62,62,190,57,57,190,74,74,74,74,74,74,74,76,74,74,76,74,190,57,57,57,57,57,57,57,57,189,190,76,76,76,76,76,76,190,76,76,76,74,76,74,76,76,76,190,17,6,7,7,16,16,7,8,57,17,17,57,57,57,57,57,57,57,57,190,190,190,190,190,190,190,190,190,190,190,190,190,46,47,47,56,56,47,47,47,56,49,43,57,57,191,191,191,191,191,190,190,190,190,190,190,190,57,57,190,74,76,74,74,74,74,74,74,74,74,74,74,190,57,57,57,57,57,57,57,57,189,190,76,74,76,76,76,74,190,76,76,76,76,76,76,76,76,76,190,17,6,7,16,16,7,7,8,57,17,17,57,57,57,57,57,57,57,57,191,191,191,191,191,191,191,191,191,191,191,57,57,190,45,56,47,47,47,56,47,47,44,190,57,57,57,191,191,191,191,57,57,57,57,57,57,57,57,57,190,74,74,74,74,74,74,74,74,74,76,74,74,190,57,57,57,57,57,57,57,57,189,190,76,76,76,74,76,76,190,76,76,76,76,76,76,76,74,76,190,17,6,7,7,7,7,7,8,57,17,17,57,57,57,57,57,57,57,57,57,57,191,191,191,191,191,191,191,57,57,57,57,57,46,47,56,56,44,52,52,52,53,57,57,57,57,57,57,57,57,57,57,57,57,57,57,57,57,57,190,190,190,74,74,190,190,190,190,190,190,190,190,190,57,57,57,57,57,57,57,57,189,190,190,190,190,190,190,190,190,190,190,190,190,190,190,190,190,190,190,17,6,7,16,7,7,16,8,57,17,17,57,57,57,57,57,57,57,57,57,57,57,57,57,57,57,57,57,57,57,57,57,57,46,47,47,44,53,57,57,57,57,57,57,57,57,57,57,57,57,57,57,57,57,57,57,57,57,57,57,41,50,47,56,47,56,49,43,191,191,191,57,191,191,57,57,57,57,57,57,57,189,189,189,189,189,189,189,189,189,189,189,189,189,189,189,189,189,189,189,17,6,7,16,16,16,7,8,57,17,17,57,57,57,57,57,57,57,57,57,57,57,57,57,57,57,57,57,57,57,57,57,41,50,47,44,53,57,57,57,57,57,57,57,57,57,57,57,57,57,57,57,57,57,57,57,57,57,57,57,46,56,47,56,56,56,56,191,191,191,191,191,191,191,191,191,57,57,57,57,57,189,189,189,189,189,189,189,189,189,189,189,189,189,189,189,189,189,189,189,17,6,7,16,16,7,7,8,57,17,17,57,57,57,57,57,57,57,57,57,57,57,57,57,57,57,57,57,57,57,57,41,50,47,47,48,57,57,57,57,57,57,57,57,57,57,57,57,57,57,57,57,57,57,57,57,57,57,57,57,46,47,56,47,47,56,56,48,191,191,191,191,57,57,191,191,191,57,57,57,57,57,57,57,57,57,57,57,57,57,57,57,57,57,57,57,57,57,57,57,17,6,7,16,16,16,7,8,57,17,17,57,57,57,57,57,57,57,57,57,57,57,57,57,57,57,57,57,57,57,57,46,56,56,44,53,57,57,57,57,57,57,57,57,57,57,57,57,57,57,57,57,57,57,57,57,57,57,57,57,46,56,47,47,56,47,56,48,57,57,57,57,57,57,57,57,191,191,57,57,57,57,57,57,57,57,57,57,57,57,57,57,57,57,57,57,57,57,57,57,17,6,7,7,16,16,7,8,57,17,17,57,57,57,57,57,57,57,57,57,57,57,57,57,57,57,57,57,57,57,41,50,47,56,48,57,57,57,57,57,57,57,57,57,57,57,57,57,57,57,57,57,57,57,57,57,57,57,57,57,46,47,47,47,56,56,56,48,57,57,57,57,57,57,57,57,57,191,57,57,57,57,57,57,57,57,57,57,57,57,57,57,57,57,57,57,57,57,57,57,17,6,16,7,16,7,16,8,57,17,17,57,57,57,57,57,57,57,57,57,57,57,57,57,57,57,57,57,57,57,51,45,47,44,53,57,57,57,57,57,57,57,57,57,57,57,57,57,57,57,57,57,57,57,57,57,57,57,57,57,51,45,56,47,47,56,44,53,57,57,57,57,57,57,57,57,57,57,57,57,57,57,57,57,57,57,57,57,57,57,57,57,57,57,57,57,57,57,57,57,17,6,16,16,7,7,16,8,17,17,17,17,17,17,17,17,17,17,17,17,17,17,17,17,17,17,17,17,17,17,17,17,17,17,17,17,17,17,17,17,17,17,17,17,17,17,17,17,17,17,17,17,17,17,17,17,17,17,17,17,17,17,17,17,17,17,17,17,17,17,17,17,17,17,17,17,17,17,17,17,17,17,17,17,17,17,17,17,17,17,17,17,17,17,17,17,17,17,17,17,17,6,7,7,7,16,7,8,17,17,17,17,17,17,17,17,17,17,17,17,17,17,17,17,17,17,17,17,17,17,17,17,17,17,17,17,17,17,17,17,17,17,17,17,17,17,17,17,17,17,17,17,17,17,17,17,17,17,17,17,17,17,17,17,17,17,17,17,17,17,17,17,17,17,17,17,17,17,17,17,17,17,17,17,17,17,17,17,17,17,17,17,17,17,17,17,17,17,17,17,17,6,16,16,16,7,7,8,17,17,17,57,57,57,57,57,57,57,57,57,57,57,57,57,57,57,57,57,57,57,57,57,57,57,57,57,57,57,57,57,57,57,57,57,57,57,57,57,57,57,57,57,57,57,57,57,57,57,57,57,57,57,57,57,57,57,57,57,57,57,57,57,57,57,57,57,57,57,57,57,57,57,57,57,57,57,57,57,57,57,57,57,57,57,57,57,57,57,57,57,1,10,7,16,16,16,7,9,2,2,2,2,2,2,2,2,2,2,2,2,2,2,2,2,2,2,2,2,2,2,2,2,2,2,2,2,2,2,2,2,2,2,2,2,2,2,2,2,2,2,2,2,2,2,2,2,2,2,2,2,2,2,2,2,2,2,2,2,2,2,2,2,2,2,2,2,2,2,2,2,2,2,2,2,2,2,2,2,2,2,2,2,2,2,2,2,2,2,2,3,10,7,16,16,16,16,7,7,16,16,7,7,7,16,16,7,7,7,7,7,16,7,16,7,16,7,7,16,7,7,16,16,16,16,16,16,7,7,7,16,16,7,7,7,7,16,7,16,7,16,16,7,16,16,16,7,7,16,7,16,16,7,16,7,7,7,7,16,7,16,16,16,7,16,16,7,7,7,16,7,16,7,16,16,7,16,7,16,16,16,7,16,16,16,7,7,16,7,7,9,7,16,7,16,16,7,7,16,7,7,7,7,7,7,16,16,16,16,16,7,16,7,16,16,7,7,7,7,7,16,7,7,7,7,7,7,16,7,7,7,7,7,7,16,16,7,7,7,7,16,16,7,7,7,7,7,7,16,7,16,16,7,7,7,7,16,7,16,16,7,16,16,7,7,7,16,16,16,7,16,7,16,16,7,7,7,7,16,16,7,16,7,7,16,16,16,7,16,7,7,16,7,7,16,7,7,7,16,7,7,16,16,16,16,16,7,16,7,7,7,7,16,7,16,16,16,7,16,16,7,16,16,16,16,16,7,16,7,16,7,7,16,7,7,7,16,16,7,16,7,16,16,16,7,16,16,16,16,16,7,7,16,16,16,16,7,7,16,7,7,16,16,7,7,7,7,16,16,7,16,16,7,7,7,7,7,16,16,7,16,7,16,7,7,16,16,16,16,16,16,16,7,7,16,7,7,16,16,16,7,7,16,16,7,16,16,7,7,7,7,16,7,16,7,7,16,16,16,16,16,16,7,16,16,7,7,7,16,7,16,16,7,16,7,7,16,16,7,16,16,7,7,16,16,7,7,16,7,16,7,16,7,16,7,16,16,16,7,16,7,16,16,16,7,16,16,7,16,7,7,7,16,16,16,16,16,16,7,16,7,7,7,7,7,7,16,16,7,7,16,5,7,7,16,16,7,7,16,16,7,7,7,7,16,7,16,16,16,16,7,16,16,7,16,7,16,7,7,16,16,16,7,16,7,7,16,7,16,16,7,16,16,16,16,7,7,16,7,7,16,7,16,16,7,16,7,7,16,7,7,16,16,7,16,16,7,16,16,7,16,7,7,7,16,16,7,16,16,7,7,16,16,16,16,16,16,16,16,16,16,16,7,16,16,16,7,7,16,16,4,11,5,16,7,16,16,16,4,12,12,12,12,12,12,12,12,12,12,12,12,12,12,12,12,12,12,12,12,12,12,12,12,12,12,12,12,12,12,12,12,12,12,12,12,12,12,12,12,12,12,12,12,12,12,12,12,12,12,12,12,12,12,12,12,12,12,12,12,12,12,12,12,12,12,12,12,12,12,12,12,12,12,12,12,12,12,12,12,12,12,12,12,12,12,12,12,12,12,12,13,17,6,16,7,16,16,16,8,17,17,17,57,57,57,57,57,57,57,57,57,57,57,57,57,57,57,57,57,57,57,57,57,57,57,57,57,57,57,57,57,57,57,57,57,57,57,57,57,57,57,57,57,57,57,57,57,57,57,57,57,57,57,57,57,57,57,57,57,57,57,57,57,57,57,57,57,57,57,57,57,57,57,57,57,57,57,57,57,57,57,57,57,57,57,57,57,57,57,57,57,17,6,7,7,7,16,7,8,17,17,17,17,17,17,17,17,17,17,17,17,17,17,17,17,17,17,17,17,17,17,17,17,17,17,17,17,17,17,17,17,17,17,17,17,17,17,17,17,17,17,17,17,17,17,17,17,17,17,17,17,17,17,17,17,17,17,17,17,17,57,17,17,17,17,17,17,17,17,17,17,17,17,17,17,17,17,17,17,17,17,17,17,17,17,17,17,17,17,17,17,17,6,16,16,16,7,16,8,17,17,17,17,17,17,17,17,17,17,17,17,17,17,17,17,17,17,17,17,17,17,17,17,17,17,17,17,17,17,17,17,17,17,17,17,17,17,17,17,17,17,17,17,17,17,17,17,17,17,17,17,17,17,17,17,17,17,17,17,17,17,17,17,17,17,17,17,17,17,17,17,17,17,17,17,17,17,17,17,17,17,17,17,17,17,17,17,17,17,17,17,17,6,7,16,16,7,16,8,57,17,17,17,57,57,57,57,57,57,57,57,57,57,57,57,57,57,57,57,57,57,57,57,57,57,57,57,57,57,57,57,57,57,57,57,57,57,57,57,57,57,57,57,57,57,57,57,57,57,57,57,57,57,57,57,57,57,57,57,57,57,57,57,57,57,57,57,57,57,57,57,57,57,57,57,57,57,57,57,57,57,57,57,57,57,57,57,57,57,57,57,17,6,16,16,7,7,16,8,57,17,17,57,57,57,57,57,57,57,57,57,57,57,57,57,57,57,57,57,57,57,57,57,57,57,57,57,57,57,57,57,57,57,57,57,57,57,57,57,57,57,57,57,57,57,57,57,57,57,57,57,57,57,57,57,57,57,57,57,57,57,57,57,57,57,57,57,57,57,57,57,57,57,57,57,57,57,57,57,57,57,57,57,57,57,57,57,57,57,57,57,17,6,7,7,7,16,16,8,57,17,17,57,57,57,57,57,57,57,57,57,57,57,57,57,57,57,57,57,57,57,57,57,57,57,57,57,57,57,57,57,57,57,57,57,57,57,57,57,57,57,57,57,57,57,57,57,57,57,57,57,57,57,57,57,57,57,57,57,57,57,57,57,57,57,57,57,57,57,57,57,57,57,57,57,57,57,57,57,57,57,57,57,57,57,57,57,57,57,57,57,17,11,5,16,16,7,4,13,57,17,17,57,57,57,57,57,57,57,57,57,57,57,57,57,57,57,57,57,57,57,57,57,57,57,57,57,57,57,57,57,57,57,57,57,57,57,57,57,57,57,57,57,57,57,57,57,57,57,57,57,57,57,57,57,57,57,57,57,57,57,57,57,57,57,57,57,57,57,57,57,57,57,57,57,57,57,57,57,57,57,57,57,57,57,57,57,57,57,57,57]},{"id":6,"name":"shadows","type":"tilelayer","width":100,"height":68,"x":0,"y":0,"opacity":1,"visible":true,"data":[0,0,0,0,0,0,0,0,0,0,0,0,209,0,0,0,0,0,0,0,0,0,0,0,0,0,0,0,0,0,0,0,0,0,0,0,0,0,0,0,0,0,0,0,0,0,0,0,0,0,0,0,0,0,0,0,0,0,0,0,0,0,0,0,0,0,0,0,0,0,0,0,0,0,0,0,0,0,0,0,0,0,0,0,0,0,0,0,0,0,0,0,0,0,0,0,0,0,0,0,0,0,0,0,0,0,0,0,0,0,0,0,209,0,0,0,0,0,0,0,0,0,0,0,0,0,0,0,0,0,0,0,0,0,0,0,0,0,0,0,0,0,0,0,0,0,0,0,0,0,0,0,0,0,0,0,0,0,0,0,0,0,0,0,0,0,0,0,0,0,0,0,0,0,0,0,0,0,0,0,0,0,0,0,0,0,0,0,0,0,0,0,0,0,0,0,0,0,0,0,0,0,0,0,0,0,0,0,0,0,0,0,0,0,0,0,0,0,0,0,0,0,0,0,0,0,0,0,0,0,0,0,0,0,0,0,0,0,0,0,0,0,0,0,0,0,0,0,0,0,0,0,0,0,0,0,0,0,0,0,0,0,0,0,0,0,0,0,0,0,0,0,0,0,0,0,0,0,0,0,209,0,0,0,0,0,0,0,0,0,0,0,0,0,0,0,0,0,0,0,0,0,0,0,0,0,0,0,0,0,0,0,210,208,208,208,0,0,210,208,208,208,208,208,208,208,208,208,208,208,208,0,0,0,0,210,208,208,208,208,208,208,208,208,208,208,208,208,0,0,0,0,210,208,208,208,208,208,208,208,208,208,208,208,208,208,208,208,208,208,208,208,208,208,208,208,208,208,208,0,209,0,0,0,0,0,0,0,0,0,0,0,0,0,0,0,0,0,0,0,0,0,0,0,0,0,0,0,0,0,0,0,209,0,0,0,0,0,209,0,0,0,0,0,0,0,0,0,0,0,0,208,208,208,208,211,0,0,0,0,0,0,0,0,0,0,0,0,208,208,208,208,211,0,0,0,0,0,0,0,0,0,0,0,0,0,0,0,0,0,0,0,0,0,0,0,0,0,0,0,209,0,0,0,0,0,0,0,0,0,0,0,0,0,0,0,0,0,0,0,0,0,0,0,0,0,0,0,0,0,0,0,209,0,0,0,208,208,211,0,0,0,0,0,0,0,0,0,0,0,0,0,0,0,0,0,0,0,0,0,0,0,0,0,0,0,0,0,0,0,0,0,0,0,0,0,0,0,0,0,0,0,0,0,0,0,0,0,0,0,0,0,0,0,0,0,209,0,0,0,209,0,0,0,0,0,0,0,0,0,0,209,0,0,0,0,0,0,0,0,0,0,0,0,0,0,0,0,0,0,0,0,209,0,0,0,0,0,0,0,0,0,0,0,0,0,0,0,0,0,0,0,0,0,0,0,0,0,0,0,0,0,0,0,0,0,0,0,0,0,0,0,0,0,0,0,0,0,0,0,0,0,0,0,0,0,0,0,0,0,0,0,0,0,0,0,209,0,0,0,209,0,0,0,0,0,0,0,0,208,208,211,0,0,0,0,0,0,0,0,0,0,0,0,0,0,0,0,0,0,0,0,209,0,0,0,0,0,0,0,0,0,0,0,0,0,0,0,0,0,0,0,0,0,0,0,0,0,0,0,0,0,0,0,0,0,0,0,0,0,0,0,0,0,0,0,0,0,0,0,0,0,0,0,0,0,0,0,0,0,0,0,0,0,0,0,209,0,0,0,209,0,0,0,0,0,0,0,0,0,0,0,0,0,0,0,0,0,0,0,0,0,0,0,0,0,0,0,0,0,0,0,209,0,0,0,0,0,0,0,0,0,0,0,0,0,0,0,0,0,0,0,0,0,0,0,0,0,0,0,0,0,0,0,0,0,0,0,0,0,0,0,0,0,0,0,0,0,0,0,0,0,0,0,0,0,0,0,0,0,0,0,0,0,0,0,209,0,0,0,209,0,0,0,0,0,0,0,209,0,0,0,0,0,0,0,0,0,0,0,0,0,0,0,0,0,0,0,0,0,0,0,209,0,0,0,0,0,0,0,0,0,0,0,0,0,0,0,0,0,0,0,0,0,0,0,0,0,0,0,0,0,0,0,0,0,0,0,0,0,0,0,0,0,0,0,0,0,0,0,0,0,0,0,0,0,0,0,0,0,0,210,208,208,208,208,211,0,0,0,209,0,0,0,0,0,0,0,209,0,0,0,0,0,0,0,0,0,0,0,0,0,0,0,0,0,0,0,0,0,0,0,209,0,0,0,0,0,0,0,0,0,0,0,0,0,0,0,0,0,0,0,0,0,0,0,0,0,0,0,0,0,0,0,0,0,0,0,0,0,0,0,0,0,0,0,0,0,0,0,0,0,0,0,0,0,0,0,0,0,208,211,0,0,0,0,0,0,0,0,209,0,0,0,0,0,208,208,211,0,0,0,0,0,0,0,0,0,0,0,0,0,0,0,0,0,0,0,0,0,0,0,209,0,0,0,0,0,0,0,0,0,0,0,0,0,0,0,0,0,0,0,0,0,0,0,0,0,0,0,0,0,0,0,0,0,0,0,0,0,0,0,0,0,0,0,0,0,0,0,0,0,0,0,0,0,0,0,0,0,0,0,0,0,0,0,0,0,0,0,209,0,0,0,0,0,0,0,0,0,0,0,209,0,0,0,0,209,0,0,0,0,0,0,0,0,0,0,0,0,0,0,209,0,0,0,0,0,0,0,0,0,0,0,0,0,0,0,209,0,0,0,0,0,0,0,0,0,0,0,0,0,0,0,209,0,0,209,0,0,0,0,0,0,0,0,0,0,0,0,0,0,209,0,0,0,0,0,0,0,0,0,0,0,0,0,0,0,0,0,209,0,0,0,0,209,0,0,0,0,0,0,209,0,0,0,0,209,0,0,0,0,0,0,0,0,0,0,0,0,0,0,209,0,0,0,0,0,0,0,0,0,0,0,0,0,208,208,211,0,0,0,0,0,0,0,0,0,0,0,0,0,0,0,209,0,0,209,0,0,0,0,0,0,0,0,0,0,0,0,0,0,209,0,0,0,0,0,0,0,0,0,0,0,0,0,0,0,0,0,209,0,0,208,208,211,0,0,0,208,208,208,211,0,0,208,208,211,0,0,0,0,0,0,0,0,0,0,0,0,0,0,209,0,0,0,0,0,0,0,0,0,0,0,0,0,0,0,0,0,0,0,0,0,0,0,0,0,0,0,0,0,0,208,211,0,208,211,0,209,0,0,0,0,0,0,0,0,0,0,208,208,211,0,0,0,0,0,0,0,0,0,0,0,0,0,0,209,0,0,209,0,0,0,0,0,0,0,0,0,0,0,0,0,0,209,0,0,0,0,0,0,0,0,0,0,0,0,0,0,0,0,209,0,0,0,0,0,0,0,0,0,0,0,0,0,0,0,0,0,0,0,0,0,0,0,0,0,0,0,0,0,0,0,0,0,0,0,208,211,0,0,0,0,0,0,0,0,0,0,0,0,0,0,0,0,0,0,0,0,0,0,0,0,0,0,0,209,0,0,209,0,0,0,0,0,0,0,0,0,0,0,0,0,0,209,0,0,0,0,0,0,0,0,0,0,0,0,0,0,0,0,209,0,0,0,0,0,0,0,0,0,0,0,0,0,0,0,0,209,0,0,0,0,0,0,0,0,0,0,0,0,0,209,0,0,0,0,0,0,0,0,0,0,0,0,0,0,0,0,0,0,0,0,0,0,0,0,0,0,0,0,0,0,0,208,208,211,0,0,209,0,0,0,0,0,0,0,0,0,0,0,0,210,208,211,0,0,0,0,0,0,0,0,0,0,0,0,0,0,0,0,209,0,0,0,0,0,0,0,0,0,0,210,208,208,208,208,0,209,0,0,0,0,0,0,0,0,210,208,208,208,0,209,0,0,0,0,0,0,0,0,0,0,0,0,0,0,0,0,0,0,0,0,0,0,0,0,0,0,0,0,0,0,0,0,0,0,0,0,209,0,0,0,0,0,0,0,0,0,0,208,208,211,0,0,0,0,0,0,0,0,0,0,0,0,0,0,0,0,0,0,209,0,0,0,0,0,0,0,0,0,0,209,0,0,0,0,0,0,0,0,0,209,0,0,210,208,211,0,0,0,0,209,0,0,0,0,0,0,0,0,0,0,0,0,0,0,0,0,209,0,0,0,0,0,0,0,0,0,0,0,0,0,0,0,0,0,0,0,209,0,0,0,0,0,0,0,0,0,0,0,0,0,0,0,0,0,0,0,0,0,0,0,0,0,0,0,0,0,0,0,209,0,0,0,210,208,208,0,0,0,210,211,0,0,0,0,208,208,208,208,0,0,0,0,209,0,0,0,0,0,0,0,0,0,0,209,0,0,0,0,0,0,0,210,208,208,208,0,209,0,0,0,0,0,0,0,0,0,0,0,0,0,0,0,0,0,0,0,209,0,0,0,0,0,0,0,0,0,0,0,0,0,0,0,0,0,0,0,0,0,0,0,0,0,0,0,0,0,0,0,209,0,0,0,209,0,0,208,208,0,209,0,0,0,0,0,0,0,0,0,0,0,0,0,209,0,0,0,0,0,208,208,208,208,0,209,0,0,0,0,0,0,0,209,0,0,0,0,209,0,0,0,0,0,0,0,0,0,0,0,0,0,0,0,0,0,0,0,209,0,0,0,0,0,0,0,0,0,0,0,0,0,0,0,0,0,0,0,0,0,0,0,0,0,0,0,0,0,0,0,209,0,0,0,209,0,0,0,0,208,211,0,0,0,0,0,0,209,0,0,0,210,208,208,211,0,0,0,0,0,0,0,0,0,0,209,0,0,0,0,0,0,0,209,0,0,0,0,209,0,0,0,0,0,0,0,0,0,0,0,0,0,0,0,0,0,0,0,209,0,0,0,0,0,0,0,0,0,0,0,0,0,0,0,0,0,0,0,0,0,0,0,0,0,0,0,0,0,0,0,209,0,0,0,209,0,0,0,0,0,0,0,208,208,208,208,208,0,0,0,0,209,0,0,0,0,0,0,0,209,0,0,0,0,0,0,0,0,0,0,0,0,0,209,0,0,0,0,0,0,0,0,0,0,0,209,0,0,0,0,0,0,0,0,0,0,0,0,209,0,0,0,0,0,0,0,0,0,0,0,0,0,0,0,0,0,0,0,0,0,0,0,0,0,0,0,0,0,0,0,209,0,0,0,209,0,0,0,0,0,209,0,0,0,0,0,0,208,208,208,0,209,0,0,0,208,208,208,208,211,0,0,0,0,210,208,208,208,208,208,208,208,0,209,0,208,0,0,0,210,208,208,208,208,0,209,0,0,0,0,0,0,0,0,0,0,0,0,209,0,0,0,0,0,0,0,0,0,0,0,0,0,0,0,0,0,0,0,0,0,0,0,0,0,0,0,0,0,0,0,209,0,0,0,0,0,209,0,0,0,209,0,0,0,0,0,0,209,0,0,0,209,0,0,0,0,0,0,0,0,0,0,0,208,211,0,0,0,0,0,0,0,0,209,0,0,208,0,0,209,0,0,0,0,0,209,0,0,0,0,0,0,0,0,0,0,0,0,209,0,0,0,0,0,0,0,0,0,0,0,0,0,0,0,0,0,0,0,0,0,0,0,0,0,0,0,0,0,0,0,209,0,0,0,0,210,211,0,208,0,209,0,208,0,0,210,208,211,0,0,0,209,0,0,0,0,0,0,0,0,0,0,0,0,0,0,0,0,0,0,0,0,208,211,0,0,0,0,210,211,0,0,0,0,0,209,0,0,0,0,0,0,0,0,0,0,0,0,209,0,0,0,0,0,0,0,0,0,0,0,0,0,0,0,0,0,0,0,0,0,0,0,0,0,0,0,0,0,0,0,209,0,0,0,210,211,0,0,0,208,211,0,0,0,0,209,0,0,0,0,0,209,0,0,0,0,0,0,0,0,0,0,0,0,0,0,0,0,0,0,0,0,0,0,0,0,0,0,209,0,0,0,0,0,0,209,0,0,0,0,0,0,0,0,0,0,0,0,209,0,0,210,208,208,208,208,208,208,208,208,208,0,210,208,208,208,208,0,0,0,0,0,0,0,0,0,0,0,0,0,209,0,0,0,209,0,0,0,0,0,0,0,0,208,208,211,0,0,0,0,0,209,0,0,0,0,0,0,0,0,0,0,0,0,0,0,0,0,0,0,0,0,0,209,0,0,0,0,209,0,0,0,0,0,0,209,0,0,0,0,0,0,0,0,0,0,0,0,209,0,0,209,0,0,0,0,0,0,0,0,0,208,211,0,0,0,0,0,0,0,0,0,0,0,0,0,0,209,0,0,209,0,0,0,209,0,0,0,0,0,209,0,0,0,0,0,0,0,0,0,0,209,0,0,0,209,0,0,0,0,0,0,0,0,0,0,0,0,0,0,0,0,0,209,0,0,0,0,209,0,0,0,0,0,0,209,0,0,0,0,0,0,0,0,0,0,0,0,209,0,0,209,0,0,0,0,0,0,0,209,0,0,0,0,0,0,0,0,0,0,0,0,0,0,0,0,208,211,0,0,209,0,0,0,0,0,0,0,0,0,0,0,0,0,0,0,0,0,0,0,0,0,0,0,0,0,0,0,0,0,0,0,0,0,0,0,0,0,0,0,0,0,0,0,0,0,0,0,209,0,0,0,0,208,0,209,0,0,0,0,0,0,0,0,0,0,0,0,209,0,0,209,0,0,0,0,0,0,0,209,0,0,0,0,209,0,0,0,0,0,0,0,0,0,0,0,0,0,0,0,209,0,0,0,210,208,208,208,208,208,208,208,208,208,0,0,0,210,208,208,0,210,208,208,208,208,208,208,208,208,208,0,0,210,208,0,210,208,208,208,208,208,208,208,208,208,208,0,209,0,0,0,0,0,0,209,0,0,0,0,0,0,0,0,0,0,0,0,209,0,0,0,0,209,0,0,0,0,0,209,0,0,0,0,209,0,0,0,0,0,0,0,0,0,0,0,0,0,0,0,209,0,0,0,209,0,0,0,0,0,0,0,0,0,208,208,208,211,0,0,0,209,0,0,0,0,0,0,0,0,0,208,208,211,0,0,209,0,0,0,0,0,0,0,0,0,0,0,209,0,0,0,0,0,0,209,0,0,0,0,0,0,0,0,0,0,0,0,209,0,0,0,0,209,0,0,0,0,0,209,0,0,0,0,209,0,0,0,0,0,0,0,0,0,0,0,0,0,0,0,209,0,0,0,209,0,0,0,0,209,0,0,0,0,0,0,0,0,0,0,0,209,0,0,0,0,0,0,0,0,0,0,0,0,0,0,209,0,0,0,0,0,0,0,0,0,0,0,209,0,0,0,0,0,0,209,0,0,0,0,0,0,0,0,0,0,0,0,209,0,0,210,208,211,0,0,0,0,208,211,0,0,210,208,211,0,208,0,0,0,0,0,0,0,0,0,0,0,0,0,209,0,0,0,0,209,0,0,0,209,0,0,0,0,209,0,0,0,209,0,0,0,0,209,0,0,0,0,209,0,0,0,0,0,0,0,209,0,0,0,0,0,0,0,0,0,0,0,0,209,0,0,0,0,0,0,0,0,0,0,0,0,0,0,0,0,0,0,209,0,0,209,0,0,0,0,0,0,0,0,0,208,211,0,0,0,0,0,0,0,0,0,0,0,0,0,0,0,0,0,209,0,0,0,0,209,0,0,0,209,0,0,0,0,209,0,0,0,209,0,0,0,0,209,0,0,0,0,209,0,208,208,208,0,0,0,209,0,0,0,0,0,0,0,209,0,0,0,210,211,0,208,208,208,208,208,208,208,208,208,0,210,208,208,208,208,208,0,209,0,0,209,0,0,0,0,0,0,0,0,0,0,0,0,0,0,0,0,0,0,0,0,0,0,0,0,0,0,0,0,209,0,0,0,210,211,0,0,210,211,0,0,208,208,211,0,208,208,211,0,0,210,208,211,0,0,0,0,209,0,0,0,0,0,0,0,209,0,0,0,0,0,0,0,209,0,208,0,209,0,0,0,0,0,0,0,0,0,0,0,0,209,0,0,0,0,0,0,209,0,0,209,0,0,0,0,0,0,0,0,0,0,209,0,0,0,0,0,0,0,0,0,0,0,0,0,0,0,0,0,209,0,208,0,209,0,0,208,211,0,0,0,0,0,0,0,0,0,0,0,0,209,0,0,0,208,208,208,211,0,0,0,0,0,0,0,209,0,0,208,208,208,208,208,211,0,0,0,209,0,0,0,0,0,0,0,0,209,0,0,0,209,0,0,0,0,0,0,209,0,0,209,0,0,0,0,0,0,0,0,0,0,209,0,0,0,0,0,0,0,0,0,0,0,0,0,0,0,0,0,209,0,0,0,209,0,0,0,0,0,0,0,0,0,0,0,0,0,0,0,0,209,0,0,0,0,0,0,0,0,208,208,208,208,0,0,209,0,0,0,0,0,0,0,0,0,0,0,209,0,0,0,0,0,0,0,0,209,0,0,0,209,0,0,0,0,0,0,209,0,0,209,0,0,0,0,0,0,0,0,0,0,0,209,0,0,0,0,0,0,0,0,0,0,0,0,0,0,0,0,0,0,0,0,0,0,0,0,209,0,0,0,0,0,0,0,0,0,0,0,0,209,0,0,0,0,0,0,0,0,0,0,0,0,208,0,209,0,0,0,0,0,0,0,0,0,0,0,209,0,0,0,0,0,0,0,0,209,0,0,0,209,0,0,0,0,0,0,209,0,0,209,0,0,0,0,0,0,210,208,0,0,0,209,0,208,208,0,0,0,0,0,0,0,0,0,0,0,0,208,208,208,208,208,208,208,208,0,209,0,0,0,0,0,0,0,0,0,0,0,0,209,0,0,0,0,0,0,0,0,0,209,0,0,0,0,209,0,0,0,0,0,0,0,0,0,0,0,209,0,0,0,0,0,0,0,0,209,0,0,0,209,0,0,0,0,0,0,209,0,0,209,0,0,0,0,0,208,211,0,208,208,208,211,0,0,0,0,0,0,0,0,0,0,0,0,0,0,0,0,0,0,0,0,0,0,0,0,0,0,209,0,0,0,0,0,0,0,0,0,0,209,0,0,0,0,0,0,0,0,0,0,0,0,0,0,0,0,0,209,0,0,0,0,0,0,0,0,209,0,0,0,0,0,0,0,0,209,0,0,0,209,0,0,0,0,0,0,209,0,0,209,0,0,0,0,0,0,0,0,0,0,0,0,0,0,0,0,0,0,0,0,0,0,0,0,0,0,0,0,0,0,0,0,0,0,0,0,0,0,209,0,0,0,0,0,0,0,0,0,0,0,0,0,0,0,0,0,0,0,0,210,208,208,208,208,208,208,0,209,0,0,0,0,0,210,208,0,209,0,0,0,0,0,208,208,208,211,0,0,0,209,0,0,0,0,0,0,209,0,0,209,0,0,0,0,0,0,209,0,0,0,0,0,0,0,0,0,0,0,0,0,0,0,0,0,0,0,0,0,0,209,0,0,0,0,0,0,0,0,0,0,0,0,0,0,0,0,0,0,210,208,208,208,208,208,208,208,208,208,208,211,0,0,0,0,0,0,0,0,0,0,0,0,0,209,0,0,209,0,0,0,0,0,0,0,0,0,0,0,0,209,0,0,0,0,0,0,209,0,0,209,0,0,0,0,0,0,209,0,0,0,0,0,0,0,0,0,0,0,0,0,0,0,0,0,0,0,0,0,0,209,0,0,0,0,0,208,208,208,208,208,208,208,208,208,208,208,208,208,0,209,0,0,0,0,0,0,0,0,0,209,0,0,0,0,0,0,208,208,208,208,208,208,208,211,0,0,209,0,0,0,0,0,0,0,0,0,0,0,0,209,0,0,0,0,0,0,209,0,0,209,0,0,0,0,0,0,209,0,0,0,0,0,0,0,0,0,0,0,0,0,0,0,0,0,0,0,0,0,0,209,0,0,0,0,0,0,0,0,0,0,0,0,0,0,0,0,0,0,208,211,0,0,0,0,0,0,0,0,208,211,0,0,0,0,0,0,0,0,0,0,0,0,0,0,0,0,0,0,0,0,0,0,0,0,0,0,0,0,0,209,0,0,0,0,0,0,209,0,0,0,0,0,0,0,0,0,0,0,0,0,0,0,0,0,0,0,0,0,0,0,0,0,0,0,0,0,0,0,0,209,0,0,0,0,0,0,0,0,0,0,0,0,0,0,0,0,0,0,0,0,0,0,0,0,0,0,0,0,0,0,0,0,0,0,0,0,0,0,0,0,0,0,0,0,0,208,208,208,208,208,208,208,208,208,208,208,208,208,208,211,0,0,0,0,0,0,209,0,0,0,0,0,0,0,0,0,0,0,0,0,0,0,0,0,0,0,0,0,0,0,0,0,0,0,0,0,0,0,208,211,0,0,0,0,0,0,0,0,0,0,209,0,0,0,0,0,0,0,0,0,0,0,0,0,0,0,0,0,0,0,0,0,0,0,0,0,0,0,0,0,0,0,0,0,0,0,0,0,0,0,0,0,0,0,0,0,0,0,0,0,0,0,0,0,0,0,209,0,0,0,0,0,0,0,0,0,0,0,0,0,0,0,0,0,0,0,0,0,0,0,0,0,209,0,0,0,0,0,0,0,0,0,0,0,0,0,0,0,0,0,209,0,0,0,0,0,0,0,0,0,0,0,0,0,0,0,0,0,0,0,0,0,209,0,0,0,0,0,0,0,0,0,0,0,0,0,0,0,0,0,0,0,0,0,0,0,0,0,0,0,0,0,0,0,0,0,209,0,0,0,0,0,0,0,0,0,0,0,0,0,0,0,0,0,0,0,0,0,0,0,0,0,209,0,0,0,0,0,0,0,0,0,0,0,0,0,0,0,208,208,211,0,0,0,0,0,0,0,0,0,0,0,0,0,0,0,0,0,0,0,0,0,209,0,0,0,0,0,0,0,0,0,0,0,0,0,0,0,0,0,0,0,0,0,0,0,0,0,0,0,0,0,0,0,0,0,209,0,0,0,0,0,0,0,0,0,0,0,0,0,0,0,0,0,0,0,0,0,208,208,208,208,211,0,0,0,0,0,0,0,0,0,0,0,0,0,0,0,0,0,0,0,0,0,0,0,0,0,0,0,0,0,0,0,0,0,0,0,0,0,208,208,211,0,0,0,0,0,0,0,0,0,0,0,0,0,0,0,0,0,0,0,0,0,0,0,0,0,0,0,0,0,0,0,0,0,209,0,0,0,0,0,0,0,0,0,0,0,0,0,0,0,0,0,0,0,0,0,0,0,0,0,0,0,0,0,0,0,0,0,0,0,209,0,0,0,0,0,0,0,0,0,0,0,0,0,0,0,0,0,0,209,0,0,0,0,0,0,209,0,0,0,0,0,0,0,0,0,0,0,0,0,0,0,0,0,0,209,0,0,0,0,0,0,0,0,0,0,0,0,209,0,0,0,0,0,0,0,0,0,0,0,0,0,0,0,0,0,0,0,0,0,0,0,0,0,0,0,0,0,0,0,0,0,0,0,0,0,208,208,208,208,211,0,0,0,0,0,0,0,0,0,0,0,0,0,0,0,0,0,208,211,0,0,208,208,208,208,211,0,0,0,0,0,0,0,0,0,0,0,0,0,0,0,0,0,208,211,0,0,0,0,0,0,0,0,208,208,208,208,211,0,0,0,0,208,208,208,208,208,208,208,208,208,208,208,208,208,208,208,208,208,208,208,208,208,0,0,0,0,0,0,0,0,0,0,0,0,0,0,0,0,0,0,0,0,0,0,0,0,0,0,0,0,0,0,0,0,0,0,0,0,0,0,0,0,0,0,0,0,0,0,0,0,0,0,0,0,0,0,0,0,0,0,0,0,0,0,0,0,0,0,0,0,0,0,0,0,0,0,0,0,0,0,0,0,0,0,0,0,0,0,0,0,0,0,0,0,0,0,0,0,0,0,0,0,0,0,0,0,0,0,0,0,0,0,0,0,0,0,0,0,0,0,0,0,0,0,0,0,0,0,209,0,0,0,0,0,0,0,0,0,0,0,0,0,0,0,0,0,0,0,0,0,0,0,0,0,0,209,0,0,0,0,0,0,0,0,0,0,0,0,0,0,0,0,0,0,0,0,0,0,0,0,0,0,0,0,0,0,0,0,0,0,0,0,0,0,0,0,0,0,0,0,0,0,0,0,0,0,0,0,0,0,0,0,0,0,0,0,0,0,0,0,0,0,0,0,0,0,0,208,211,0,0,0,0,0,0,0,0,0,0,0,0,0,0,0,0,0,0,0,0,0,0,0,0,0,208,211,0,0,0,0,0,0,0,0,0,0,0,0,0,0,0,0,0,0,0,0,0,0,0,0,0,0,0,0,0,0,0,0,0,0,0,0,0,0,0,0,0,0,0,0,0,0,0,0,0,0,0,0,0,0,0,0,0,0,0,0,0,0,0,0,0,0,0,0,0,0,0,0,0,0,0,0,0,0,0,0,0,0,0,0,0,0,0,0,0,0,0,0,0,0,0,0,209,0,0,0,0,0,0,0,0,0,0,0,0,0,0,0,0,0,0,0,0,0,0,0,0,0,0,0,0,0,0,0,0,0,0,0,0,0,0,0,0,0,0,0,0,0,0,0,0,0,0,0,0,0,0,0,0,0,0,0,0,0,0,0,0,0,0,0,0,0,0,0,0,0,0,0,0,0,0,0,0,0,0,0,0,0,0,0,0,0,0,0,0,0,0,0,0,0,0,0,209,0,0,0,0,0,0,0,0,0,0,0,0,0,0,0,0,0,0,0,0,0,0,0,0,0,0,0,0,0,0,0,0,0,0,0,0,0,0,0,0,0,0,0,0,0,0,0,0,0,0,0,0,0,0,0,0,0,0,0,0,0,0,0,0,0,0,0,0,0,0,0,0,0,0,0,0,0,0,0,0,0,0,0,0,0,0,0,0,0,0,0,0,0,0,0,208,208,208,208,211,0,0,0,0,0,0,0,0,0,0,0,0,0,0,0,0,0,0,0,0,0,0,0,0,0,0,0,0,0,0,0,0,0,0,0,0,0,0,0,0,0,0,0,0,0,0,0,0,0,0,0,0,0,0,0,0,0,0,0,0,0,0,0,0,0,0,0,0,0,0,0,0,0,209,0,0,0,0,0,0,0,0,0,0,0,0,0,0,0,0,0,0,0,0,0,0,0,0,0,0,0,0,0,0,0,0,0,0,0,0,0,0,0,0,0,0,0,0,0,0,0,0,0,0,0,0,0,0,0,0,0,0,0,0,0,0,0,0,0,0,0,0,0,0,0,0,0,0,0,0,0,0,0,0,0,0,0,0,0,0,0,0,0,0,0,0,0,0,0,0,0,0,0,209,0,0,0,0,0,0,0,0,0,0,0,0,0,0,0,0,0,0,0,0,0,0,0,0,0,0,0,0,0,0,0,0,0,0,0,0,0,0,0,0,0,0,0,0,0,0,0,0,0,0,0,0,0,0,0,0,0,0,0,0,0,0,0,0,0,0,0,0,0,0,0,0,0,0,0,0,0,0,0,0,0,0,0,0,0,0,0,0,0,0,0,0,0,0,0,208,208,208,208,211,0,0,0,0,0,0,0,0,0,0,0,0,0,0,0,0,0,0,0,0,0,0,0,0,0,0,0,0,0,0,0,0,0,0,0,0,0,0,0,0,0,0,0,0,0,0,0,0,0,0,0,0,0,0,0,0,0,0,0,0,0,0,0,0,0,0,0,0,0,0,0,0,0,0,0,0,0,0,0,0,0,0,0,0,0,0,0,0,0,0,0,0,0,0,0,0,0,0,0,0,0,0,0,0,0,0,0,0,0,0,0,0,0,0,209,0,0,0,0,0,0,0,0,0,0,0,0,0,0,0,0,0,0,0,0,0,0,0,0,0,0,0,0,0,0,0,0,0,0,0,0,0,0,0,0,0,0,0,0,0,0,0,0,0,0,0,0,0,0,0,0,0,0,0,0,0,0,0,0,0,0,0,0,0,0,0,0,0,0,0,0,0,0,0,0,0,0,0,0,0,0,0,0,0,0,0,0,0,0,0,0,0,0,208,211,0,0,0,0,0,0,0,0,0,0,0,0,0,0,0,0,0,0,0,0,0,0,0,0,0,0,0,0,0,0,0,0,0,0,0,0,0,0,0,0,0,0,0,0,0,0,0,0,0,0,0,0,0,0,0,0,0,0,0,0,0,0,0,0,0,0,0,0,0,0,0,0,0,0,0,0,0,0,0,0,0,0,0,0,0,0,0,0,0,0,0,0,0,0,0,0,0,0,0,0,0,0,0,0,0,0,0,0,0,0,0,0,0,0,0,0,0,0,0,0,0,0,0,0,0,0,0,0,0,0,0,0,0,0,0,0,0,0,0,0,0,0,0,0,0,0,0,0,0,0,0,0,0,0,0,0,0,0,0,0,0,0,0,0,0,0,0,0,0,0,0,0,0,0,0,0,0,0,0,0,0,0,0,0,0,0,0,0,0,0,0,0,0,0,0,0,0,0,0,0,0,0,0,0,0,0,0,0,0,0,0,0,0,0,0,0,0,0,0,0,0,0,0,0,0,0,0,0,0,0,0,0,0,0,0,0,0,0,0,0,0,0,0,0,0,0,0,0,0,0,0,0,0,0,0,0,0,0,0,0,0,0,0,0,0,0,0,0,0,0,0,0,210,208,208,208,208,208,208,208,208,208,208,208,208,208,208,208,208,208,208,208,208,208,208,208,208,208,208,208,208,208,208,208,208,208,208,208,208,208,208,208,208,208,208,208,208,208,208,208,208,208,208,208,208,208,208,208,208,208,208,208,208,208,208,208,208,208,208,208,208,208,208,208,208,208,208,208,208,208,208,208,208,208,208,208,208,208,208,208,0,0,0,0,0,0,0,0,0,0,0,0,209,0,0,0,0,0,0,0,0,0,0,0,0,0,0,0,0,0,0,0,0,0,0,0,0,0,0,0,0,0,0,0,0,0,0,0,0,0,0,0,0,0,0,0,0,0,0,0,0,0,0,0,0,0,0,0,0,0,0,0,0,0,0,0,0,0,0,0,0,0,0,0,0,0,0,0,0,0,0,0,0,0,0,0,0,0,0,0,0,0,0,0,0,0,0,0,0,0,0,0,209,0,0,0,0,0,0,0,0,0,0,0,0,0,0,0,0,0,0,0,0,0,0,0,0,0,0,0,0,0,0,0,0,0,0,0,0,0,0,0,0,0,0,0,0,0,0,0,0,0,0,0,0,0,0,0,0,0,0,0,0,0,0,0,0,0,0,0,0,0,0,0,0,0,0,0,0,0,0,0,0,0,0,0,0,0,0,0]},{"id":2,"name":"walls","type":"tilelayer","width":100,"height":68,"x":0,"y":0,"opacity":1,"visible":true,"data":[0,0,0,0,0,0,0,0,0,0,0,154,0,0,0,0,0,0,0,0,0,0,0,0,0,0,0,0,0,0,0,0,0,0,0,0,0,0,0,0,0,0,0,0,0,0,0,0,0,0,0,0,0,0,0,0,0,0,0,0,0,0,0,0,0,0,0,0,0,0,0,0,0,0,0,0,0,0,0,0,0,0,0,0,0,0,0,0,0,0,0,0,0,0,0,0,0,0,0,0,0,0,0,0,0,0,0,0,0,0,0,154,0,0,0,0,0,0,0,0,0,0,0,0,0,0,0,0,0,0,0,0,0,0,0,0,0,0,0,0,0,0,0,0,0,0,0,0,0,0,0,0,0,0,0,0,0,0,0,0,0,0,0,0,0,0,0,0,0,0,0,0,0,0,0,0,0,0,0,0,0,0,0,0,0,0,0,0,0,0,0,0,0,0,0,0,0,0,0,0,0,0,0,0,0,0,0,0,0,0,0,149,138,138,138,138,138,138,138,138,138,138,138,0,138,138,138,138,138,138,138,138,138,138,138,138,138,138,138,138,138,138,138,138,138,138,138,138,138,138,138,138,138,138,138,138,138,138,138,138,138,0,138,138,138,138,138,138,138,138,138,138,138,138,138,138,138,138,138,138,0,0,0,0,0,0,0,0,0,0,0,0,0,0,0,0,0,0,0,0,0,0,0,0,0,0,0,0,0,0,0,154,0,0,0,0,0,0,0,0,0,0,0,0,0,0,0,0,0,0,0,0,0,0,0,0,0,0,0,0,0,0,0,0,0,0,0,0,0,0,0,0,0,0,0,0,0,0,0,0,0,0,0,0,0,0,0,0,0,0,0,0,0,0,0,0,0,0,0,154,0,0,0,0,0,0,0,0,0,0,0,0,0,0,0,0,0,0,0,0,0,0,0,0,0,0,0,0,0,0,0,154,0,0,0,0,0,0,0,0,0,0,0,0,0,0,0,0,0,0,0,0,0,0,0,0,0,0,0,0,0,0,0,0,0,0,0,0,0,0,0,0,0,0,0,0,0,0,0,0,0,0,0,0,0,0,0,0,0,0,0,0,0,0,0,0,0,0,0,154,0,0,0,0,0,0,0,0,0,0,0,0,0,0,0,0,0,0,0,0,0,0,0,0,0,0,0,0,0,0,0,154,0,0,0,0,0,0,0,0,0,0,0,0,0,0,0,0,0,0,0,0,0,0,0,0,0,0,0,0,0,0,0,0,0,0,0,0,0,0,0,0,0,0,0,0,0,0,0,0,0,0,0,0,0,0,0,0,0,0,0,98,98,98,98,98,0,0,0,154,0,0,0,0,0,0,0,0,0,0,0,0,0,0,0,0,0,0,0,0,0,0,0,0,0,0,0,0,0,0,0,154,0,0,0,0,0,0,0,0,0,0,0,0,0,0,0,0,0,0,0,0,0,0,0,0,0,0,0,0,0,0,0,0,0,0,0,0,0,0,0,0,0,0,0,0,0,0,0,0,0,0,0,0,0,0,0,0,0,0,0,109,109,109,109,109,0,0,0,154,0,0,0,0,0,0,0,0,0,0,0,0,0,0,0,0,0,0,0,0,0,0,0,0,0,0,0,0,0,0,0,154,0,0,0,0,0,0,0,0,0,0,0,0,0,0,0,0,0,0,0,0,0,0,0,0,0,0,0,0,0,0,0,0,0,0,0,0,0,0,0,0,0,0,0,0,0,0,0,0,0,0,0,0,0,0,0,0,0,0,0,109,109,109,109,109,0,0,0,154,0,0,0,0,0,0,0,0,0,0,0,0,0,0,0,0,0,0,0,0,0,0,0,0,0,0,0,0,0,0,0,154,0,0,0,0,0,0,0,0,0,0,0,0,0,0,0,0,0,0,0,0,0,0,0,0,0,0,0,0,0,0,0,0,0,0,0,0,0,0,0,0,0,0,0,0,0,0,0,0,0,0,0,0,0,0,0,0,0,0,0,109,109,109,109,109,0,0,0,154,0,0,0,0,0,0,118,118,0,0,0,0,0,0,0,0,0,0,0,0,0,0,0,0,0,0,0,0,0,0,0,154,0,0,0,0,0,0,0,0,0,0,0,0,0,0,0,0,0,0,0,0,0,0,0,0,0,0,0,0,0,0,0,0,0,0,0,0,0,0,0,0,0,0,0,0,0,0,0,0,0,0,0,0,0,0,0,0,0,0,0,0,0,0,0,0,0,0,0,154,0,0,0,0,0,0,129,129,0,0,0,0,0,0,0,0,0,0,0,0,0,0,0,0,0,0,0,0,0,0,0,0,0,0,0,0,0,0,0,0,0,0,0,0,0,0,0,0,0,0,0,0,0,0,0,0,0,0,0,0,0,0,0,0,0,0,0,0,0,0,0,0,0,0,0,0,0,0,0,0,0,0,0,0,0,0,0,0,0,0,0,0,0,0,0,0,0,0,0,154,0,0,0,0,0,0,0,0,0,0,0,0,0,0,0,0,0,0,0,0,0,0,0,0,0,0,0,0,0,0,0,154,0,0,0,0,0,0,0,0,0,0,0,0,0,0,0,0,0,0,0,0,0,0,0,0,0,0,0,0,0,0,0,0,0,0,0,0,0,0,0,0,0,0,0,0,0,0,0,0,0,0,0,0,0,0,0,0,0,0,0,0,0,0,0,0,0,0,0,154,0,0,0,0,0,0,0,0,0,118,118,118,0,0,0,0,0,0,0,0,0,0,0,0,0,0,0,0,0,0,0,154,0,0,0,0,0,0,0,0,0,0,0,0,0,0,0,0,0,0,0,0,0,0,0,0,0,0,0,0,0,0,0,0,0,0,0,0,0,0,0,0,0,0,0,0,0,0,0,0,0,0,0,0,0,0,0,0,0,0,0,0,0,0,0,0,0,0,0,154,0,0,0,0,0,0,0,0,0,129,129,129,0,0,0,0,0,0,0,0,0,0,0,0,0,0,0,0,0,0,0,154,0,0,0,0,0,0,0,0,0,0,0,0,0,0,0,0,0,0,0,0,0,0,0,0,0,0,0,0,0,0,0,0,0,0,0,0,0,0,0,0,0,0,0,0,0,0,0,0,0,0,0,0,0,0,0,0,0,0,0,0,0,0,0,0,0,0,0,154,0,0,0,0,0,0,0,0,0,0,0,0,0,0,0,0,0,0,0,0,0,0,0,0,0,0,0,0,0,0,0,154,0,0,0,0,0,0,0,0,0,0,0,0,0,0,0,0,0,0,0,0,0,0,0,0,0,0,0,0,0,0,0,0,0,0,0,0,0,0,0,0,0,0,0,0,0,0,0,0,0,0,0,0,0,0,0,0,0,0,0,0,0,0,0,0,0,0,0,154,0,0,0,0,0,0,0,0,0,0,0,0,0,118,118,0,0,0,0,0,0,0,0,0,0,0,0,0,0,0,0,154,0,0,0,0,0,0,0,0,0,0,0,0,0,0,0,0,0,0,0,0,0,0,0,0,0,0,0,0,0,0,0,0,0,0,0,0,0,0,0,0,0,0,0,0,0,0,0,0,0,0,0,0,0,0,0,0,0,0,0,0,0,0,0,0,0,0,0,154,0,0,0,0,0,0,0,0,0,0,0,0,0,129,129,0,0,0,0,0,0,0,0,0,0,0,0,0,0,0,0,154,0,0,0,0,0,0,0,0,0,0,98,98,0,0,98,98,98,0,0,0,0,0,0,98,98,98,98,98,0,98,98,0,0,0,0,0,0,0,0,0,0,0,0,0,0,0,0,0,0,0,0,0,0,0,0,0,0,0,0,0,0,0,0,0,0,0,0,154,0,0,0,0,0,0,0,0,0,0,0,0,0,0,0,0,0,0,0,0,0,0,0,0,0,0,0,0,0,0,0,154,0,0,0,0,0,0,0,0,0,0,114,0,0,0,0,0,114,0,0,0,0,0,0,114,0,0,0,0,0,0,114,0,0,0,0,0,0,0,0,0,0,0,0,0,0,0,0,0,0,0,0,0,0,0,0,0,0,0,0,0,0,0,0,0,0,0,0,154,0,0,0,0,0,0,0,0,0,0,0,0,0,0,0,0,0,0,0,0,0,0,0,0,0,0,0,0,0,0,0,154,0,0,0,98,98,98,98,98,98,98,109,0,0,0,0,0,109,98,0,98,98,0,0,114,0,0,0,0,0,0,114,0,0,0,0,0,0,0,0,0,0,0,98,98,98,98,98,98,0,0,0,0,0,0,0,0,0,0,0,0,0,0,0,0,0,0,0,154,0,0,0,0,0,0,0,0,0,0,0,0,0,0,0,0,0,0,0,0,0,0,0,0,0,0,0,0,0,0,0,154,0,0,0,114,0,0,0,0,0,94,0,0,0,0,0,0,0,0,0,0,109,98,98,109,0,0,0,0,0,0,109,0,0,98,98,0,0,0,0,0,0,0,114,0,0,0,0,114,0,0,0,0,0,0,0,0,0,0,0,0,0,0,0,0,0,0,0,154,0,0,0,0,0,0,0,0,0,0,0,0,0,0,0,0,0,0,0,0,0,0,0,0,0,0,0,0,0,0,0,154,0,0,0,114,0,0,0,0,0,94,0,0,0,0,0,0,0,0,0,0,94,0,0,0,0,0,0,0,0,0,0,0,0,0,114,0,0,0,0,0,0,0,114,0,0,0,0,114,0,0,0,0,0,0,0,0,0,0,0,0,0,0,0,0,0,0,0,154,0,0,0,0,0,0,0,0,0,0,0,0,0,0,0,0,0,0,0,0,0,0,0,0,0,0,0,0,0,0,0,154,0,0,0,0,0,0,0,0,0,0,0,0,0,0,0,0,0,0,0,0,94,0,0,0,0,0,0,0,0,0,0,0,0,0,114,0,0,0,0,0,0,0,114,0,0,0,0,114,0,0,0,0,0,0,0,0,0,0,0,0,0,0,0,0,0,0,0,154,0,0,0,0,0,0,0,0,0,0,0,0,0,0,0,0,0,0,0,0,0,0,0,0,0,0,0,0,0,0,0,154,0,0,0,114,0,0,0,0,0,0,0,0,0,0,0,0,0,0,0,0,94,0,0,0,0,0,0,0,0,0,0,0,0,0,109,98,98,98,98,0,98,98,109,0,0,78,78,109,98,98,98,0,98,98,98,0,0,0,0,0,0,0,0,0,0,0,0,154,0,0,0,0,0,0,0,0,0,0,0,0,0,0,0,0,0,0,0,0,0,0,0,0,0,0,0,0,0,0,0,154,0,0,0,114,0,0,0,0,0,94,0,0,0,0,0,0,0,0,0,0,94,0,0,0,0,0,0,0,0,0,0,0,0,0,0,0,0,0,0,0,0,0,94,0,0,0,0,94,0,0,0,0,0,0,114,0,0,0,0,0,0,0,0,0,0,0,0,154,0,0,0,0,0,0,0,0,0,0,0,0,0,0,0,0,0,0,0,0,0,0,0,0,0,0,0,0,0,0,0,154,0,0,0,109,78,78,0,0,78,89,0,0,0,0,0,0,0,0,0,0,94,0,0,0,0,0,0,0,0,0,0,0,0,0,0,0,0,0,0,0,0,0,94,0,0,0,0,94,0,0,0,0,0,0,114,0,0,0,0,0,0,0,0,0,0,0,0,154,0,0,0,0,0,0,0,0,0,0,0,0,0,0,0,0,0,0,0,0,0,0,0,0,0,0,0,0,0,0,0,154,0,0,0,114,0,0,0,0,0,94,0,0,0,0,0,0,0,0,0,0,0,0,0,0,0,0,0,0,0,0,0,0,0,0,0,0,0,0,0,0,0,0,0,0,0,0,0,94,0,0,0,0,0,0,114,0,0,0,0,0,0,0,0,0,0,0,0,154,0,0,118,118,118,118,118,0,118,118,118,118,118,118,118,118,118,118,118,118,0,0,0,0,0,0,0,0,0,0,0,154,0,0,0,114,0,0,0,0,0,0,0,0,0,0,0,0,0,0,0,0,0,0,0,0,0,0,0,0,0,0,0,0,0,0,0,0,0,0,0,0,0,0,0,0,0,0,0,94,0,0,0,0,0,0,114,0,0,0,0,0,0,0,0,0,0,0,0,154,0,0,134,0,0,0,0,0,0,0,0,0,0,134,0,0,0,0,0,134,0,0,0,0,0,0,0,0,0,0,0,154,0,0,0,114,0,0,0,0,0,0,0,0,0,0,0,0,0,0,0,0,94,0,0,0,0,0,0,0,0,0,0,0,0,0,0,0,0,0,0,0,0,0,94,0,0,0,0,0,0,0,0,0,0,0,114,0,0,0,0,0,0,0,0,0,0,0,0,154,0,0,134,0,0,0,0,0,0,0,0,0,0,0,0,0,0,0,0,134,0,0,0,0,0,0,0,0,0,0,0,154,0,0,0,114,0,0,0,0,0,94,0,0,0,0,0,0,0,0,0,0,94,0,0,0,0,0,0,0,0,0,0,0,0,0,0,0,0,0,0,0,0,0,94,0,0,0,0,0,0,0,0,0,0,0,114,0,0,0,0,0,0,0,0,0,0,0,0,154,0,0,134,0,0,0,0,0,0,0,0,0,0,0,0,0,0,0,0,134,0,0,0,0,0,0,0,0,0,0,0,154,0,0,0,109,78,0,0,78,78,89,78,78,78,78,78,78,78,78,78,78,89,78,78,78,78,78,78,78,78,78,78,78,78,78,78,78,78,0,0,78,78,78,89,78,78,78,78,89,0,0,0,0,0,0,114,0,0,0,0,0,0,0,0,0,0,0,0,154,0,0,134,0,0,0,0,0,0,0,0,0,0,134,0,0,0,0,0,134,0,0,0,0,0,0,0,0,0,0,0,154,0,0,0,114,0,0,0,0,0,0,0,0,0,0,0,0,0,0,0,0,94,0,0,0,0,0,0,0,0,0,0,0,0,0,0,0,0,0,0,0,0,0,0,0,0,0,0,94,0,0,0,0,0,0,114,0,0,0,0,0,0,0,0,0,0,0,0,154,0,0,134,0,0,0,0,0,0,0,0,0,0,134,0,0,0,0,0,134,0,0,0,0,0,0,0,0,0,0,0,154,0,0,0,0,0,0,0,0,0,0,0,0,0,0,0,0,0,0,0,0,94,0,0,0,0,0,0,0,0,0,0,0,0,0,0,0,0,0,0,0,0,0,0,0,0,0,0,94,0,0,0,0,0,0,114,0,0,0,0,0,0,0,0,0,0,0,0,154,0,0,134,0,0,0,0,0,0,0,0,0,0,129,118,118,0,0,118,129,0,0,0,0,0,0,0,0,0,0,0,154,0,0,98,109,0,0,0,0,0,0,0,0,0,0,0,0,0,0,0,0,94,0,0,0,0,0,0,0,0,0,0,0,0,0,0,94,0,0,0,0,0,0,0,0,0,0,0,94,0,0,0,0,0,0,114,0,0,0,0,0,0,0,0,0,0,0,0,154,0,0,134,0,0,0,0,0,0,0,0,0,0,134,0,0,0,0,0,134,0,0,0,0,0,0,0,0,0,0,0,154,0,0,109,109,78,0,0,0,0,0,0,0,78,78,0,0,0,0,0,0,89,78,78,0,0,78,78,78,0,0,78,78,78,78,78,89,0,0,0,0,0,0,0,0,0,0,0,89,78,0,0,78,78,78,109,98,98,98,98,98,98,138,138,138,138,138,138,149,0,0,134,0,0,0,0,0,0,0,0,0,0,0,0,0,0,0,0,134,0,0,0,0,0,0,0,0,0,0,0,154,0,0,109,109,89,0,0,0,0,0,0,0,89,89,0,0,0,0,0,0,94,0,0,0,0,0,0,0,0,0,0,0,0,0,0,94,0,0,0,0,0,0,0,0,0,0,0,94,0,0,0,0,0,0,0,0,0,0,0,0,114,0,0,0,0,0,0,154,0,0,134,0,0,0,0,0,0,0,0,0,0,0,0,0,0,0,0,134,0,0,0,0,0,0,0,0,0,0,0,154,0,0,109,109,0,0,0,0,0,0,0,0,0,0,0,0,0,0,0,0,94,0,0,0,0,0,0,0,0,0,0,0,0,0,0,94,0,0,0,0,0,0,0,0,0,0,0,94,0,0,0,0,0,0,0,0,0,0,0,0,114,0,0,0,0,0,0,154,0,0,134,0,0,0,0,0,0,0,0,0,0,134,0,0,0,0,0,134,0,0,0,0,0,0,0,0,0,0,0,154,0,0,0,0,0,0,0,0,0,0,0,0,0,0,0,0,0,0,0,0,94,0,0,0,0,0,0,0,0,0,78,78,78,78,78,89,0,0,0,0,0,0,0,0,0,0,0,94,0,0,0,0,0,0,0,0,0,0,0,0,114,0,0,0,0,0,0,154,0,0,134,0,0,0,0,0,0,118,118,118,118,129,0,0,0,0,0,134,0,0,0,0,0,0,0,0,0,0,0,154,0,0,0,114,0,0,0,0,0,0,0,0,0,0,0,0,0,0,0,0,94,0,0,0,0,0,0,0,0,0,0,0,0,0,0,94,0,0,0,0,0,0,0,0,0,0,0,94,0,0,0,0,0,0,0,0,0,0,0,0,114,0,0,0,0,0,0,154,0,0,134,0,0,0,0,0,0,129,129,129,129,129,118,0,0,118,118,129,0,0,0,0,0,0,0,0,0,0,0,149,138,138,138,109,98,98,98,98,0,0,0,0,0,0,0,0,0,0,0,0,0,0,0,0,0,0,0,0,0,0,0,0,0,0,0,94,0,0,0,0,0,0,0,0,0,0,0,94,0,0,0,0,0,0,0,0,0,0,0,0,0,0,0,0,0,0,0,154,0,0,134,0,0,0,0,0,0,134,0,0,0,0,0,0,0,0,0,134,0,0,0,0,0,0,0,0,0,0,0,0,0,0,0,0,0,0,0,114,0,0,0,0,0,0,0,0,0,0,0,0,0,0,0,0,0,0,0,0,0,0,94,0,0,0,0,94,0,0,0,0,0,0,0,0,0,0,0,94,0,0,0,0,0,0,0,0,0,0,0,0,114,0,0,0,0,0,0,154,0,0,134,0,0,0,0,0,0,0,0,0,0,0,0,0,0,0,0,134,0,0,0,0,0,0,0,0,0,0,0,0,0,0,0,0,0,0,0,114,0,0,0,0,0,0,0,0,0,0,0,0,94,0,0,0,0,0,0,0,0,0,109,98,0,98,98,109,98,98,98,0,0,0,0,0,98,0,98,109,0,0,0,0,0,0,0,0,0,0,0,0,114,0,0,0,0,0,0,154,0,0,134,0,0,0,0,0,0,0,0,0,0,0,0,0,0,0,0,134,0,0,0,0,0,0,0,0,0,0,0,0,0,0,0,0,0,0,0,114,0,0,0,0,0,0,0,0,0,0,0,0,109,98,0,0,98,98,98,0,98,98,109,0,0,0,0,0,0,0,114,0,0,0,0,0,114,0,0,114,0,0,0,0,0,0,0,0,0,0,0,0,114,0,0,0,0,0,0,154,0,0,134,0,0,0,0,0,0,134,0,0,0,0,0,0,0,0,0,134,0,0,0,0,0,0,0,0,0,0,0,0,0,0,0,0,0,0,0,109,98,98,98,98,98,98,98,98,0,98,98,98,0,0,0,0,0,0,0,0,0,0,0,0,0,0,0,0,0,0,109,98,98,0,98,98,109,0,0,114,0,0,0,0,0,0,0,0,0,0,0,0,114,0,0,0,0,0,0,154,0,0,134,0,0,0,0,0,0,134,0,0,0,0,0,0,0,0,0,134,0,0,0,0,0,0,0,0,0,0,0,0,0,0,0,0,0,0,0,0,0,0,0,0,0,0,0,0,0,0,0,0,103,0,0,0,0,0,0,0,0,0,103,0,0,0,0,0,0,0,0,0,0,0,0,0,0,0,0,114,0,0,0,0,0,0,0,0,0,0,0,0,114,0,0,0,0,0,0,154,0,0,134,0,0,0,0,0,0,134,0,0,0,0,0,0,0,0,0,134,0,0,0,0,0,0,0,0,0,0,0,0,0,0,0,0,0,0,0,0,0,0,0,0,0,0,0,0,0,0,0,0,0,0,0,0,0,0,0,0,0,0,0,0,0,0,0,0,0,0,0,0,0,0,0,0,0,0,0,109,98,98,0,0,98,98,98,98,98,98,98,98,109,0,0,0,0,0,0,154,0,0,129,118,118,118,118,118,118,129,118,118,118,118,118,0,118,118,118,129,0,0,0,0,0,0,0,0,0,0,0,0,0,0,0,0,0,0,0,0,0,0,0,0,0,0,0,0,0,0,0,0,0,0,0,0,0,0,0,0,0,0,0,0,0,0,0,0,0,0,0,0,0,0,0,0,0,0,0,0,0,0,0,0,0,0,0,0,0,0,0,0,0,0,0,0,0,0,0,154,0,0,0,0,0,0,0,0,0,0,0,0,0,0,0,0,0,0,0,0,0,0,0,0,0,0,0,0,0,0,0,0,0,0,0,0,0,0,0,0,0,0,0,0,0,0,0,0,0,0,0,0,0,0,0,0,0,0,0,0,0,0,0,0,0,0,0,0,0,0,0,0,0,0,0,0,0,0,0,0,0,0,0,0,0,0,0,0,0,0,0,0,0,0,0,0,0,0,0,154,0,0,0,0,0,0,0,0,0,0,0,0,0,0,0,0,0,0,0,0,0,0,0,0,0,0,0,0,0,0,0,0,0,0,0,0,0,0,0,0,0,0,0,0,0,0,0,0,0,0,0,0,0,0,0,0,0,0,0,0,0,0,0,0,0,0,0,0,0,0,0,0,0,0,0,0,0,0,0,0,0,0,0,0,0,0,0,0,0,0,0,0,0,0,0,0,0,0,0,154,0,0,0,0,0,0,0,0,0,0,0,0,0,0,0,0,0,0,0,0,0,0,0,0,0,0,0,0,0,0,0,0,0,0,0,0,0,0,0,0,0,0,0,0,0,0,0,0,0,0,0,0,0,0,0,0,0,0,0,0,0,0,0,0,0,0,0,0,0,0,0,0,0,0,0,0,0,0,0,0,0,0,0,0,0,0,0,0,0,0,0,0,0,0,0,0,0,0,0,154,0,0,0,0,0,0,0,0,0,0,0,0,0,0,0,0,0,0,0,0,0,0,0,0,0,0,0,0,0,0,0,0,0,0,0,0,0,0,0,0,0,0,0,0,0,0,0,0,0,0,0,0,0,0,0,0,0,0,0,0,0,0,0,0,0,0,0,0,0,0,0,0,0,0,0,0,0,0,0,0,0,0,0,0,0,0,0,0,0,0,0,0,0,0,0,0,0,0,0,154,0,0,0,0,0,0,0,0,0,0,0,0,0,0,0,0,0,0,0,0,0,0,0,0,0,0,0,0,0,0,0,0,0,0,0,0,0,0,0,0,0,0,0,0,0,0,0,0,0,0,0,0,0,0,0,0,0,0,0,0,0,0,0,0,0,0,0,0,0,0,0,0,0,0,0,0,0,0,0,0,0,0,0,0,0,0,0,0,0,0,0,0,0,0,0,0,0,0,0,149,138,138,138,138,138,138,138,138,138,138,138,138,138,138,138,138,138,138,138,138,0,0,0,0,0,0,0,0,0,0,0,0,0,0,0,0,0,0,0,0,0,0,0,0,0,0,0,0,0,0,0,0,0,0,0,0,0,0,0,0,0,0,0,0,0,0,0,0,0,0,0,0,0,0,0,0,0,0,0,0,0,0,0,0,0,0,0,0,0,0,0,0,0,0,0,0,0,0,0,0,0,0,0,0,0,0,0,0,0,0,0,0,0,0,0,0,0,0,0,0,0,0,0,0,0,0,0,0,0,0,0,0,0,0,0,0,0,0,0,0,0,0,0,0,0,0,0,0,0,0,0,0,0,0,0,0,0,0,0,0,0,0,0,0,0,0,0,0,0,0,0,0,0,0,0,0,0,0,0,0,0,0,0,0,0,0,0,0,0,0,0,0,0,0,0,0,0,0,0,0,0,0,0,0,0,0,0,0,0,0,0,0,0,0,0,0,0,0,0,0,0,0,0,0,0,0,0,0,0,0,0,0,0,0,0,0,0,0,0,0,0,0,0,0,0,0,0,0,0,0,0,0,0,0,0,0,0,0,0,0,0,0,0,0,0,0,0,0,0,0,0,0,0,0,0,0,0,0,0,0,0,0,0,0,0,0,0,0,0,0,0,0,0,0,0,0,0,0,0,0,0,0,0,0,0,0,0,0,0,0,0,0,0,0,0,0,0,0,0,0,0,0,0,0,0,0,0,0,0,0,0,0,0,0,0,0,0,0,0,0,0,0,0,0,0,0,0,0,0,0,0,0,0,0,0,0,0,0,0,0,0,0,0,0,0,0,0,0,0,0,0,0,0,0,0,0,0,0,0,0,0,0,0,0,0,0,0,0,0,0,0,0,0,0,0,0,0,0,0,0,0,0,0,0,0,0,0,0,0,0,0,0,0,0,0,0,0,0,0,0,0,0,0,0,0,0,0,0,0,0,0,0,0,0,0,0,0,0,0,0,0,0,0,0,0,0,0,0,0,0,0,0,0,0,0,0,0,0,0,0,0,0,0,0,0,0,0,0,0,0,0,0,0,0,0,0,0,0,0,0,0,0,0,0,0,0,0,0,0,0,0,0,0,0,0,0,0,0,0,0,0,0,0,0,0,0,0,0,0,0,0,0,0,0,0,0,0,0,0,0,0,0,0,0,0,0,0,0,0,0,0,0,0,0,0,0,0,0,0,0,0,0,0,0,0,0,0,0,0,0,0,0,0,0,0,0,0,0,0,0,0,0,0,0,0,0,0,0,0,0,0,0,0,0,0,0,0,0,0,0,0,0,0,0,0,0,0,0,0,0,0,0,0,0,0,0,0,0,0,0,0,0,0,0,0,0,0,0,0,0,0,0,0,0,0,0,0,0,0,0,0,0,0,0,0,0,0,0,0,0,0,0,0,0,0,0,0,0,0,0,0,0,0,0,0,0,0,0,0,0,0,0,0,0,0,0,0,0,0,0,0,0,0,0,0,0,0,0,0,0,0,0,0,0,0,0,0,0,0,0,0,0,0,0,0,0,0,0,0,0,0,0,0,0,0,0,0,0,0,0,0,0,0,0,0,0,0,0,0,0,0,0,0,0,0,0,0,0,0,0,0,0,0,0,0,0,0,0,0,0,0,0,0,0,0,0,0,0,0,0,0,0,0,0,0,0,0,0,0,0,0,0,0,0,0,0,0,0,0,0,0,0,0,0,0,0,0,0,0,0,0,0,0,0,0,0,0,0,0,0,0,0,0,0,0,0,0,0,0,0,0,0,0,0,0,0,0,0,0,0,0,0,0,0,0,0,0,0,0,0,0,0,0,0,0,0,0,0,0,0,0,0,0,0,0,0,0,0,0,0,0,0,0,0,0,0,0,0,0,0,0,0,0,0,0,0,0,0,0,0,0,0,0,0,0,0,0,0,0,0,0,0,0,0,0,0,0,0,0,0,0,0,0,0,0,0,0,0,0,0,0,0,0,0,0,0,0,0,0,0,0,0,0,0,0,0,0,0,0,0,0,0,0,0,0,0,0,0,0,0,0,0,0,0,0,0,0,0,0,0,0,0,0,0,0,0,0,0,0,0,0,0,0,0,0,0,0,0,0,0,0,0,0,0,0,0,0,0,0,0,0,0,0,0,0,0,0,0,0,0,0,0,0,0,0,0,0,0,0,0,0,0,0,0,0,0,0,0,0,0,0,0,0,0,0,0,0,0,0,0,0,0,0,0,0,0,0,0,0,0,0,0,0,0,0,0,0,0,0,0,0,0,0,0,0,0,0,0,0,0,0,0,0,0,0,0,0,0,0,0,0,0,0,0,0,0,0,0,0,0,0,0,0,0,0,0,0,0,0,0,0,0,0,0,0,0,0,0,0,0,0,0,0,0,0,0,0,0,0,0,0,0,0,0,0,0,0,0,0,0,0,0,0,0,0,0,0,0,0,0,0,0,0,0,0,0,0,0,0,0,0,0,0,0,0,0,0,0,0,0,0,0,0,0,0,0,0,0,0,0,0,0,0,0,0,0,0,0,0,0,0,0,0,0,0,0,0,0,0,0,0,0,0,0,0,0,0,0,0,0,0,0,0,0,0,0,0,0,0,0,0,0,0,0,0,0,0,0,0,0,0,0,0,0,0,0,0,0,0,0,0,0,0,0,0,0,0,0,0,0,0,0,0,0,0,0,0,0,0,0,0,0,0,0,0,0,0,0,0,0,0,0,0,0,0,0,0,0,0,0,0,0,0,0,0,0,0,0,0,0,0,0,0,0,0,0,0,0,0,0,0,0,0,0,0,0,0,0,0,0,0,0,0,0,0,0,0,0,0,0,0,0,0,0,0,0,0,0,0,0,0,0,0,0,0,0,0,0,0,0,0,0,0,0,0,0,0,0,0,0,0,0,0,0,0,0,0,0,0,0,0,0,0,0,0,0,0,0,0,0,0,0,0,0,0,0,0,0,0,0,0,0,0,0,0,0,0,0,0,0,0,138,138,138,138,138,138,138,138,138,138,138,138,138,138,138,138,138,138,138,138,138,138,138,138,138,138,138,138,138,138,138,138,138,138,138,138,138,138,138,138,138,138,138,138,138,138,138,138,138,138,138,138,138,138,138,138,138,138,138,138,138,138,138,138,138,138,138,138,138,138,138,138,138,138,138,138,138,138,138,138,138,138,138,138,138,138,138,138,138,0,0,0,0,0,0,0,0,0,0,0,154,0,0,0,0,0,0,0,0,0,0,0,0,0,0,0,0,0,0,0,0,0,0,0,0,0,0,0,0,0,0,0,0,0,0,0,0,0,0,0,0,0,0,0,0,0,0,0,0,0,0,0,0,0,0,0,0,0,0,0,0,0,0,0,0,0,0,0,0,0,0,0,0,0,0,0,0,0,0,0,0,0,0,0,0,0,0,0,0,0,0,0,0,0,0,0,0,0,0,0,154,0,0,0,0,0,0,0,0,0,0,0,0,0,0,0,0,0,0,0,0,0,0,0,0,0,0,0,0,0,0,0,0,0,0,0,0,0,0,0,0,0,0,0,0,0,0,0,0,0,0,0,0,0,0,0,0,0,0,0,0,0,0,0,0,0,0,0,0,0,0,0,0,0,0,0,0,0,0,0,0,0,0,0,0,0,0,0,0,0,0,0,0,0,0,0,0,0,0,0,154,0,0,0,0,0,0,0,0,0,0,0,0,0,0,0,0,0,0,0,0,0,0,0,0,0,0,0,0,0,0,0,0,0,0,0,0,0,0,0,0,0,0,0,0,0,0,0,0,0,0,0,0,0,0,0,0,0,0,0,0,0,0,0,0,0,0,0,0,0,0,0,0,0,0,0,0,0,0,0,0,0,0,0,0,0,0,0,0]},{"id":3,"name":"decor","type":"tilelayer","width":100,"height":68,"x":0,"y":0,"opacity":1,"visible":true,"data":[0,0,0,0,0,0,0,0,0,0,0,0,0,0,0,0,0,0,0,0,0,0,0,0,0,0,0,0,0,0,0,0,0,0,0,0,0,0,0,0,0,0,0,0,0,0,0,0,0,0,0,0,0,0,0,0,0,0,0,0,0,0,0,0,0,0,0,0,0,0,0,0,0,0,0,0,0,0,0,0,0,0,0,0,0,0,0,0,0,0,0,0,0,0,0,0,0,0,0,0,0,0,0,0,0,0,0,0,0,0,0,0,0,0,0,0,0,0,0,0,0,0,0,0,0,0,0,0,0,0,0,0,0,0,0,0,0,0,0,0,0,0,0,0,0,0,0,0,0,0,0,0,0,0,0,0,0,0,0,0,0,0,0,0,0,0,0,0,0,0,0,0,0,0,0,0,0,0,0,0,0,0,0,0,0,0,0,0,0,0,0,0,0,0,0,0,0,0,0,0,0,0,0,0,0,0,0,0,0,0,0,0,0,0,0,0,0,0,0,0,0,0,0,0,0,0,0,0,0,0,0,0,0,0,0,0,0,0,0,0,0,0,0,0,0,0,0,0,0,0,0,0,0,0,0,0,0,0,0,0,0,0,0,0,0,0,0,0,0,0,0,0,0,0,0,0,0,0,0,0,0,0,0,0,0,0,0,0,0,0,0,0,0,0,0,0,0,0,0,0,0,0,0,0,0,0,0,0,0,0,0,0,0,0,0,0,0,0,0,0,0,0,0,0,0,0,0,0,0,0,0,0,0,0,0,0,0,0,0,0,0,0,0,0,0,0,0,0,0,0,0,0,0,0,0,0,0,0,0,0,0,0,0,0,0,0,0,0,0,0,0,0,0,0,0,0,0,0,0,0,0,0,0,0,0,0,0,0,0,0,0,0,0,0,0,0,0,0,0,0,0,0,0,0,0,0,0,0,0,0,0,0,0,0,0,0,0,0,0,0,0,0,0,0,0,0,0,0,0,0,0,0,0,0,0,0,0,0,0,0,0,0,0,0,0,0,0,0,0,0,0,0,0,0,0,0,0,0,0,0,0,0,0,0,0,0,0,0,0,0,0,0,0,0,0,0,0,0,0,0,0,0,0,0,0,0,0,0,0,0,0,0,0,0,0,0,0,0,0,0,0,0,0,0,0,0,0,0,0,0,0,0,0,0,0,0,0,0,0,0,0,0,0,0,0,0,0,0,0,0,0,0,0,0,0,0,0,0,0,0,0,0,0,0,0,0,0,0,0,0,0,0,0,0,0,0,0,0,0,0,0,0,0,0,0,0,0,0,0,0,0,0,0,0,0,0,0,0,0,0,0,0,0,0,0,0,0,0,0,0,0,0,0,0,0,0,0,0,0,0,0,0,0,0,0,0,0,0,0,0,0,0,0,0,0,0,0,0,0,0,0,0,0,0,0,0,0,0,0,0,0,0,0,0,0,0,0,0,0,0,0,0,0,0,0,0,0,0,0,0,0,0,0,0,0,0,0,0,0,0,0,0,0,0,0,0,0,0,0,0,0,0,0,0,0,0,0,0,0,0,0,0,0,0,0,0,0,0,0,0,0,0,0,0,0,0,0,0,0,0,0,0,0,0,0,0,0,0,0,0,0,0,0,0,0,0,0,0,0,0,0,0,0,0,0,0,0,0,0,0,0,0,0,0,0,0,0,0,0,0,0,0,0,0,0,0,0,0,0,0,0,0,0,0,0,0,0,0,0,0,0,0,0,0,0,0,0,0,0,0,0,0,0,0,0,0,0,0,0,0,0,0,0,0,0,0,0,0,0,0,0,0,0,0,0,0,0,0,0,0,0,0,0,0,0,0,0,0,0,0,0,0,0,0,0,0,0,0,0,0,0,0,0,0,0,0,0,0,0,0,0,0,0,0,0,0,0,0,0,0,0,0,0,0,0,0,0,0,0,0,0,0,0,0,0,0,0,0,0,0,0,0,0,0,0,0,0,0,0,0,0,0,0,0,0,0,0,0,0,0,0,0,0,0,0,0,0,0,0,0,0,0,0,0,0,0,0,0,0,0,0,0,0,0,0,0,0,0,0,0,0,0,0,0,0,0,0,0,0,0,0,0,0,0,0,0,0,0,0,0,0,0,0,0,0,0,0,0,0,0,0,0,0,0,0,0,0,0,0,0,0,0,0,0,0,0,0,0,0,0,0,0,0,0,0,0,0,0,0,0,0,0,0,0,0,0,0,0,0,0,0,0,0,0,0,0,0,0,0,0,0,0,0,0,0,0,0,0,0,0,0,0,0,0,0,0,0,0,0,0,0,0,0,0,0,0,0,0,0,0,0,0,0,0,0,0,0,0,0,0,0,0,0,0,0,0,0,0,0,0,0,0,0,0,0,0,0,0,0,0,0,0,0,0,0,0,0,0,0,0,0,0,0,0,0,0,0,0,0,0,0,0,0,0,0,0,0,0,0,0,0,0,0,0,0,0,0,0,0,0,0,0,0,0,0,0,0,0,0,0,0,0,0,0,0,0,0,0,0,0,0,0,0,0,0,0,0,0,0,0,0,0,0,0,0,0,0,0,0,0,0,0,0,0,0,0,0,0,0,0,0,0,0,0,0,0,0,0,0,0,0,0,0,0,0,0,0,0,0,0,0,0,0,0,0,0,0,0,0,0,0,0,0,0,0,0,0,0,0,0,0,0,0,0,0,0,0,0,0,0,0,0,0,0,0,0,0,0,0,0,0,0,0,0,0,0,0,0,0,0,0,0,0,0,0,0,0,0,0,0,0,0,0,0,0,0,0,0,0,0,0,0,0,0,0,0,0,0,0,0,0,0,0,0,0,0,0,0,0,0,0,0,0,0,0,0,0,0,0,0,0,0,0,0,0,0,0,0,0,0,0,0,0,0,0,0,0,0,0,0,0,0,0,0,0,0,0,0,0,0,0,0,0,0,0,0,0,0,0,0,0,0,0,0,0,0,0,0,0,0,0,0,0,0,0,0,0,0,0,0,0,0,0,0,0,0,0,0,0,0,0,0,0,0,0,0,0,0,0,0,0,0,0,0,0,0,0,0,0,0,0,0,0,0,0,0,0,0,0,0,0,0,0,0,0,0,0,0,0,0,0,0,0,0,0,0,0,0,0,0,0,0,0,0,0,0,0,0,0,0,0,0,0,0,0,0,0,0,0,0,0,0,0,0,0,0,0,0,0,0,0,0,0,0,0,0,0,0,0,0,0,0,0,0,0,0,0,0,0,0,0,0,0,0,0,0,0,0,0,0,0,0,0,0,0,0,0,0,0,0,0,0,0,0,0,0,0,0,0,0,0,0,0,0,0,0,0,0,0,0,0,0,0,0,0,0,0,0,0,0,0,0,0,0,0,0,0,0,0,0,0,0,0,0,0,0,0,0,0,0,0,0,0,0,0,0,0,0,0,0,0,0,0,0,0,0,0,0,0,0,0,0,0,0,0,0,0,0,0,0,0,0,0,0,0,0,0,0,0,0,0,0,0,0,0,0,0,0,0,0,0,0,0,0,0,0,0,0,0,0,0,0,0,0,0,0,0,0,0,0,0,0,0,0,0,0,0,0,0,0,0,0,0,0,0,0,0,0,0,0,0,0,0,0,0,0,0,0,0,0,0,0,0,0,0,0,0,0,0,0,0,0,0,0,0,0,0,0,0,0,0,0,0,0,0,0,0,0,0,0,0,0,0,0,0,0,0,0,0,0,0,0,0,0,0,0,0,0,0,0,0,0,0,0,0,0,0,0,0,0,0,0,0,0,0,0,0,0,0,0,0,0,0,0,0,0,0,0,0,0,0,0,0,0,0,0,0,0,0,0,0,0,0,0,0,0,0,0,0,0,0,0,0,0,0,0,0,0,0,0,0,0,0,0,0,0,0,0,0,0,0,0,0,0,0,0,0,0,0,0,0,0,0,0,0,0,0,0,0,0,0,0,0,0,0,0,0,0,0,0,0,0,0,0,0,0,0,0,0,0,0,0,0,0,0,0,0,0,0,0,0,0,0,0,0,0,0,0,0,0,0,0,0,0,0,0,0,0,0,0,0,0,0,0,0,0,0,0,0,0,0,0,0,0,0,0,0,0,0,0,0,0,0,0,0,0,0,0,0,0,0,0,0,0,0,0,0,0,0,0,0,0,0,0,0,0,0,0,0,0,0,0,0,0,0,0,0,0,0,0,0,0,0,0,0,0,0,0,0,0,0,0,0,0,0,0,0,0,0,0,0,0,0,0,0,0,0,0,0,0,0,0,0,0,0,0,0,0,0,0,0,0,0,0,0,0,0,0,0,0,0,0,0,0,0,0,0,0,0,0,0,0,0,0,0,0,0,0,0,0,0,0,0,0,0,0,0,0,0,0,0,0,0,0,0,0,0,0,0,0,0,0,0,0,0,0,0,0,0,0,0,0,0,0,0,0,0,0,0,0,0,0,0,0,0,0,0,0,0,0,0,0,0,0,0,0,0,0,0,0,0,0,0,0,0,0,0,0,0,0,0,0,0,0,0,0,0,0,0,0,0,0,0,0,0,0,0,0,0,0,0,0,0,0,0,0,0,0,0,0,0,0,0,0,0,0,0,0,0,0,0,0,0,0,0,0,0,0,0,0,0,0,0,0,0,0,0,0,0,0,0,0,0,0,0,0,0,0,0,0,0,0,0,0,0,0,0,0,0,0,0,0,0,0,0,0,0,0,0,0,0,0,0,0,0,0,0,0,0,0,0,0,0,0,0,0,0,0,0,0,0,0,0,0,0,0,0,0,0,0,0,0,0,0,0,0,0,0,0,0,0,0,0,0,0,0,0,0,0,0,0,0,0,0,0,0,0,0,0,0,0,0,0,0,0,0,0,0,0,0,0,0,0,0,0,0,0,0,0,0,0,0,0,0,0,0,0,0,0,0,0,0,0,0,0,0,0,0,0,0,0,0,0,0,0,0,0,0,0,0,0,0,0,0,0,0,0,0,0,0,0,0,0,0,0,0,0,0,0,0,0,0,0,0,0,0,0,0,0,0,0,0,0,0,0,0,0,0,0,0,0,0,0,0,0,0,0,0,0,0,0,0,0,0,0,0,0,0,0,0,0,0,0,0,0,0,0,0,0,0,0,0,0,0,0,0,0,0,0,0,0,0,0,0,0,0,0,0,0,0,0,0,0,0,0,0,0,0,0,0,0,0,0,0,0,0,0,0,0,0,0,0,0,0,0,0,0,0,0,0,0,0,0,0,0,0,0,0,0,0,0,0,0,0,0,0,0,0,0,0,0,0,0,0,0,0,0,0,0,0,0,0,0,0,0,0,0,0,0,0,0,0,0,0,0,0,0,0,0,0,0,0,0,0,0,0,0,0,0,0,0,0,0,0,0,0,0,0,0,0,0,0,0,0,0,0,0,0,0,0,0,0,0,0,0,0,0,0,0,0,0,0,0,0,0,0,0,0,0,0,0,0,0,0,0,0,0,0,0,0,0,0,0,0,0,0,0,0,0,0,0,0,0,0,0,0,0,0,0,0,0,0,0,0,0,0,0,0,0,0,0,0,0,0,0,0,0,0,0,0,0,0,0,0,0,0,0,0,0,0,0,0,0,0,0,0,0,0,0,0,0,0,0,0,0,0,0,0,0,0,0,0,0,0,0,0,0,0,0,0,0,0,0,0,0,0,0,0,0,0,0,0,0,0,0,0,0,0,0,0,0,0,0,0,0,0,0,0,0,0,0,0,0,0,0,0,0,0,0,0,0,0,0,0,0,0,0,0,0,0,0,0,0,0,0,0,0,0,0,0,0,0,0,0,0,0,0,0,0,0,0,0,0,0,0,0,0,0,0,0,0,0,0,0,0,0,0,0,0,0,0,0,0,0,0,0,0,0,0,0,0,0,0,0,0,0,0,0,0,0,0,0,0,0,0,0,0,0,0,0,0,0,0,0,0,0,0,0,0,0,0,0,0,0,0,0,0,0,0,0,0,0,0,0,0,0,0,0,0,0,0,0,0,0,0,0,0,0,0,0,0,0,0,0,0,0,0,0,0,0,0,0,0,0,0,0,0,0,0,0,0,0,0,0,0,0,0,0,0,0,0,0,0,0,0,0,0,0,0,0,0,0,0,0,0,0,0,0,0,0,0,0,0,0,0,0,0,0,0,0,0,0,0,0,0,0,0,0,0,0,0,0,0,0,0,0,0,0,0,0,0,0,0,0,0,0,0,0,0,0,0,0,0,0,0,0,0,0,0,0,0,0,0,0,0,0,0,0,0,0,0,0,0,0,0,0,0,0,0,0,0,0,0,0,0,0,0,0,0,0,0,0,0,0,0,0,0,0,0,0,0,0,0,0,0,0,0,0,0,0,0,0,0,0,0,0,0,0,0,0,0,0,0,0,0,0,0,0,0,0,0,0,0,0,0,0,0,0,0,0,0,0,0,0,0,0,0,0,0,0,0,0,0,0,0,0,0,0,0,0,0,0,0,0,0,0,0,0,0,0,0,0,0,0,0,0,0,0,0,0,0,0,0,0,0,0,0,0,0,0,0,0,0,0,0,0,0,0,0,0,0,0,0,0,0,0,0,0,0,0,0,0,0,0,0,0,0,0,0,0,0,0,0,0,0,0,0,0,0,0,0,0,0,0,0,0,0,0,0,0,0,0,0,0,0,0,0,0,0,0,0,0,0,0,0,0,0,0,0,0,0,0,0,0,0,0,0,0,0,0,0,0,0,0,0,0,0,0,0,0,0,0,0,0,0,0,0,0,0,0,0,0,0,0,0,0,0,0,0,0,0,0,0,0,0,0,0,0,0,0,0,0,0,0,0,0,0,0,0,0,0,0,0,0,0,0,0,0,0,0,0,0,0,0,0,0,0,0,0,0,0,0,0,0,0,0,0,0,0,0,0,0,0,0,0,0,0,0,0,0,0,0,0,0,0,0,0,0,0,0,0,0,0,0,0,0,0,0,0,0,0,0,0,0,0,0,0,0,0,0,0,0,0,0,0,0,0,0,0,0,0,0,0,0,0,0,0,0,0,0,0,0,0,0,0,0,0,0,0,0,0,0,0,0,0,0,0,0,0,0,0,0,0,0,0,0,0,0,0,0,0,0,0,0,0,0,0,0,0,0,0,0,0,0,0,0,0,0,0,0,0,0,0,0,0,0,0,0,0,0,0,0,0,0,0,0,0,0,0,0,0,0,0,0,0,0,0,0,0,0,0,0,0,0,0,0,0,0,0,0,0,0,0,0,0,0,0,0,0,0,0,0,0,0,0,0,0,0,0,0,0,0,0,0,0,0,0,0,0,0,0,0,0,0,0,0,0,0,0,0,0,0,0,0,0,0,0,0,0,0,0,0,0,0,0,0,0,0,0,0,0,0,0,0,0,0,0,0,0,0,0,0,0,0,0,0,0,0,0,0,0,0,0,0,0,0,0,0,0,0,0,0,0,0,0,0,0,0,0,0,0,0,0,0,0,0,0,0,0,0,0,0,0,0,0,0,0,0,0,0,0,0,0,0,0,0,0,0,0,0,0,0,0,0,0,0,0,0,0,0,0,0,0,0,0,0,0,0,0,0,0,0,0,0,0,0,0,0,0,0,0,0,0,0,0,0,0,0,0,0,0,0,0,0,0,0,0,0,0,0,0,0,0,0,0,0,0,0,0,0,0,0,0,0,0,0,0,0,0,0,0,0,0,0,0,0,0,0,0,0,0,0,0,0,0,0,0,0,0,0,0,0,0,0,0,0,0,0,0,0,0,0,0,0,0,0,0,0,0,0,0,0,0,0,0,0,0,0,0,0,0,0,0,0,0,0,0,0,0,0,0,0,0,0,0,0,0,0,0,0,0,0,0,0,0,0,0,0,0,0,0,0,0,0,0,0,0,0,0,0,0,0,0,0,0,0,0,0,0,0,0,0,0,0,0,0,0,0,0,0,0,0,0,0,0,0,0,0,0,0,0,0,0,0,0,0,0,0,0,0,0,0,0,0,0,0,0,0,0,0,0,0,0,0,0,0,0,0,0,0,0,0,0,0,0,0,0,0,0,0,0,0,0,0,0,0,0,0,0,0,0,0,0,0,0,0,0,0,0,0,0,0,0,0,0,0,0,0,0,0,0,0,0,0,0,0,0,0,0,0,0,0,0,0,0,0,0,0,0,0,0,0,0,0,0,0,0,0,0,0,0,0,0,0,0,0,0,0,0,0,0,0,0,0,0,0,0,0,0,0,0,0,0,0,0,0,0,0,0,0,0,0,0,0,0,0,0,0,0,0,0,0,0,0,0,0,0,0,0,0,0,0,0,0,0,0,0,0,0,0,0,0,0,0,0,0,0,0,0,0,0,0,0,0,0,0,0,0,0,0,0,0,0,0,0,0,0,0,0,0,0,0,0,0,0,0,0,0,0,0,0,0,0,0,0,0,0,0,0,0,0,0,0,0,0,0,0,0,0,0,0,0,0,0,0,0,0,0,0,0,0,0,0,0,0,0,0,0,0,0,0,0,0,0,0,0,0,0,0,0,0,0,0,0,0,0,0,0,0,0,0,0,0,0,0,0,0,0,0,0,0,0,0,0,0,0,0,0,0,0,0,0,0,0,0,0,0,0,0,0,0,0,0,0,0,0,0,0,0,0,0,0,0,0,0,0,0,0,0,0,0,0,0,0,0,0,0,0,0,0,0,0,0,0,0,0,0,0,0,0,0,0,0,0,0,0,0,0,0,0,0,0,0,0,0,0,0,0,0,0,0,0,0,0,0,0,0,0,0,0,0,0,0,0,0,0,0,0,0,0,0,0,0,0,0,0,0,0,0,0,0,0,0,0,0,0,0,0,0,0,0,0,0,0,0,0,0,0,0,0,0,0,0,0,0,0,0,0,0,0,0,0,0,0,0,0,0,0,0,0,0,0,0,0,0,0,0,0,0,0,0,0,0,0,0,0,0,0,0,0,0,0,0,0,0,0,0,0,0,0,0,0,0,0,0,0,0,0,0,0,0,0,0,0,0,0,0,0,0,0,0,0,0,0,0,0,0,0,0,0,0,0,0,0,0,0,0,0,0,0,0,0,0,0,0,0,0,0,0,0,0,0,0,0,0,0,0,0,0,0,0,0,0,0,0,0,0,0,0,0,0,0,0,0,0,0,0,0,0,0,0,0,0,0,0,0,0,0,0,0,0,0,0,0,0,0,0,0,0,0,0,0,0,0,0,0,0,0,0,0,0,0,0,0,0,0,0,0,0,0,0,0,0,0,0,0,0,0,0,0,0,0,0,0,0,0,0,0,0,0,0,0,0,0,0,0,0,0,0,0,0,0,0,0,0,0,0,0,0,0,0,0,0,0,0,0,0,0,0,0,0,0,0,0,0,0,0,0,0,0,0,0,0,0,0,0,0,0,0,0,0,0,0,0,0,0,0,0,0,0,0,0,0,0,0,0,0,0,0,0,0,0,0,0,0,0,0,0,0,0,0,0,0,0,0,0,0,0,0,0,0,0,0,0,0,0,0,0,0,0,0,0,0,0,0,0,0,0,0,0,0,0,0,0,0,0,0,0,0,0,0,0,0,0,0,0,0,0,0,0,0,0,0,0,0,0,0,0,0,0,0,0,0,0,0,0,0,0,0,0,0,0,0,0,0,0,0,0,0,0,0,0,0,0,0,0,0,0,0,0,0,0,0,0,0,0,0,0,0,0,0,0,0,0,0,0,0,0,0,0,0,0,0,0,0,0,0,0,0,0,0,0,0,0,0,0,0,0,0,0,0,0,0,0,0,0,0,0,0,0,0,0,0,0,0,0,0,0,0,0,0,0,0,0,0,0,0,0,0,0,0,0,0,0,0,0,0,0,0,0,0,0,0,0,0,0,0,0,0,0,0,0,0,0,0,0,0,0,0,0,0,0,0,0,0,0,0,0,0,0,0,0,0,0,0,0,0,0,0,0,0,0,0,0,0,0,0,0,0,0,0,0,0,0,0,0,0,0,0,0,0,0,0,0,0,0,0,0,0,0,0,0,0,0,0,0,0,0,0,0,0,0,0,0,0,0,0,0,0,0,0,0,0,0,0,0,0,0,0,0,0,0,0,0,0,0,0,0,0,0,0,0,0,0,0,0,0,0,0,0,0,0,0,0,0,0,0,0,0,0,0,0,0,0,0,0,0,0,0,0,0,0,0,0,0,0,0,0,0,0,0,0,0,0,0,0,0,0,0,0,0,0,0,0,0,0,0,0,0,0,0,0,0,0,0,0,0,0,0,0,0,0,0,0,0,0,0,0,0,0,0,0,0,0,0,0,0,0,0,0,0,0,0,0,0,0,0,0,0,0,0,0,0,0,0,0,0,0,0,0,0,0,0,0,0,0,0,0,0,0,0,0,0,0,0,0,0,0,0,0,0,0,0,0,0,0,0,0,0,0,0,0,0,0,0,0,0,0,0,0,0,0,0,0,0,0,0,0,0,0,0,0,0,0,0,0,0,0,0,0,0,0,0,0,0,0,0,0,0,0,0,0,0,0,0,0,0,0,0,0,0,0,0,0,0,0,0,0,0,0,0,0,0,0,0,0,0,0,0,0,0,0,0,0,0,0,0,0,0,0,0,0,0,0,0,0,0,0,0,0,0,0,0,0,0,0,0,0,0,0,0,0,0,0,0,0,0,0,0,0,0,0,0,0,0,0,0,0,0,0,0,0,0,0,0,0,0,0,0,0,0,0,0,0,0,0,0,0,0,0,0,0,0,0,0,0,0,0,0,0,0,0,0,0,0,0,0,0,0,0,0,0,0,0,0,0,0,0,0,0,0,0,0,0,0,0,0,0,0,0,0,0,0,0,0,0,0,0,0,0,0,0,0,0,0,0,0,0,0,0,0,0,0,0,0,0,0,0,0,0,0,0,0,0,0,0,0,0,0,0,0,0,0,0,0,0,0,0,0,0,0,0,0,0,0,0,0,0,0,0,0,0,0,0,0,0,0,0,0,0,0,0,0,0,0,0,0,0,0,0,0,0,0,0,0,0,0,0,0,0,0,0,0,0,0,0,0,0,0,0,0,0,0,0,0,0,0,0,0,0,0,0,0,0,0,0,0,0,0,0,0,0,0,0,0,0,0,0,0,0,0,0,0,0,0,0,0,0,0,0,0,0,0,0,0,0,0,0,0,0,0,0,0,0,0,0,0,0,0,0,0,0,0,0,0,0,0,0,0,0,0,0,0,0,0,0,0,0,0,0,0,0,0,0,0,0,0,0,0,0,0,0,0,0,0,0,0,0,0,0,0,0,0,0,0,0,0,0,0,0,0,0,0,0,0,0,0,0,0,0,0,0,0,0,0,0,0,0,0,0,0,0,0,0,0,0,0,0,0,0,0,0,0,0,0,0,0,0,0,0,0,0,0,0,0,0,0,0,0,0,0,0,0,0,0,0,0,0,0,0,0,0,0,0,0,0,0,0,0,0,0,0,0,0,0,0,0,0,0,0,0,0,0,0,0,0,0,0,0,0,0,0,0,0,0,0,0,0,0,0,0,0,0,0,0,0,0,0,0,0,0,0,0,0,0,0,0,0,0,0,0,0,0,0,0,0,0,0,0,0,0,0,0,0,0,0,0,0,0,0,0,0,0,0,0,0,0,0,0,0,0,0,0,0,0,0,0,0,0,0,0,0,0,0,0,0,0,0,0,0,0,0,0,0,0,0,0,0,0,0,0,0,0,0,0,0,0,0,0,0,0,0,0,0,0,0,0,0,0,0,0,0,0,0,0,0,0,0,0,0,0,0,0,0,0,0,0,0,0,0,0,0,0,0,0,0,0,0,0,0,0,0,0,0,0,0,0,0,0,0,0,0,0,0,0,0,0,0,0,0,0,0,0,0,0,0,0,0,0,0,0,0,0,0,0,0,0,0,0,0,0,0,0,0,0,0,0,0,0,0,0,0,0,0,0,0,0,0,0,0,0,0,0,0,0,0,0,0,0,0,0,0,0,0,0,0,0,0,0,0,0,0,0,0,0,0,0,0,0,0,0,0,0,0,0,0,0,0,0,0,0,0,0,0,0,0,0,0,0,0,0,0,0,0,0,0,0,0,0,0,0,0,0,0,0,0,0,0,0,0,0,0,0,0,0,0,0,0,0,0,0,0,0,0,0,0,0,0,0,0,0,0,0,0,0,0,0,0,0,0,0,0,0,0,0,0,0,0,0,0,0,0,0,0,0,0,0,0,0,0,0,0,0,0,0,0,0,0,0,0,0,0,0,0,0,0,0,0,0,0,0,0,0,0,0,0,0,0,0,0,0,0,0,0,0,0,0,0,0,0,0,0,0,0,0,0,0,0,0,0,0,0,0,0,0,0,0,0,0,0,0,0,0,0,0,0,0,0,0,0,0,0,0,0,0,0,0,0,0,0,0,0,0,0,0,0,0,0,0,0,0,0,0,0,0,0,0,0,0,0,0,0,0,0,0,0,0,0,0,0,0,0,0,0,0,0,0,0,0,0,0,0,0,0,0,0,0,0,0,0,0,0,0,0,0,0,0,0,0,0,0,0,0,0,0,0,0,0,0,0,0,0,0,0,0,0,0,0,0,0,0,0,0,0,0,0,0,0,0,0,0,0,0,0,0,0,0,0,0,0,0,0,0,0,0,0,0,0,0,0,0,0,0,0,0,0,0,0,0,0,0,0,0,0,0,0,0,0,0,0,0,0,0,0,0,0,0,0,0,0,0,0,0,0,0,0,0,0,0,0,0,0,0,0,0,0,0,0,0,0,0,0,0,0,0,0,0,0,0,0,0,0,0,0,0,0,0,0,0,0,0,0,0,0,0,0,0,0,0,0,0,0,0,0,0,0,0,0,0,0,0,0,0,0,0,0,0,0,0,0,0,0,0,0,0,0,0,0,0,0,0,0,0,0,0,0,0,0,0,0,0,0,0,0,0,0,0,0,0,0,0,0,0,0,0,0,0,0,0,0,0,0,0,0,0,0,0,0,0,0,0,0,0,0,0,0,0,0,0,0,0,0,0,0,0,0,0,0,0,0,0,0,0,0,0,0,0,0,0,0,0,0,0,0,0,0,0,0,0,0,0,0,0,0,0,0,0,0,0,0,0,0,0,0,0,0,0,0,0,0,0,0,0,0,0,0,0,0,0,0,0,0,0,0,0,0,0,0,0,0,0,0,0,0,0,0,0,0,0,0,0,0,0,0,0,0,0,0,0,0,0,0,0,0,0,0,0,0,0,0,0,0,0,0,0,0,0,0,0,0,0,0,0,0,0,0,0,0,0,0,0,0,0,0,0,0,0,0,0,0,0,0,0,0,0,0,0,0,0,0,0,0,0,0,0,0,0,0,0,0,0,0,0,0,0,0,0,0,0,0,0,0,0,0,0,0,0,0,0,0,0,0,0,0,0,0,0,0,0,0,0,0,0,0,0,0,0,0,0,0,0,0,0,0,0,0,0,0,0,0,0,0,0,0,0,0,0,0,0,0,0,0,0,0,0,0,0,0,0,0,0,0,0,0,0,0,0,0,0,0,0,0,0,0,0,0,0,0,0,0,0,0,0,0,0,0,0,0,0,0,0,0,0,0,0,0,0,0,0,0,0,0,0,0,0,0,0,0,0,0,0,0,0,0,0,0,0,0,0,0,0,0,0,0,0,0,0,0,0,0,0,0,0,0,0,0,0,0,0,0,0,0,0,0,0,0,0,0,0,0,0,0,0,0,0,0,0,0,0,0,0,0,0,0,0,0,0,0,0,0,0,0,0,0,0,0,0,0,0,0,0,0,0,0,0,0,0,0,0,0,0,0,0,0,0,0,0,0,0,0,0,0,0,0,0,0,0,0,0,0,0,0,0,0,0,0,0,0,0,0,0,0,0,0,0,0,0,0,0,0,0,0,0,0,0,0,0,0,0,0,0,0,0,0,0,0,0,0,0,0,0,0,0,0,0,0,0,0,0,0,0,0,0,0,0,0,0,0,0,0,0,0,0,0,0,0,0,0,0,0,0,0,0,0,0,0,0,0,0,0,0,0,0,0,0,0,0,0,0,0,0,0,0,0,0,0,0,0,0,0,0,0,0,0,0,0,0,0,0,0,0,0,0,0,0,0,0,0,0,0,0,0,0,0,0,0,0,0,0,0,0,0,0,0,0,0,0,0,0,0,0,0,0,0,0,0,0,0,0,0,0,0,0,0,0,0,0,0,0,0,0,0,0,0,0,0,0,0,0,0,0,0,0,0,0,0,0,0,0,0,0,0,0,0,0,0,0,0,0,0,0,0,0,0,0,0,0,0,0,0,0,0,0,0,0,0,0,0,0,0,0,0,0,0,0,0,0,0,0,0,0,0,0,0,0,0,0,0,0,0,0,0,0,0,0,0,0,0,0,0,0,0,0,0,0,0,0,0,0,0,0,0,0,0,0,0,0,0,0,0,0,0,0,0,0,0,0,0,0,0,0,0,0,0,0,0,0,0,0,0,0,0,0,0,0,0,0,0,0,0,0,0,0,0,0,0,0,0,0,0,0,0,0,0,0,0,0,0,0,0,0,0,0,0,0,0,0,0,0,0,0,0,0,0,0,0,0,0,0,0,0,0,0,0,0,0,0,0,0,0,0,0,0,0,0,0,0,0,0,0,0,0,0,0,0,0,0,0,0,0,0,0,0,0,0,0,0,0,0,0,0,0,0,0,0,0,0,0,0,0,0,0,0,0,0,0,0,0,0,0,0,0,0,0,0,0,0,0,0,0,0,0,0,0,0,0,0,0,0,0,0,0,0,0,0,0,0,0,0,0,0,0,0,0,0,0,0,0,0,0,0,0,0,0,0,0,0,0,0,0,0,0,0,0,0,0,0,0,0,0,0,0,0,0,0,0,0,0,0,0,0,0,0,0,0,0,0,0,0,0,0,0,0,0,0,0,0,0,0,0,0,0,0,0,0,0,0,0,0,0,0,0,0,0,0,0,0,0,0,0,0,0,0,0,0,0,0,0,0,0,0,0,0,0,0,0,0,0,0,0,0,0,0,0,0,0,0,0,0,0,0,0,0,0,0,0,0,0,0,0,0,0,0,0,0,0,0,0,0,0,0,0,0,0,0,0,0,0,0,0,0,0,0,0,0,0,0,0,0,0,0,0,0,0,0,0,0,0,0,0,0,0,0,0,0,0,0,0,0,0,0,0,0,0,0,0,0,0,0,0,0,0,0,0,0,0,0,0,0,0,0,0,0,0,0,0,0,0,0,0,0,0,0,0,0,0,0,0,0,0,0,0,0,0,0,0,0,0,0,0,0,0,0,0,0,0,0,0,0,0,0,0,0,0,0,0,0,0,0,0,0,0,0,0,0,0,0,0,0,0]},{"id":4,"name":"decals","type":"objectgroup","draworder":"topdown","x":0,"y":0,"opacity":1,"visible":true,"objects":[{"id":148,"name":"","gid":1073742024,"x":1249,"y":1299,"width":32,"height":32,"rotation":0,"visible":true},{"id":149,"name":"","gid":2147483851,"x":1251,"y":1316,"width":32,"height":32,"rotation":0,"visible":true},{"id":150,"name":"","gid":3221225666,"x":1252,"y":1314,"width":32,"height":32,"rotation":0,"visible":true},{"id":151,"name":"","gid":1073742020,"x":1244,"y":1291,"width":32,"height":32,"rotation":0,"visible":true},{"id":152,"name":"","gid":192,"x":1257,"y":1267,"width":32,"height":32,"rotation":0,"visible":true},{"id":153,"name":"","gid":2147483840,"x":1250,"y":1243,"width":32,"height":32,"rotation":0,"visible":true},{"id":154,"name":"","gid":200,"x":1412,"y":1290,"width":32,"height":32,"rotation":0,"visible":true},{"id":155,"name":"","gid":1073742026,"x":1401,"y":1293,"width":32,"height":32,"rotation":0,"visible":true},{"id":156,"name":"","gid":1073742016,"x":1407,"y":1291,"width":32,"height":32,"rotation":0,"visible":true},{"id":157,"name":"","gid":2147483843,"x":1405,"y":1259,"width":32,"height":32,"rotation":0,"visible":true},{"id":158,"name":"","gid":201,"x":510,"y":1017,"width":32,"height":32,"rotation":0,"visible":true},{"id":159,"name":"","gid":3221225675,"x":524,"y":1021,"width":32,"height":32,"rotation":0,"visible":true},{"id":160,"name":"","gid":192,"x":523,"y":1028,"width":32,"height":32,"rotation":0,"visible":true},{"id":161,"name":"","gid":1073742020,"x":533,"y":1023,"width":32,"height":32,"rotation":0,"visible":true},{"id":162,"name":"","gid":1073742018,"x":557,"y":1027,"width":32,"height":32,"rotation":0,"visible":true},{"id":163,"name":"","gid":2147483848,"x":517,"y":1193,"width":32,"height":32,"rotation":0,"visible":true},{"id":164,"name":"","gid":1073742027,"x":515,"y":1190,"width":32,"height":32,"rotation":0,"visible":true},{"id":165,"name":"","gid":192,"x":510,"y":1185,"width":32,"height":32,"rotation":0,"visible":true},{"id":166,"name":"","gid":3221225668,"x":533,"y":1181,"width":32,"height":32,"rotation":0,"visible":true},{"id":167,"name":"","gid":1073742017,"x":557,"y":1186,"width":32,"height":32,"rotation":0,"visible":true},{"id":168,"name":"","gid":1073742017,"x":581,"y":1179,"width":32,"height":32,"rotation":0,"visible":true},{"id":169,"name":"","gid":3221225672,"x":891,"y":1348,"width":32,"height":32,"rotation":0,"visible":true},{"id":170,"name":"","gid":2147483850,"x":908,"y":1329,"width":32,"height":32,"rotation":0,"visible":true},{"id":171,"name":"","gid":1073742017,"x":901,"y":1349,"width":32,"height":32,"rotation":0,"visible":true},{"id":172,"name":"","gid":196,"x":900,"y":1323,"width":32,"height":32,"rotation":0,"visible":true},{"id":173,"name":"","gid":2147483854,"x":902,"y":1299,"width":32,"height":32,"rotation":0,"visible":true},{"id":174,"name":"","gid":206,"x":899,"y":1275,"width":32,"height":32,"rotation":0,"visible":true},{"id":175,"name":"","gid":201,"x":1698,"y":1345,"width":32,"height":32,"rotation":0,"visible":true},{"id":176,"name":"","gid":202,"x":1703,"y":1344,"width":32,"height":32,"rotation":0,"visible":true},{"id":177,"name":"","gid":3221225666,"x":1690,"y":1342,"width":32,"height":32,"rotation":0,"visible":true},{"id":178,"name":"","gid":1073742019,"x":1703,"y":1323,"width":32,"height":32,"rotation":0,"visible":true},{"id":179,"name":"","gid":2147483854,"x":1689,"y":1299,"width":32,"height":32,"rotation":0,"visible":true},{"id":180,"name":"","gid":1073742016,"x":1698,"y":1275,"width":32,"height":32,"rotation":0,"visible":true},{"id":181,"name":"","gid":2147483841,"x":1692,"y":1251,"width":32,"height":32,"rotation":0,"visible":true},{"id":182,"name":"","gid":2147483849,"x":1822,"y":1276,"width":32,"height":32,"rotation":0,"visible":true},{"id":183,"name":"","gid":1073742026,"x":1820,"y":1289,"width":32,"height":32,"rotation":0,"visible":true},{"id":184,"name":"","gid":3221225664,"x":1827,"y":1290,"width":32,"height":32,"rotation":0,"visible":true},{"id":185,"name":"","gid":3221225667,"x":1826,"y":1259,"width":32,"height":32,"rotation":0,"visible":true},{"id":186,"name":"","gid":2147483854,"x":1826,"y":1235,"width":32,"height":32,"rotation":0,"visible":true},{"id":187,"name":"","gid":201,"x":522,"y":708,"width":32,"height":32,"rotation":0,"visible":true},{"id":188,"name":"","gid":1073742027,"x":496,"y":710,"width":32,"height":32,"rotation":0,"visible":true},{"id":189,"name":"","gid":195,"x":533,"y":707,"width":32,"height":32,"rotation":0,"visible":true},{"id":190,"name":"","gid":2147483840,"x":557,"y":705,"width":32,"height":32,"rotation":0,"visible":true},{"id":191,"name":"","gid":193,"x":581,"y":710,"width":32,"height":32,"rotation":0,"visible":true},{"id":192,"name":"","gid":3221225673,"x":958,"y":632,"width":32,"height":32,"rotation":0,"visible":true},{"id":193,"name":"","gid":202,"x":950,"y":648,"width":32,"height":32,"rotation":0,"visible":true},{"id":194,"name":"","gid":1073742017,"x":957,"y":641,"width":32,"height":32,"rotation":0,"visible":true},{"id":195,"name":"","gid":1073742020,"x":961,"y":661,"width":32,"height":32,"rotation":0,"visible":true},{"id":196,"name":"","gid":1073742016,"x":956,"y":685,"width":32,"height":32,"rotation":0,"visible":true},{"id":197,"name":"","gid":3221225666,"x":965,"y":709,"width":32,"height":32,"rotation":0,"visible":true},{"id":198,"name":"","gid":201,"x":1284,"y":568,"width":32,"height":32,"rotation":0,"visible":true},{"id":199,"name":"","gid":2147483851,"x":1281,"y":575,"width":32,"height":32,"rotation":0,"visible":true},{"id":200,"name":"","gid":192,"x":1266,"y":575,"width":32,"height":32,"rotation":0,"visible":true},{"id":201,"name":"","gid":3221225668,"x":1278,"y":597,"width":32,"height":32,"rotation":0,"visible":true},{"id":202,"name":"","gid":2147483841,"x":1284,"y":621,"width":32,"height":32,"rotation":0,"visible":true},{"id":203,"name":"","gid":2147483842,"x":1277,"y":645,"width":32,"height":32,"rotation":0,"visible":true},{"id":204,"name":"","gid":3221225672,"x":1632,"y":767,"width":32,"height":32,"rotation":0,"visible":true},{"id":205,"name":"","gid":3221225674,"x":1630,"y":756,"width":32,"height":32,"rotation":0,"visible":true},{"id":206,"name":"","gid":3221225667,"x":1628,"y":789,"width":32,"height":32,"rotation":0,"visible":true},{"id":207,"name":"","gid":2147483840,"x":1634,"y":813,"width":32,"height":32,"rotation":0,"visible":true},{"id":208,"name":"","gid":2147483840,"x":1635,"y":837,"width":32,"height":32,"rotation":0,"visible":true},{"id":209,"name":"","gid":3221225664,"x":1625,"y":861,"width":32,"height":32,"rotation":0,"visible":true},{"id":210,"name":"","gid":2147483849,"x":2270,"y":1249,"width":32,"height":32,"rotation":0,"visible":true},{"id":211,"name":"","gid":3221225674,"x":2265,"y":1249,"width":32,"height":32,"rotation":0,"visible":true},{"id":212,"name":"","gid":1073742017,"x":2268,"y":1250,"width":32,"height":32,"rotation":0,"visible":true},{"id":213,"name":"","gid":3221225668,"x":2251,"y":1247,"width":32,"height":32,"rotation":0,"visible":true},{"id":214,"name":"","gid":194,"x":2227,"y":1254,"width":32,"height":32,"rotation":0,"visible":true},{"id":215,"name":"","gid":1073742018,"x":2203,"y":1251,"width":32,"height":32,"rotation":0,"visible":true},{"id":216,"name":"","gid":3221225672,"x":2019,"y":768,"width":32,"height":32,"rotation":0,"visible":true},{"id":217,"name":"","gid":1073742027,"x":2030,"y":778,"width":32,"height":32,"rotation":0,"visible":true},{"id":218,"name":"","gid":193,"x":2028,"y":767,"width":32,"height":32,"rotation":0,"visible":true},{"id":219,"name":"","gid":3221225667,"x":2012,"y":789,"width":32,"height":32,"rotation":0,"visible":true},{"id":220,"name":"","gid":1073742018,"x":2014,"y":813,"width":32,"height":32,"rotation":0,"visible":true},{"id":221,"name":"","gid":2147483842,"x":2019,"y":837,"width":32,"height":32,"rotation":0,"visible":true},{"id":222,"name":"","gid":2147483842,"x":2017,"y":861,"width":32,"height":32,"rotation":0,"visible":true},{"id":223,"name":"","gid":3221225675,"x":743,"y":125,"width":32,"height":32,"rotation":0,"visible":true},{"id":224,"name":"","gid":202,"x":722,"y":129,"width":32,"height":32,"rotation":0,"visible":true},{"id":225,"name":"","gid":203,"x":1941,"y":135,"width":32,"height":32,"rotation":0,"visible":true},{"id":226,"name":"","gid":3221225674,"x":1959,"y":132,"width":32,"height":32,"rotation":0,"visible":true},{"id":227,"name":"","gid":203,"x":394,"y":357,"width":32,"height":32,"rotation":0,"visible":true},{"id":228,"name":"","gid":203,"x":398,"y":359,"width":32,"height":32,"rotation":0,"visible":true},{"id":229,"name":"","gid":1073742024,"x":2782,"y":870,"width":32,"height":32,"rotation":0,"visible":true},{"id":230,"name":"","gid":203,"x":2774,"y":859,"width":32,"height":32,"rotation":0,"visible":true},{"id":231,"name":"","gid":2147483840,"x":2777,"y":865,"width":32,"height":32,"rotation":0,"visible":true},{"id":232,"name":"","gid":2147483844,"x":2779,"y":885,"width":32,"height":32,"rotation":0,"visible":true},{"id":233,"name":"","gid":1073742016,"x":2786,"y":909,"width":32,"height":32,"rotation":0,"visible":true},{"id":234,"name":"","gid":2147483848,"x":3042,"y":1413,"width":32,"height":32,"rotation":0,"visible":true},{"id":235,"name":"","gid":202,"x":3041,"y":1415,"width":32,"height":32,"rotation":0,"visible":true},{"id":236,"name":"","gid":2147483842,"x":3038,"y":1401,"width":32,"height":32,"rotation":0,"visible":true},{"id":237,"name":"","gid":2147483844,"x":3046,"y":1387,"width":32,"height":32,"rotation":0,"visible":true},{"id":238,"name":"","gid":3221225666,"x":3040,"y":1363,"width":32,"height":32,"rotation":0,"visible":true},{"id":239,"name":"","gid":3221225671,"x":769,"y":576,"width":32,"height":32,"rotation":0,"visible":true},{"id":240,"name":"","gid":1073742022,"x":1405,"y":666,"width":32,"height":32,"rotation":0,"visible":true},{"id":241,"name":"","gid":3221225670,"x":699,"y":698,"width":32,"height":32,"rotation":0,"visible":true},{"id":242,"name":"","gid":3221225678,"x":648,"y":701,"width":32,"height":32,"rotation":0,"visible":true},{"id":243,"name":"","gid":3221225671,"x":1756,"y":755,"width":32,"height":32,"rotation":0,"visible":true},{"id":244,"name":"","gid":3221225678,"x":1764,"y":736,"width":32,"height":32,"rotation":0,"visible":true},{"id":245,"name":"","gid":1073742023,"x":1796,"y":767,"width":32,"height":32,"rotation":0,"visible":true},{"id":246,"name":"","gid":206,"x":1788,"y":707,"width":32,"height":32,"rotation":0,"visible":true},{"id":247,"name":"","gid":1073742030,"x":1760,"y":823,"width":32,"height":32,"rotation":0,"visible":true},{"id":248,"name":"","gid":3221225678,"x":1740,"y":853,"width":32,"height":32,"rotation":0,"visible":true},{"id":249,"name":"","gid":197,"x":1043,"y":858,"width":32,"height":32,"rotation":0,"visible":true},{"id":250,"name":"","gid":206,"x":1734,"y":830,"width":32,"height":32,"rotation":0,"visible":true},{"id":251,"name":"","gid":199,"x":2957,"y":896,"width":32,"height":32,"rotation":0,"visible":true},{"id":252,"name":"","gid":206,"x":2980,"y":915,"width":32,"height":32,"rotation":0,"visible":true},{"id":253,"name":"","gid":197,"x":1916,"y":932,"width":32,"height":32,"rotation":0,"visible":true},{"id":254,"name":"","gid":206,"x":3002,"y":929,"width":32,"height":32,"rotation":0,"visible":true},{"id":255,"name":"","gid":3221225669,"x":2951,"y":929,"width":32,"height":32,"rotation":0,"visible":true},{"id":256,"name":"","gid":3221225678,"x":2972,"y":896,"width":32,"height":32,"rotation":0,"visible":true},{"id":257,"name":"","gid":3221225670,"x":537,"y":982,"width":32,"height":32,"rotation":0,"visible":true},{"id":258,"name":"","gid":1073742022,"x":577,"y":987,"width":32,"height":32,"rotation":0,"visible":true},{"id":259,"name":"","gid":206,"x":1606,"y":976,"width":32,"height":32,"rotation":0,"visible":true},{"id":260,"name":"","gid":2147483854,"x":3089,"y":1023,"width":32,"height":32,"rotation":0,"visible":true},{"id":261,"name":"","gid":1073742021,"x":3070,"y":1004,"width":32,"height":32,"rotation":0,"visible":true},{"id":262,"name":"","gid":3221225669,"x":1983,"y":1085,"width":32,"height":32,"rotation":0,"visible":true},{"id":263,"name":"","gid":198,"x":1947,"y":1055,"width":32,"height":32,"rotation":0,"visible":true},{"id":264,"name":"","gid":2147483845,"x":1990,"y":1116,"width":32,"height":32,"rotation":0,"visible":true},{"id":265,"name":"","gid":2147483845,"x":1981,"y":1061,"width":32,"height":32,"rotation":0,"visible":true},{"id":266,"name":"","gid":206,"x":2954,"y":1091,"width":32,"height":32,"rotation":0,"visible":true},{"id":267,"name":"","gid":3221225670,"x":3001,"y":1117,"width":32,"height":32,"rotation":0,"visible":true},{"id":268,"name":"","gid":1073742030,"x":2955,"y":1114,"width":32,"height":32,"rotation":0,"visible":true},{"id":269,"name":"","gid":1073742022,"x":2976,"y":1090,"width":32,"height":32,"rotation":0,"visible":true},{"id":270,"name":"","gid":2147483847,"x":3069,"y":1209,"width":32,"height":32,"rotation":0,"visible":true},{"id":271,"name":"","gid":1073742030,"x":3043,"y":1210,"width":32,"height":32,"rotation":0,"visible":true},{"id":272,"name":"","gid":2147483847,"x":3076,"y":1197,"width":32,"height":32,"rotation":0,"visible":true},{"id":273,"name":"","gid":1073742030,"x":2875,"y":1284,"width":32,"height":32,"rotation":0,"visible":true},{"id":274,"name":"","gid":1073742022,"x":2825,"y":1283,"width":32,"height":32,"rotation":0,"visible":true},{"id":275,"name":"","gid":1073742030,"x":2849,"y":1302,"width":32,"height":32,"rotation":0,"visible":true},{"id":276,"name":"","gid":199,"x":2870,"y":1314,"width":32,"height":32,"rotation":0,"visible":true},{"id":277,"name":"","gid":197,"x":1984,"y":1411,"width":32,"height":32,"rotation":0,"visible":true},{"id":278,"name":"","gid":3221225678,"x":2007,"y":1406,"width":32,"height":32,"rotation":0,"visible":true},{"id":279,"name":"","gid":1073742021,"x":1320,"y":568,"width":32,"height":32,"rotation":0,"visible":true},{"id":280,"name":"","gid":2147483847,"x":1704,"y":760,"width":32,"height":32,"rotation":0,"visible":true},{"id":281,"name":"","gid":2147483847,"x":2952,"y":856,"width":32,"height":32,"rotation":0,"visible":true},{"id":282,"name":"","gid":199,"x":1048,"y":936,"width":32,"height":32,"rotation":0,"visible":true},{"id":283,"name":"","gid":3221225670,"x":1704,"y":936,"width":32,"height":32,"rotation":0,"visible":true},{"id":284,"name":"","gid":2147483847,"x":3144,"y":1000,"width":32,"height":32,"rotation":0,"visible":true},{"id":285,"name":"","gid":3221225669,"x":3144,"y":1048,"width":32,"height":32,"rotation":0,"visible":true},{"id":286,"name":"","gid":1073742022,"x":2872,"y":1240,"width":32,"height":32,"rotation":0,"visible":true},{"id":287,"name":"","gid":1073742022,"x":2824,"y":1416,"width":32,"height":32,"rotation":0,"visible":true},{"id":288,"name":"","gid":3221225646,"x":1077,"y":1598,"width":48,"height":48,"rotation":0,"visible":true},{"id":289,"name":"","gid":177,"x":503,"y":1996,"width":48,"height":48,"rotation":0,"visible":true},{"id":290,"name":"","gid":3221225676,"x":2952,"y":448,"width":32,"height":32,"rotation":0,"visible":true},{"id":291,"name":"","gid":182,"x":247,"y":1420,"width":48,"height":48,"rotation":0,"visible":true},{"id":292,"name":"","gid":1073742028,"x":523,"y":1064,"width":32,"height":32,"rotation":0,"visible":true},{"id":293,"name":"","gid":186,"x":640,"y":132,"width":48,"height":48,"rotation":0,"visible":true},{"id":294,"name":"","gid":3221225653,"x":1820,"y":453,"width":48,"height":48,"rotation":0,"visible":true},{"id":295,"name":"","gid":2147483833,"x":1874,"y":141,"width":48,"height":48,"rotation":0,"visible":true},{"id":296,"name":"","gid":1073742006,"x":1372,"y":513,"width":48,"height":48,"rotation":0,"visible":true},{"id":297,"name":"","gid":173,"x":753,"y":1483,"width":48,"height":48,"rotation":0,"visible":true},{"id":298,"name":"","gid":185,"x":2134,"y":168,"width":48,"height":48,"rotation":0,"visible":true},{"id":299,"name":"","gid":3221225658,"x":438,"y":1355,"width":48,"height":48,"rotation":0,"visible":true},{"id":300,"name":"","gid":1073741998,"x":854,"y":1650,"width":48,"height":48,"rotation":0,"visible":true},{"id":301,"name":"","gid":170,"x":53,"y":771,"width":48,"height":48,"rotation":0,"visible":true},{"id":302,"name":"","gid":2147483808,"x":88,"y":769,"width":48,"height":48,"rotation":0,"visible":true},{"id":303,"name":"","gid":1073741996,"x":763,"y":1890,"width":48,"height":48,"rotation":0,"visible":true},{"id":304,"name":"","gid":3221225632,"x":90,"y":968,"width":48,"height":48,"rotation":0,"visible":true},{"id":305,"name":"","gid":3221225632,"x":2229,"y":1936,"width":48,"height":48,"rotation":0,"visible":true},{"id":306,"name":"","gid":1073742009,"x":993,"y":1507,"width":48,"height":48,"rotation":0,"visible":true},{"id":307,"name":"","gid":2147483825,"x":1906,"y":1550,"width":48,"height":48,"rotation":0,"visible":true},{"id":308,"name":"","gid":2147483852,"x":1501,"y":866,"width":32,"height":32,"rotation":0,"visible":true},{"id":309,"name":"","gid":177,"x":2359,"y":1570,"width":48,"height":48,"rotation":0,"visible":true},{"id":310,"name":"","gid":1073742001,"x":2015,"y":295,"width":48,"height":48,"rotation":0,"visible":true},{"id":311,"name":"","gid":185,"x":788,"y":366,"width":48,"height":48,"rotation":0,"visible":true},{"id":312,"name":"","gid":204,"x":826,"y":1104,"width":32,"height":32,"rotation":0,"visible":true},{"id":313,"name":"","gid":177,"x":917,"y":1451,"width":48,"height":48,"rotation":0,"visible":true},{"id":314,"name":"","gid":1073742010,"x":1345,"y":374,"width":48,"height":48,"rotation":0,"visible":true},{"id":315,"name":"","gid":170,"x":181,"y":943,"width":48,"height":48,"rotation":0,"visible":true},{"id":316,"name":"","gid":3221225630,"x":153,"y":1356,"width":48,"height":48,"rotation":0,"visible":true},{"id":317,"name":"","gid":177,"x":1558,"y":609,"width":48,"height":48,"rotation":0,"visible":true},{"id":318,"name":"","gid":1073742009,"x":2399,"y":1196,"width":48,"height":48,"rotation":0,"visible":true},{"id":319,"name":"","gid":1073741984,"x":2299,"y":1830,"width":48,"height":48,"rotation":0,"visible":true},{"id":320,"name":"","gid":2147483822,"x":633,"y":1735,"width":48,"height":48,"rotation":0,"visible":true},{"id":321,"name":"","gid":2147483821,"x":1975,"y":137,"width":48,"height":48,"rotation":0,"visible":true},{"id":322,"name":"","gid":163,"x":116,"y":1388,"width":48,"height":48,"rotation":0,"visible":true},{"id":323,"name":"","gid":174,"x":765,"y":1998,"width":48,"height":48,"rotation":0,"visible":true},{"id":324,"name":"","gid":3221225649,"x":783,"y":1536,"width":48,"height":48,"rotation":0,"visible":true},{"id":325,"name":"","gid":3221225643,"x":151,"y":1161,"width":48,"height":48,"rotation":0,"visible":true},{"id":326,"name":"","gid":2147483853,"x":1567,"y":905,"width":32,"height":32,"rotation":0,"visible":true},{"id":327,"name":"","gid":2147483819,"x":120,"y":1251,"width":48,"height":48,"rotation":0,"visible":true},{"id":328,"name":"","gid":3221225654,"x":2330,"y":429,"width":48,"height":48,"rotation":0,"visible":true},{"id":329,"name":"","gid":1073742010,"x":761,"y":137,"width":48,"height":48,"rotation":0,"visible":true},{"id":330,"name":"","gid":2147483830,"x":2418,"y":1188,"width":48,"height":48,"rotation":0,"visible":true},{"id":331,"name":"","gid":199,"x":571,"y":1021,"width":32,"height":32,"rotation":0,"visible":true},{"id":332,"name":"","gid":177,"x":2257,"y":528,"width":48,"height":48,"rotation":0,"visible":true},{"id":333,"name":"","gid":2147483829,"x":1814,"y":554,"width":48,"height":48,"rotation":0,"visible":true},{"id":334,"name":"","gid":185,"x":691,"y":360,"width":48,"height":48,"rotation":0,"visible":true},{"id":335,"name":"","gid":3221225646,"x":2136,"y":1065,"width":48,"height":48,"rotation":0,"visible":true},{"id":336,"name":"","gid":2147483834,"x":1119,"y":1554,"width":48,"height":48,"rotation":0,"visible":true},{"id":337,"name":"","gid":3221225653,"x":2008,"y":484,"width":48,"height":48,"rotation":0,"visible":true},{"id":338,"name":"","gid":1073742009,"x":1900,"y":269,"width":48,"height":48,"rotation":0,"visible":true},{"id":339,"name":"","gid":2147483811,"x":317,"y":803,"width":48,"height":48,"rotation":0,"visible":true},{"id":340,"name":"","gid":2147483855,"x":1112,"y":703,"width":32,"height":32,"rotation":0,"visible":true},{"id":341,"name":"","gid":1073741985,"x":142,"y":1251,"width":48,"height":48,"rotation":0,"visible":true},{"id":342,"name":"","gid":186,"x":2038,"y":454,"width":48,"height":48,"rotation":0,"visible":true},{"id":343,"name":"","gid":3221225649,"x":731,"y":304,"width":48,"height":48,"rotation":0,"visible":true},{"id":344,"name":"","gid":174,"x":951,"y":1579,"width":48,"height":48,"rotation":0,"visible":true},{"id":345,"name":"","gid":207,"x":608,"y":1218,"width":32,"height":32,"rotation":0,"visible":true},{"id":346,"name":"","gid":1073741992,"x":1722,"y":2025,"width":48,"height":48,"rotation":0,"visible":true},{"id":347,"name":"","gid":162,"x":2467,"y":1831,"width":48,"height":48,"rotation":0,"visible":true},{"id":348,"name":"","gid":2147483816,"x":141,"y":1325,"width":48,"height":48,"rotation":0,"visible":true},{"id":349,"name":"","gid":2147483808,"x":150,"y":1061,"width":48,"height":48,"rotation":0,"visible":true},{"id":350,"name":"","gid":1073742001,"x":824,"y":1570,"width":48,"height":48,"rotation":0,"visible":true},{"id":351,"name":"","gid":204,"x":1184,"y":708,"width":32,"height":32,"rotation":0,"visible":true},{"id":352,"name":"","gid":1073741998,"x":2000,"y":435,"width":48,"height":48,"rotation":0,"visible":true},{"id":353,"name":"","gid":3221225640,"x":62,"y":137,"width":48,"height":48,"rotation":0,"visible":true},{"id":354,"name":"","gid":3221225635,"x":26,"y":1702,"width":48,"height":48,"rotation":0,"visible":true},{"id":355,"name":"","gid":3221225640,"x":284,"y":808,"width":48,"height":48,"rotation":0,"visible":true},{"id":356,"name":"","gid":1073742001,"x":600,"y":138,"width":48,"height":48,"rotation":0,"visible":true},{"id":357,"name":"","gid":1073741984,"x":3031,"y":1844,"width":48,"height":48,"rotation":0,"visible":true},{"id":358,"name":"","gid":197,"x":2945,"y":474,"width":32,"height":32,"rotation":0,"visible":true},{"id":359,"name":"","gid":3221225646,"x":345,"y":1352,"width":48,"height":48,"rotation":0,"visible":true},{"id":360,"name":"","gid":1073741994,"x":94,"y":740,"width":48,"height":48,"rotation":0,"visible":true},{"id":361,"name":"","gid":2147483834,"x":1693,"y":458,"width":48,"height":48,"rotation":0,"visible":true},{"id":362,"name":"","gid":3221225645,"x":2657,"y":1738,"width":48,"height":48,"rotation":0,"visible":true},{"id":363,"name":"","gid":185,"x":1634,"y":512,"width":48,"height":48,"rotation":0,"visible":true},{"id":364,"name":"","gid":2147483821,"x":1910,"y":1613,"width":48,"height":48,"rotation":0,"visible":true},{"id":365,"name":"","gid":160,"x":177,"y":1180,"width":48,"height":48,"rotation":0,"visible":true},{"id":366,"name":"","gid":1073741998,"x":1523,"y":686,"width":48,"height":48,"rotation":0,"visible":true},{"id":367,"name":"","gid":177,"x":878,"y":1990,"width":48,"height":48,"rotation":0,"visible":true},{"id":368,"name":"","gid":3221225643,"x":798,"y":1897,"width":48,"height":48,"rotation":0,"visible":true},{"id":369,"name":"","gid":158,"x":220,"y":2020,"width":48,"height":48,"rotation":0,"visible":true},{"id":370,"name":"","gid":185,"x":817,"y":1644,"width":48,"height":48,"rotation":0,"visible":true},{"id":371,"name":"","gid":3221225640,"x":2167,"y":2054,"width":48,"height":48,"rotation":0,"visible":true},{"id":372,"name":"","gid":2147483833,"x":2484,"y":1328,"width":48,"height":48,"rotation":0,"visible":true},{"id":373,"name":"","gid":186,"x":609,"y":1725,"width":48,"height":48,"rotation":0,"visible":true},{"id":374,"name":"","gid":3221225635,"x":219,"y":686,"width":48,"height":48,"rotation":0,"visible":true},{"id":375,"name":"","gid":3221225676,"x":2662,"y":551,"width":32,"height":32,"rotation":0,"visible":true},{"id":376,"name":"","gid":3221225649,"x":1878,"y":457,"width":48,"height":48,"rotation":0,"visible":true},{"id":377,"name":"","gid":1073742006,"x":1890,"y":1544,"width":48,"height":48,"rotation":0,"visible":true},{"id":378,"name":"","gid":2147483846,"x":2882,"y":600,"width":32,"height":32,"rotation":0,"visible":true},{"id":379,"name":"","gid":2147483822,"x":1656,"y":520,"width":48,"height":48,"rotation":0,"visible":true},{"id":380,"name":"","gid":170,"x":1983,"y":1679,"width":48,"height":48,"rotation":0,"visible":true},{"id":381,"name":"","gid":1073742010,"x":540,"y":1996,"width":48,"height":48,"rotation":0,"visible":true},{"id":382,"name":"","gid":170,"x":183,"y":60,"width":48,"height":48,"rotation":0,"visible":true},{"id":383,"name":"","gid":171,"x":3162,"y":1828,"width":48,"height":48,"rotation":0,"visible":true},{"id":384,"name":"","gid":2147483806,"x":58,"y":105,"width":48,"height":48,"rotation":0,"visible":true},{"id":385,"name":"","gid":1073742009,"x":1907,"y":1512,"width":48,"height":48,"rotation":0,"visible":true},{"id":386,"name":"","gid":198,"x":3007,"y":544,"width":32,"height":32,"rotation":0,"visible":true},{"id":387,"name":"","gid":2147483806,"x":1122,"y":1935,"width":48,"height":48,"rotation":0,"visible":true},{"id":388,"name":"","gid":173,"x":2073,"y":422,"width":48,"height":48,"rotation":0,"visible":true},{"id":389,"name":"","gid":199,"x":1545,"y":897,"width":32,"height":32,"rotation":0,"visible":true},{"id":390,"name":"","gid":1073742010,"x":415,"y":1353,"width":48,"height":48,"rotation":0,"visible":true},{"id":391,"name":"","gid":185,"x":1303,"y":2007,"width":48,"height":48,"rotation":0,"visible":true},{"id":392,"name":"","gid":185,"x":731,"y":1638,"width":48,"height":48,"rotation":0,"visible":true},{"id":393,"name":"","gid":197,"x":2910,"y":609,"width":32,"height":32,"rotation":0,"visible":true},{"id":394,"name":"","gid":1073742006,"x":2588,"y":1741,"width":48,"height":48,"rotation":0,"visible":true},{"id":395,"name":"","gid":1073741987,"x":30,"y":1930,"width":48,"height":48,"rotation":0,"visible":true},{"id":396,"name":"","gid":2147483806,"x":2526,"y":1870,"width":48,"height":48,"rotation":0,"visible":true},{"id":397,"name":"","gid":1073742031,"x":2978,"y":358,"width":32,"height":32,"rotation":0,"visible":true},{"id":398,"name":"","gid":3221225646,"x":757,"y":1637,"width":48,"height":48,"rotation":0,"visible":true},{"id":399,"name":"","gid":3221225679,"x":3043,"y":444,"width":32,"height":32,"rotation":0,"visible":true},{"id":400,"name":"","gid":3221225633,"x":52,"y":998,"width":48,"height":48,"rotation":0,"visible":true},{"id":401,"name":"","gid":3221225642,"x":300,"y":167,"width":48,"height":48,"rotation":0,"visible":true},{"id":402,"name":"","gid":3221225649,"x":2048,"y":357,"width":48,"height":48,"rotation":0,"visible":true},{"id":403,"name":"","gid":3221225654,"x":925,"y":163,"width":48,"height":48,"rotation":0,"visible":true},{"id":404,"name":"","gid":205,"x":3043,"y":569,"width":32,"height":32,"rotation":0,"visible":true},{"id":405,"name":"","gid":1073742001,"x":2456,"y":1281,"width":48,"height":48,"rotation":0,"visible":true},{"id":406,"name":"","gid":2147483806,"x":862,"y":1760,"width":48,"height":48,"rotation":0,"visible":true},{"id":407,"name":"","gid":1073741994,"x":288,"y":740,"width":48,"height":48,"rotation":0,"visible":true},{"id":408,"name":"","gid":2147483821,"x":2143,"y":264,"width":48,"height":48,"rotation":0,"visible":true},{"id":409,"name":"","gid":185,"x":594,"y":352,"width":48,"height":48,"rotation":0,"visible":true},{"id":410,"name":"","gid":1073742021,"x":2973,"y":440,"width":32,"height":32,"rotation":0,"visible":true},{"id":411,"name":"","gid":3221225657,"x":982,"y":1574,"width":48,"height":48,"rotation":0,"visible":true},{"id":412,"name":"","gid":3221225649,"x":729,"y":1576,"width":48,"height":48,"rotation":0,"visible":true},{"id":413,"name":"","gid":2147483825,"x":1784,"y":548,"width":48,"height":48,"rotation":0,"visible":true},{"id":414,"name":"","gid":3221225671,"x":1150,"y":639,"width":32,"height":32,"rotation":0,"visible":true},{"id":415,"name":"","gid":1073742001,"x":470,"y":227,"width":48,"height":48,"rotation":0,"visible":true},{"id":416,"name":"","gid":2147483821,"x":912,"y":135,"width":48,"height":48,"rotation":0,"visible":true},{"id":417,"name":"","gid":2147483829,"x":2195,"y":1645,"width":48,"height":48,"rotation":0,"visible":true},{"id":418,"name":"","gid":2147483833,"x":687,"y":391,"width":48,"height":48,"rotation":0,"visible":true},{"id":419,"name":"","gid":2147483822,"x":2298,"y":553,"width":48,"height":48,"rotation":0,"visible":true},{"id":420,"name":"","gid":3221225649,"x":2168,"y":202,"width":48,"height":48,"rotation":0,"visible":true},{"id":421,"name":"","gid":2147483825,"x":1559,"y":714,"width":48,"height":48,"rotation":0,"visible":true},{"id":422,"name":"","gid":158,"x":63,"y":79,"width":48,"height":48,"rotation":0,"visible":true},{"id":423,"name":"","gid":163,"x":2327,"y":1925,"width":48,"height":48,"rotation":0,"visible":true},{"id":424,"name":"","gid":3221225646,"x":1881,"y":260,"width":48,"height":48,"rotation":0,"visible":true},{"id":425,"name":"","gid":182,"x":2130,"y":965,"width":48,"height":48,"rotation":0,"visible":true},{"id":426,"name":"","gid":158,"x":2401,"y":1793,"width":48,"height":48,"rotation":0,"visible":true},{"id":427,"name":"","gid":1073742022,"x":3098,"y":517,"width":32,"height":32,"rotation":0,"visible":true},{"id":428,"name":"","gid":186,"x":598,"y":388,"width":48,"height":48,"rotation":0,"visible":true},{"id":429,"name":"","gid":1073742001,"x":2137,"y":1631,"width":48,"height":48,"rotation":0,"visible":true},{"id":430,"name":"","gid":3221225653,"x":987,"y":1481,"width":48,"height":48,"rotation":0,"visible":true},{"id":431,"name":"","gid":1073742006,"x":1629,"y":679,"width":48,"height":48,"rotation":0,"visible":true},{"id":432,"name":"","gid":1073742001,"x":798,"y":332,"width":48,"height":48,"rotation":0,"visible":true},{"id":433,"name":"","gid":3221225649,"x":439,"y":177,"width":48,"height":48,"rotation":0,"visible":true},{"id":434,"name":"","gid":3221225634,"x":162,"y":1004,"width":48,"height":48,"rotation":0,"visible":true},{"id":435,"name":"","gid":1073742001,"x":1870,"y":352,"width":48,"height":48,"rotation":0,"visible":true},{"id":436,"name":"","gid":174,"x":1152,"y":1539,"width":48,"height":48,"rotation":0,"visible":true},{"id":437,"name":"","gid":3221225649,"x":700,"y":1566,"width":48,"height":48,"rotation":0,"visible":true},{"id":438,"name":"","gid":3221225679,"x":1571,"y":858,"width":32,"height":32,"rotation":0,"visible":true},{"id":439,"name":"","gid":185,"x":979,"y":172,"width":48,"height":48,"rotation":0,"visible":true},{"id":440,"name":"","gid":1073742010,"x":2159,"y":1060,"width":48,"height":48,"rotation":0,"visible":true},{"id":441,"name":"","gid":1073742010,"x":2179,"y":447,"width":48,"height":48,"rotation":0,"visible":true},{"id":442,"name":"","gid":177,"x":2461,"y":1351,"width":48,"height":48,"rotation":0,"visible":true},{"id":443,"name":"","gid":3221225657,"x":1978,"y":159,"width":48,"height":48,"rotation":0,"visible":true},{"id":444,"name":"","gid":2147483821,"x":1074,"y":265,"width":48,"height":48,"rotation":0,"visible":true},{"id":445,"name":"","gid":3221225634,"x":1398,"y":1896,"width":48,"height":48,"rotation":0,"visible":true},{"id":446,"name":"","gid":186,"x":755,"y":1513,"width":48,"height":48,"rotation":0,"visible":true},{"id":447,"name":"","gid":3221225658,"x":665,"y":365,"width":48,"height":48,"rotation":0,"visible":true},{"id":448,"name":"","gid":162,"x":186,"y":1163,"width":48,"height":48,"rotation":0,"visible":true},{"id":449,"name":"","gid":3221225630,"x":2297,"y":1929,"width":48,"height":48,"rotation":0,"visible":true},{"id":450,"name":"","gid":3221225635,"x":1715,"y":1966,"width":48,"height":48,"rotation":0,"visible":true},{"id":451,"name":"","gid":2147483812,"x":68,"y":1990,"width":48,"height":48,"rotation":0,"visible":true},{"id":452,"name":"","gid":1073742006,"x":1683,"y":391,"width":48,"height":48,"rotation":0,"visible":true},{"id":453,"name":"","gid":172,"x":59,"y":939,"width":48,"height":48,"rotation":0,"visible":true},{"id":454,"name":"","gid":170,"x":2340,"y":1808,"width":48,"height":48,"rotation":0,"visible":true},{"id":455,"name":"","gid":3221225634,"x":140,"y":907,"width":48,"height":48,"rotation":0,"visible":true},{"id":456,"name":"","gid":3221225653,"x":1566,"y":583,"width":48,"height":48,"rotation":0,"visible":true},{"id":457,"name":"","gid":161,"x":1332,"y":1934,"width":48,"height":48,"rotation":0,"visible":true},{"id":458,"name":"","gid":2147483830,"x":2451,"y":1254,"width":48,"height":48,"rotation":0,"visible":true},{"id":459,"name":"","gid":1073742010,"x":2165,"y":261,"width":48,"height":48,"rotation":0,"visible":true},{"id":460,"name":"","gid":1073741982,"x":16,"y":1893,"width":48,"height":48,"rotation":0,"visible":true},{"id":461,"name":"","gid":3221225649,"x":1498,"y":712,"width":48,"height":48,"rotation":0,"visible":true},{"id":462,"name":"","gid":186,"x":735,"y":1611,"width":48,"height":48,"rotation":0,"visible":true},{"id":463,"name":"","gid":1073742010,"x":2109,"y":144,"width":48,"height":48,"rotation":0,"visible":true},{"id":464,"name":"","gid":160,"x":1752,"y":1673,"width":48,"height":48,"rotation":0,"visible":true},{"id":465,"name":"","gid":174,"x":379,"y":234,"width":48,"height":48,"rotation":0,"visible":true},{"id":466,"name":"","gid":177,"x":1529,"y":617,"width":48,"height":48,"rotation":0,"visible":true},{"id":467,"name":"","gid":170,"x":887,"y":1772,"width":48,"height":48,"rotation":0,"visible":true},{"id":468,"name":"","gid":171,"x":90,"y":843,"width":48,"height":48,"rotation":0,"visible":true},{"id":469,"name":"","gid":2147483822,"x":1617,"y":487,"width":48,"height":48,"rotation":0,"visible":true},{"id":470,"name":"","gid":3221225671,"x":1568,"y":772,"width":32,"height":32,"rotation":0,"visible":true},{"id":471,"name":"","gid":205,"x":1153,"y":612,"width":32,"height":32,"rotation":0,"visible":true},{"id":472,"name":"","gid":1073742009,"x":699,"y":144,"width":48,"height":48,"rotation":0,"visible":true},{"id":473,"name":"","gid":1073742009,"x":2431,"y":1264,"width":48,"height":48,"rotation":0,"visible":true},{"id":474,"name":"","gid":177,"x":2013,"y":396,"width":48,"height":48,"rotation":0,"visible":true},{"id":475,"name":"","gid":2147483833,"x":1917,"y":397,"width":48,"height":48,"rotation":0,"visible":true},{"id":476,"name":"","gid":182,"x":912,"y":229,"width":48,"height":48,"rotation":0,"visible":true},{"id":477,"name":"","gid":174,"x":404,"y":198,"width":48,"height":48,"rotation":0,"visible":true},{"id":478,"name":"","gid":3221225654,"x":2040,"y":1486,"width":48,"height":48,"rotation":0,"visible":true},{"id":479,"name":"","gid":2147483808,"x":-8,"y":1897,"width":48,"height":48,"rotation":0,"visible":true},{"id":480,"name":"","gid":3221225630,"x":52,"y":41,"width":48,"height":48,"rotation":0,"visible":true},{"id":481,"name":"","gid":2147483822,"x":2265,"y":1577,"width":48,"height":48,"rotation":0,"visible":true},{"id":482,"name":"","gid":1073742022,"x":2943,"y":506,"width":32,"height":32,"rotation":0,"visible":true},{"id":483,"name":"","gid":185,"x":445,"y":1318,"width":48,"height":48,"rotation":0,"visible":true},{"id":484,"name":"","gid":2147483834,"x":887,"y":131,"width":48,"height":48,"rotation":0,"visible":true},{"id":485,"name":"","gid":3221225679,"x":3017,"y":384,"width":32,"height":32,"rotation":0,"visible":true},{"id":486,"name":"","gid":174,"x":2136,"y":1732,"width":48,"height":48,"rotation":0,"visible":true},{"id":487,"name":"","gid":1073741984,"x":115,"y":1284,"width":48,"height":48,"rotation":0,"visible":true},{"id":488,"name":"","gid":198,"x":3078,"y":544,"width":32,"height":32,"rotation":0,"visible":true},{"id":489,"name":"","gid":1073742023,"x":1765,"y":893,"width":32,"height":32,"rotation":0,"visible":true},{"id":490,"name":"","gid":2147483821,"x":816,"y":349,"width":48,"height":48,"rotation":0,"visible":true},{"id":491,"name":"","gid":3221225642,"x":148,"y":456,"width":48,"height":48,"rotation":0,"visible":true},{"id":492,"name":"","gid":1073742010,"x":1470,"y":230,"width":48,"height":48,"rotation":0,"visible":true},{"id":493,"name":"","gid":2147483825,"x":2034,"y":390,"width":48,"height":48,"rotation":0,"visible":true},{"id":494,"name":"","gid":2147483825,"x":985,"y":1548,"width":48,"height":48,"rotation":0,"visible":true},{"id":495,"name":"","gid":185,"x":1688,"y":482,"width":48,"height":48,"rotation":0,"visible":true},{"id":496,"name":"","gid":3221225649,"x":469,"y":1997,"width":48,"height":48,"rotation":0,"visible":true},{"id":497,"name":"","gid":181,"x":1588,"y":689,"width":48,"height":48,"rotation":0,"visible":true},{"id":498,"name":"","gid":1073742001,"x":2171,"y":928,"width":48,"height":48,"rotation":0,"visible":true},{"id":499,"name":"","gid":2147483821,"x":1360,"y":1734,"width":48,"height":48,"rotation":0,"visible":true},{"id":500,"name":"","gid":1073742006,"x":1528,"y":456,"width":48,"height":48,"rotation":0,"visible":true},{"id":501,"name":"","gid":2147483811,"x":53,"y":753,"width":48,"height":48,"rotation":0,"visible":true},{"id":502,"name":"","gid":1073742001,"x":666,"y":1737,"width":48,"height":48,"rotation":0,"visible":true},{"id":503,"name":"","gid":158,"x":1373,"y":1922,"width":48,"height":48,"rotation":0,"visible":true},{"id":504,"name":"","gid":173,"x":431,"y":199,"width":48,"height":48,"rotation":0,"visible":true},{"id":505,"name":"","gid":2147483821,"x":1751,"y":590,"width":48,"height":48,"rotation":0,"visible":true},{"id":506,"name":"","gid":3221225646,"x":2003,"y":466,"width":48,"height":48,"rotation":0,"visible":true},{"id":507,"name":"","gid":1073741992,"x":-7,"y":1540,"width":48,"height":48,"rotation":0,"visible":true},{"id":508,"name":"","gid":1073742006,"x":2205,"y":167,"width":48,"height":48,"rotation":0,"visible":true},{"id":509,"name":"","gid":3221225643,"x":2840,"y":1793,"width":48,"height":48,"rotation":0,"visible":true},{"id":510,"name":"","gid":2147483818,"x":2448,"y":1763,"width":48,"height":48,"rotation":0,"visible":true},{"id":511,"name":"","gid":3221225632,"x":2298,"y":1896,"width":48,"height":48,"rotation":0,"visible":true},{"id":512,"name":"","gid":1073741986,"x":124,"y":1169,"width":48,"height":48,"rotation":0,"visible":true},{"id":513,"name":"","gid":3221225654,"x":2038,"y":160,"width":48,"height":48,"rotation":0,"visible":true},{"id":514,"name":"","gid":3221225632,"x":284,"y":2154,"width":48,"height":48,"rotation":0,"visible":true},{"id":515,"name":"","gid":1073741984,"x":156,"y":117,"width":48,"height":48,"rotation":0,"visible":true},{"id":516,"name":"","gid":3221225649,"x":731,"y":1475,"width":48,"height":48,"rotation":0,"visible":true},{"id":517,"name":"","gid":1073741994,"x":187,"y":479,"width":48,"height":48,"rotation":0,"visible":true},{"id":518,"name":"","gid":3221225649,"x":795,"y":168,"width":48,"height":48,"rotation":0,"visible":true},{"id":519,"name":"","gid":182,"x":1905,"y":324,"width":48,"height":48,"rotation":0,"visible":true},{"id":520,"name":"","gid":3221225636,"x":80,"y":29,"width":48,"height":48,"rotation":0,"visible":true},{"id":521,"name":"","gid":170,"x":2418,"y":1862,"width":48,"height":48,"rotation":0,"visible":true},{"id":522,"name":"","gid":2147483822,"x":1662,"y":719,"width":48,"height":48,"rotation":0,"visible":true},{"id":523,"name":"","gid":1073742005,"x":910,"y":1480,"width":48,"height":48,"rotation":0,"visible":true},{"id":524,"name":"","gid":3221225649,"x":1910,"y":482,"width":48,"height":48,"rotation":0,"visible":true},{"id":525,"name":"","gid":3221225654,"x":833,"y":1542,"width":48,"height":48,"rotation":0,"visible":true},{"id":526,"name":"","gid":177,"x":406,"y":1326,"width":48,"height":48,"rotation":0,"visible":true},{"id":527,"name":"","gid":2147483808,"x":765,"y":1766,"width":48,"height":48,"rotation":0,"visible":true},{"id":528,"name":"","gid":3221225649,"x":785,"y":1996,"width":48,"height":48,"rotation":0,"visible":true},{"id":529,"name":"","gid":181,"x":750,"y":1612,"width":48,"height":48,"rotation":0,"visible":true},{"id":530,"name":"","gid":1073742006,"x":2295,"y":1553,"width":48,"height":48,"rotation":0,"visible":true},{"id":531,"name":"","gid":164,"x":163,"y":939,"width":48,"height":48,"rotation":0,"visible":true},{"id":532,"name":"","gid":3221225649,"x":815,"y":328,"width":48,"height":48,"rotation":0,"visible":true},{"id":533,"name":"","gid":2147483822,"x":2261,"y":427,"width":48,"height":48,"rotation":0,"visible":true},{"id":534,"name":"","gid":160,"x":2227,"y":1894,"width":48,"height":48,"rotation":0,"visible":true},{"id":535,"name":"","gid":181,"x":896,"y":1633,"width":48,"height":48,"rotation":0,"visible":true},{"id":536,"name":"","gid":173,"x":405,"y":615,"width":48,"height":48,"rotation":0,"visible":true},{"id":537,"name":"","gid":197,"x":3104,"y":456,"width":32,"height":32,"rotation":0,"visible":true},{"id":538,"name":"","gid":158,"x":155,"y":357,"width":48,"height":48,"rotation":0,"visible":true},{"id":539,"name":"","gid":3221225657,"x":2421,"y":1285,"width":48,"height":48,"rotation":0,"visible":true},{"id":540,"name":"","gid":1073741994,"x":114,"y":1131,"width":48,"height":48,"rotation":0,"visible":true},{"id":541,"name":"","gid":1073741997,"x":1679,"y":527,"width":48,"height":48,"rotation":0,"visible":true},{"id":542,"name":"","gid":1073742005,"x":2168,"y":1637,"width":48,"height":48,"rotation":0,"visible":true},{"id":543,"name":"","gid":1073741982,"x":127,"y":37,"width":48,"height":48,"rotation":0,"visible":true},{"id":544,"name":"","gid":2147483808,"x":185,"y":1352,"width":48,"height":48,"rotation":0,"visible":true},{"id":545,"name":"","gid":3221225642,"x":161,"y":1416,"width":48,"height":48,"rotation":0,"visible":true},{"id":546,"name":"","gid":160,"x":1813,"y":1779,"width":48,"height":48,"rotation":0,"visible":true},{"id":547,"name":"","gid":3221225649,"x":256,"y":806,"width":48,"height":48,"rotation":0,"visible":true},{"id":548,"name":"","gid":3221225657,"x":1751,"y":526,"width":48,"height":48,"rotation":0,"visible":true},{"id":549,"name":"","gid":1073742021,"x":3035,"y":604,"width":32,"height":32,"rotation":0,"visible":true},{"id":550,"name":"","gid":3221225645,"x":2106,"y":195,"width":48,"height":48,"rotation":0,"visible":true},{"id":551,"name":"","gid":3221225649,"x":881,"y":168,"width":48,"height":48,"rotation":0,"visible":true},{"id":552,"name":"","gid":2147483834,"x":383,"y":298,"width":48,"height":48,"rotation":0,"visible":true},{"id":553,"name":"","gid":1073741987,"x":3026,"y":1706,"width":48,"height":48,"rotation":0,"visible":true},{"id":554,"name":"","gid":1073742009,"x":2050,"y":258,"width":48,"height":48,"rotation":0,"visible":true},{"id":555,"name":"","gid":2147483834,"x":978,"y":202,"width":48,"height":48,"rotation":0,"visible":true},{"id":556,"name":"","gid":3221225636,"x":3027,"y":1797,"width":48,"height":48,"rotation":0,"visible":true},{"id":557,"name":"","gid":1073741982,"x":217,"y":551,"width":48,"height":48,"rotation":0,"visible":true},{"id":558,"name":"","gid":3221225632,"x":2322,"y":1897,"width":48,"height":48,"rotation":0,"visible":true},{"id":559,"name":"","gid":2147483822,"x":2217,"y":422,"width":48,"height":48,"rotation":0,"visible":true},{"id":560,"name":"","gid":2147483830,"x":2170,"y":1003,"width":48,"height":48,"rotation":0,"visible":true},{"id":561,"name":"","gid":1073742009,"x":2035,"y":192,"width":48,"height":48,"rotation":0,"visible":true},{"id":562,"name":"","gid":3221225649,"x":524,"y":373,"width":48,"height":48,"rotation":0,"visible":true},{"id":563,"name":"","gid":1073742009,"x":2004,"y":228,"width":48,"height":48,"rotation":0,"visible":true},{"id":564,"name":"","gid":3221225643,"x":193,"y":809,"width":48,"height":48,"rotation":0,"visible":true},{"id":565,"name":"","gid":1073741997,"x":573,"y":393,"width":48,"height":48,"rotation":0,"visible":true},{"id":566,"name":"","gid":2147483819,"x":2204,"y":1927,"width":48,"height":48,"rotation":0,"visible":true},{"id":567,"name":"","gid":3221225649,"x":1978,"y":305,"width":48,"height":48,"rotation":0,"visible":true},{"id":568,"name":"","gid":185,"x":950,"y":1600,"width":48,"height":48,"rotation":0,"visible":true},{"id":569,"name":"","gid":1073741997,"x":1985,"y":196,"width":48,"height":48,"rotation":0,"visible":true},{"id":570,"name":"","gid":3221225646,"x":2335,"y":392,"width":48,"height":48,"rotation":0,"visible":true},{"id":571,"name":"","gid":3221225640,"x":146,"y":843,"width":48,"height":48,"rotation":0,"visible":true},{"id":572,"name":"","gid":1073742001,"x":1662,"y":646,"width":48,"height":48,"rotation":0,"visible":true},{"id":573,"name":"","gid":2147483811,"x":1374,"y":1896,"width":48,"height":48,"rotation":0,"visible":true},{"id":574,"name":"","gid":173,"x":1300,"y":389,"width":48,"height":48,"rotation":0,"visible":true},{"id":575,"name":"","gid":3221225645,"x":2167,"y":353,"width":48,"height":48,"rotation":0,"visible":true},{"id":576,"name":"","gid":1073741982,"x":1658,"y":2048,"width":48,"height":48,"rotation":0,"visible":true},{"id":577,"name":"","gid":2147483816,"x":24,"y":965,"width":48,"height":48,"rotation":0,"visible":true},{"id":578,"name":"","gid":1073742001,"x":1970,"y":359,"width":48,"height":48,"rotation":0,"visible":true},{"id":579,"name":"","gid":186,"x":847,"y":1584,"width":48,"height":48,"rotation":0,"visible":true},{"id":580,"name":"","gid":2147483821,"x":337,"y":1419,"width":48,"height":48,"rotation":0,"visible":true},{"id":581,"name":"","gid":1073742031,"x":2659,"y":168,"width":32,"height":32,"rotation":0,"visible":true},{"id":582,"name":"","gid":1073741986,"x":142,"y":50,"width":48,"height":48,"rotation":0,"visible":true},{"id":583,"name":"","gid":2147483833,"x":754,"y":1550,"width":48,"height":48,"rotation":0,"visible":true},{"id":584,"name":"","gid":177,"x":2208,"y":422,"width":48,"height":48,"rotation":0,"visible":true},{"id":585,"name":"","gid":1073741997,"x":1125,"y":231,"width":48,"height":48,"rotation":0,"visible":true},{"id":586,"name":"","gid":173,"x":1854,"y":241,"width":48,"height":48,"rotation":0,"visible":true},{"id":587,"name":"","gid":1073742001,"x":1718,"y":447,"width":48,"height":48,"rotation":0,"visible":true},{"id":588,"name":"","gid":3221225632,"x":56,"y":875,"width":48,"height":48,"rotation":0,"visible":true},{"id":589,"name":"","gid":1073741992,"x":2519,"y":1933,"width":48,"height":48,"rotation":0,"visible":true},{"id":590,"name":"","gid":1073741995,"x":122,"y":903,"width":48,"height":48,"rotation":0,"visible":true},{"id":591,"name":"","gid":1073741995,"x":3132,"y":1837,"width":48,"height":48,"rotation":0,"visible":true},{"id":592,"name":"","gid":1073741994,"x":278,"y":2120,"width":48,"height":48,"rotation":0,"visible":true},{"id":593,"name":"","gid":3221225645,"x":2040,"y":291,"width":48,"height":48,"rotation":0,"visible":true},{"id":594,"name":"","gid":1073742005,"x":1497,"y":612,"width":48,"height":48,"rotation":0,"visible":true},{"id":595,"name":"","gid":160,"x":3126,"y":1795,"width":48,"height":48,"rotation":0,"visible":true},{"id":596,"name":"","gid":181,"x":1841,"y":131,"width":48,"height":48,"rotation":0,"visible":true},{"id":597,"name":"","gid":3221225649,"x":2483,"y":1290,"width":48,"height":48,"rotation":0,"visible":true},{"id":598,"name":"","gid":1073741997,"x":917,"y":396,"width":48,"height":48,"rotation":0,"visible":true},{"id":599,"name":"","gid":177,"x":2202,"y":460,"width":48,"height":48,"rotation":0,"visible":true},{"id":600,"name":"","gid":3221225658,"x":1880,"y":1640,"width":48,"height":48,"rotation":0,"visible":true},{"id":601,"name":"","gid":1073742021,"x":3007,"y":440,"width":32,"height":32,"rotation":0,"visible":true},{"id":602,"name":"","gid":2147483834,"x":660,"y":1653,"width":48,"height":48,"rotation":0,"visible":true},{"id":603,"name":"","gid":3221225646,"x":1690,"y":690,"width":48,"height":48,"rotation":0,"visible":true},{"id":604,"name":"","gid":1073741994,"x":787,"y":1870,"width":48,"height":48,"rotation":0,"visible":true},{"id":605,"name":"","gid":1073741984,"x":1678,"y":1674,"width":48,"height":48,"rotation":0,"visible":true},{"id":606,"name":"","gid":1073742005,"x":2001,"y":198,"width":48,"height":48,"rotation":0,"visible":true},{"id":607,"name":"","gid":186,"x":1856,"y":348,"width":48,"height":48,"rotation":0,"visible":true},{"id":608,"name":"","gid":2147483825,"x":1016,"y":1480,"width":48,"height":48,"rotation":0,"visible":true},{"id":609,"name":"","gid":1073742010,"x":483,"y":206,"width":48,"height":48,"rotation":0,"visible":true},{"id":610,"name":"","gid":177,"x":341,"y":1445,"width":48,"height":48,"rotation":0,"visible":true},{"id":611,"name":"","gid":2147483833,"x":2423,"y":1453,"width":48,"height":48,"rotation":0,"visible":true},{"id":612,"name":"","gid":173,"x":1595,"y":591,"width":48,"height":48,"rotation":0,"visible":true},{"id":613,"name":"","gid":173,"x":2232,"y":521,"width":48,"height":48,"rotation":0,"visible":true},{"id":614,"name":"","gid":1073741988,"x":1149,"y":1926,"width":48,"height":48,"rotation":0,"visible":true},{"id":615,"name":"","gid":160,"x":-1,"y":1599,"width":48,"height":48,"rotation":0,"visible":true},{"id":616,"name":"","gid":2147483818,"x":1974,"y":1710,"width":48,"height":48,"rotation":0,"visible":true},{"id":617,"name":"","gid":3221225654,"x":1311,"y":529,"width":48,"height":48,"rotation":0,"visible":true},{"id":618,"name":"","gid":3221225630,"x":698,"y":1859,"width":48,"height":48,"rotation":0,"visible":true},{"id":619,"name":"","gid":177,"x":2482,"y":1120,"width":48,"height":48,"rotation":0,"visible":true},{"id":620,"name":"","gid":2147483806,"x":858,"y":1702,"width":48,"height":48,"rotation":0,"visible":true},{"id":621,"name":"","gid":2147483833,"x":2143,"y":1476,"width":48,"height":48,"rotation":0,"visible":true},{"id":622,"name":"","gid":3221225640,"x":1278,"y":1938,"width":48,"height":48,"rotation":0,"visible":true},{"id":623,"name":"","gid":1073742006,"x":386,"y":1296,"width":48,"height":48,"rotation":0,"visible":true},{"id":624,"name":"","gid":3221225633,"x":126,"y":991,"width":48,"height":48,"rotation":0,"visible":true},{"id":625,"name":"","gid":2147483825,"x":1856,"y":169,"width":48,"height":48,"rotation":0,"visible":true},{"id":626,"name":"","gid":2147483829,"x":2170,"y":401,"width":48,"height":48,"rotation":0,"visible":true},{"id":627,"name":"","gid":1073742001,"x":910,"y":209,"width":48,"height":48,"rotation":0,"visible":true},{"id":628,"name":"","gid":2147483816,"x":150,"y":1122,"width":48,"height":48,"rotation":0,"visible":true},{"id":629,"name":"","gid":186,"x":797,"y":1632,"width":48,"height":48,"rotation":0,"visible":true},{"id":630,"name":"","gid":199,"x":3104,"y":479,"width":32,"height":32,"rotation":0,"visible":true},{"id":631,"name":"","gid":1073742009,"x":1618,"y":588,"width":48,"height":48,"rotation":0,"visible":true},{"id":632,"name":"","gid":3221225646,"x":2446,"y":1199,"width":48,"height":48,"rotation":0,"visible":true},{"id":633,"name":"","gid":1073741997,"x":1559,"y":461,"width":48,"height":48,"rotation":0,"visible":true},{"id":634,"name":"","gid":1073742009,"x":470,"y":1738,"width":48,"height":48,"rotation":0,"visible":true},{"id":635,"name":"","gid":2147483830,"x":1471,"y":202,"width":48,"height":48,"rotation":0,"visible":true},{"id":636,"name":"","gid":162,"x":3068,"y":1802,"width":48,"height":48,"rotation":0,"visible":true},{"id":637,"name":"","gid":158,"x":291,"y":105,"width":48,"height":48,"rotation":0,"visible":true},{"id":638,"name":"","gid":2147483829,"x":1009,"y":1740,"width":48,"height":48,"rotation":0,"visible":true},{"id":639,"name":"","gid":1073742006,"x":1661,"y":682,"width":48,"height":48,"rotation":0,"visible":true},{"id":640,"name":"","gid":2147483818,"x":2426,"y":1917,"width":48,"height":48,"rotation":0,"visible":true},{"id":641,"name":"","gid":182,"x":2268,"y":459,"width":48,"height":48,"rotation":0,"visible":true},{"id":642,"name":"","gid":1073741995,"x":2515,"y":1903,"width":48,"height":48,"rotation":0,"visible":true},{"id":643,"name":"","gid":1073741985,"x":3001,"y":1828,"width":48,"height":48,"rotation":0,"visible":true},{"id":644,"name":"","gid":1073742028,"x":3030,"y":475,"width":32,"height":32,"rotation":0,"visible":true},{"id":645,"name":"","gid":2147483829,"x":2614,"y":1742,"width":48,"height":48,"rotation":0,"visible":true},{"id":646,"name":"","gid":2147483819,"x":176,"y":114,"width":48,"height":48,"rotation":0,"visible":true},{"id":647,"name":"","gid":181,"x":2295,"y":400,"width":48,"height":48,"rotation":0,"visible":true},{"id":648,"name":"","gid":3221225677,"x":2907,"y":479,"width":32,"height":32,"rotation":0,"visible":true},{"id":649,"name":"","gid":3221225644,"x":752,"y":1856,"width":48,"height":48,"rotation":0,"visible":true},{"id":650,"name":"","gid":181,"x":1147,"y":1611,"width":48,"height":48,"rotation":0,"visible":true},{"id":651,"name":"","gid":174,"x":348,"y":1385,"width":48,"height":48,"rotation":0,"visible":true},{"id":652,"name":"","gid":1073741997,"x":483,"y":260,"width":48,"height":48,"rotation":0,"visible":true},{"id":653,"name":"","gid":1073742006,"x":830,"y":1597,"width":48,"height":48,"rotation":0,"visible":true},{"id":654,"name":"","gid":3221225653,"x":1552,"y":527,"width":48,"height":48,"rotation":0,"visible":true},{"id":655,"name":"","gid":2147483855,"x":2753,"y":563,"width":32,"height":32,"rotation":0,"visible":true},{"id":656,"name":"","gid":3221225658,"x":2258,"y":320,"width":48,"height":48,"rotation":0,"visible":true},{"id":657,"name":"","gid":2147483811,"x":198,"y":444,"width":48,"height":48,"rotation":0,"visible":true},{"id":658,"name":"","gid":2147483811,"x":1339,"y":1892,"width":48,"height":48,"rotation":0,"visible":true},{"id":659,"name":"","gid":2147483846,"x":2989,"y":541,"width":32,"height":32,"rotation":0,"visible":true},{"id":660,"name":"","gid":2147483825,"x":1789,"y":394,"width":48,"height":48,"rotation":0,"visible":true},{"id":661,"name":"","gid":186,"x":957,"y":428,"width":48,"height":48,"rotation":0,"visible":true},{"id":662,"name":"","gid":3221225646,"x":1906,"y":128,"width":48,"height":48,"rotation":0,"visible":true},{"id":663,"name":"","gid":1073742031,"x":3073,"y":475,"width":32,"height":32,"rotation":0,"visible":true},{"id":664,"name":"","gid":174,"x":697,"y":1609,"width":48,"height":48,"rotation":0,"visible":true},{"id":665,"name":"","gid":3221225635,"x":829,"y":1923,"width":48,"height":48,"rotation":0,"visible":true},{"id":666,"name":"","gid":1073741994,"x":111,"y":1097,"width":48,"height":48,"rotation":0,"visible":true},{"id":667,"name":"","gid":2147483830,"x":1112,"y":206,"width":48,"height":48,"rotation":0,"visible":true},{"id":668,"name":"","gid":2147483810,"x":62,"y":1033,"width":48,"height":48,"rotation":0,"visible":true},{"id":669,"name":"","gid":177,"x":889,"y":1478,"width":48,"height":48,"rotation":0,"visible":true},{"id":670,"name":"","gid":3221225657,"x":1625,"y":647,"width":48,"height":48,"rotation":0,"visible":true},{"id":671,"name":"","gid":3221225654,"x":2069,"y":458,"width":48,"height":48,"rotation":0,"visible":true},{"id":672,"name":"","gid":1073742010,"x":242,"y":839,"width":48,"height":48,"rotation":0,"visible":true},{"id":673,"name":"","gid":182,"x":2093,"y":394,"width":48,"height":48,"rotation":0,"visible":true},{"id":674,"name":"","gid":3221225669,"x":2946,"y":609,"width":32,"height":32,"rotation":0,"visible":true},{"id":675,"name":"","gid":1073742029,"x":2967,"y":646,"width":32,"height":32,"rotation":0,"visible":true},{"id":676,"name":"","gid":3221225657,"x":1686,"y":656,"width":48,"height":48,"rotation":0,"visible":true},{"id":677,"name":"","gid":1073741996,"x":2487,"y":1921,"width":48,"height":48,"rotation":0,"visible":true},{"id":678,"name":"","gid":177,"x":2298,"y":516,"width":48,"height":48,"rotation":0,"visible":true},{"id":679,"name":"","gid":1073742005,"x":1020,"y":1460,"width":48,"height":48,"rotation":0,"visible":true},{"id":680,"name":"","gid":1073742009,"x":1756,"y":566,"width":48,"height":48,"rotation":0,"visible":true},{"id":681,"name":"","gid":198,"x":3115,"y":546,"width":32,"height":32,"rotation":0,"visible":true},{"id":682,"name":"","gid":2147483829,"x":963,"y":1637,"width":48,"height":48,"rotation":0,"visible":true},{"id":683,"name":"","gid":3221225640,"x":277,"y":1992,"width":48,"height":48,"rotation":0,"visible":true},{"id":684,"name":"","gid":2147483822,"x":797,"y":295,"width":48,"height":48,"rotation":0,"visible":true},{"id":685,"name":"","gid":1073742001,"x":2133,"y":142,"width":48,"height":48,"rotation":0,"visible":true},{"id":686,"name":"","gid":163,"x":313,"y":108,"width":48,"height":48,"rotation":0,"visible":true},{"id":687,"name":"","gid":205,"x":2975,"y":412,"width":32,"height":32,"rotation":0,"visible":true},{"id":688,"name":"","gid":3221225640,"x":-9,"y":1919,"width":48,"height":48,"rotation":0,"visible":true},{"id":689,"name":"","gid":2147483825,"x":2497,"y":1260,"width":48,"height":48,"rotation":0,"visible":true},{"id":690,"name":"","gid":3221225653,"x":893,"y":1543,"width":48,"height":48,"rotation":0,"visible":true},{"id":691,"name":"","gid":2147483819,"x":2494,"y":1876,"width":48,"height":48,"rotation":0,"visible":true},{"id":692,"name":"","gid":2147483816,"x":2447,"y":1704,"width":48,"height":48,"rotation":0,"visible":true},{"id":693,"name":"","gid":1073742006,"x":574,"y":366,"width":48,"height":48,"rotation":0,"visible":true},{"id":694,"name":"","gid":1073742009,"x":955,"y":201,"width":48,"height":48,"rotation":0,"visible":true},{"id":695,"name":"","gid":185,"x":1838,"y":264,"width":48,"height":48,"rotation":0,"visible":true},{"id":696,"name":"","gid":197,"x":2696,"y":574,"width":32,"height":32,"rotation":0,"visible":true},{"id":697,"name":"","gid":177,"x":2294,"y":1615,"width":48,"height":48,"rotation":0,"visible":true},{"id":698,"name":"","gid":1073742009,"x":2199,"y":484,"width":48,"height":48,"rotation":0,"visible":true},{"id":699,"name":"","gid":170,"x":-9,"y":933,"width":48,"height":48,"rotation":0,"visible":true},{"id":700,"name":"","gid":181,"x":572,"y":451,"width":48,"height":48,"rotation":0,"visible":true},{"id":701,"name":"","gid":1073741998,"x":2172,"y":497,"width":48,"height":48,"rotation":0,"visible":true},{"id":702,"name":"","gid":173,"x":2148,"y":485,"width":48,"height":48,"rotation":0,"visible":true},{"id":703,"name":"","gid":3221225646,"x":2294,"y":428,"width":48,"height":48,"rotation":0,"visible":true},{"id":704,"name":"","gid":1073742021,"x":2715,"y":544,"width":32,"height":32,"rotation":0,"visible":true},{"id":705,"name":"","gid":3221225654,"x":1186,"y":1578,"width":48,"height":48,"rotation":0,"visible":true},{"id":706,"name":"","gid":2147483818,"x":2389,"y":1828,"width":48,"height":48,"rotation":0,"visible":true},{"id":707,"name":"","gid":3221225657,"x":1597,"y":454,"width":48,"height":48,"rotation":0,"visible":true},{"id":708,"name":"","gid":3221225658,"x":2432,"y":1132,"width":48,"height":48,"rotation":0,"visible":true},{"id":709,"name":"","gid":1073741987,"x":309,"y":752,"width":48,"height":48,"rotation":0,"visible":true},{"id":710,"name":"","gid":2147483825,"x":243,"y":783,"width":48,"height":48,"rotation":0,"visible":true},{"id":711,"name":"","gid":1073741995,"x":3067,"y":1833,"width":48,"height":48,"rotation":0,"visible":true},{"id":712,"name":"","gid":173,"x":828,"y":138,"width":48,"height":48,"rotation":0,"visible":true},{"id":713,"name":"","gid":2147483833,"x":420,"y":1417,"width":48,"height":48,"rotation":0,"visible":true},{"id":714,"name":"","gid":2147483830,"x":953,"y":224,"width":48,"height":48,"rotation":0,"visible":true},{"id":715,"name":"","gid":3221225642,"x":119,"y":66,"width":48,"height":48,"rotation":0,"visible":true},{"id":716,"name":"","gid":1073741982,"x":151,"y":960,"width":48,"height":48,"rotation":0,"visible":true},{"id":717,"name":"","gid":2147483825,"x":372,"y":144,"width":48,"height":48,"rotation":0,"visible":true},{"id":718,"name":"","gid":1073742001,"x":1588,"y":426,"width":48,"height":48,"rotation":0,"visible":true},{"id":719,"name":"","gid":185,"x":2446,"y":1313,"width":48,"height":48,"rotation":0,"visible":true},{"id":720,"name":"","gid":3221225657,"x":1138,"y":1572,"width":48,"height":48,"rotation":0,"visible":true},{"id":721,"name":"","gid":173,"x":848,"y":138,"width":48,"height":48,"rotation":0,"visible":true},{"id":722,"name":"","gid":2147483833,"x":1116,"y":1614,"width":48,"height":48,"rotation":0,"visible":true},{"id":723,"name":"","gid":2147483834,"x":2170,"y":417,"width":48,"height":48,"rotation":0,"visible":true},{"id":724,"name":"","gid":181,"x":819,"y":1737,"width":48,"height":48,"rotation":0,"visible":true},{"id":725,"name":"","gid":2147483816,"x":181,"y":427,"width":48,"height":48,"rotation":0,"visible":true},{"id":726,"name":"","gid":2147483833,"x":2351,"y":457,"width":48,"height":48,"rotation":0,"visible":true},{"id":727,"name":"","gid":1073742005,"x":340,"y":1331,"width":48,"height":48,"rotation":0,"visible":true},{"id":728,"name":"","gid":177,"x":655,"y":325,"width":48,"height":48,"rotation":0,"visible":true},{"id":729,"name":"","gid":1073742001,"x":2137,"y":938,"width":48,"height":48,"rotation":0,"visible":true},{"id":730,"name":"","gid":1073742001,"x":377,"y":1998,"width":48,"height":48,"rotation":0,"visible":true},{"id":731,"name":"","gid":1073741982,"x":919,"y":1772,"width":48,"height":48,"rotation":0,"visible":true},{"id":732,"name":"","gid":3221225634,"x":856,"y":1923,"width":48,"height":48,"rotation":0,"visible":true},{"id":733,"name":"","gid":1073742010,"x":2428,"y":1385,"width":48,"height":48,"rotation":0,"visible":true},{"id":734,"name":"","gid":1073741986,"x":2871,"y":1794,"width":48,"height":48,"rotation":0,"visible":true},{"id":735,"name":"","gid":3221225643,"x":1392,"y":1930,"width":48,"height":48,"rotation":0,"visible":true},{"id":736,"name":"","gid":205,"x":2763,"y":518,"width":32,"height":32,"rotation":0,"visible":true},{"id":737,"name":"","gid":2147483822,"x":949,"y":1518,"width":48,"height":48,"rotation":0,"visible":true},{"id":738,"name":"","gid":173,"x":723,"y":360,"width":48,"height":48,"rotation":0,"visible":true},{"id":739,"name":"","gid":1073742010,"x":1661,"y":428,"width":48,"height":48,"rotation":0,"visible":true},{"id":740,"name":"","gid":3221225654,"x":690,"y":1732,"width":48,"height":48,"rotation":0,"visible":true},{"id":741,"name":"","gid":2147483833,"x":1988,"y":273,"width":48,"height":48,"rotation":0,"visible":true},{"id":742,"name":"","gid":171,"x":100,"y":810,"width":48,"height":48,"rotation":0,"visible":true},{"id":743,"name":"","gid":1073742023,"x":3075,"y":451,"width":32,"height":32,"rotation":0,"visible":true},{"id":744,"name":"","gid":1073741994,"x":24,"y":1004,"width":48,"height":48,"rotation":0,"visible":true},{"id":745,"name":"","gid":2147483812,"x":3099,"y":1804,"width":48,"height":48,"rotation":0,"visible":true},{"id":746,"name":"","gid":1073742010,"x":538,"y":388,"width":48,"height":48,"rotation":0,"visible":true},{"id":747,"name":"","gid":174,"x":1951,"y":390,"width":48,"height":48,"rotation":0,"visible":true},{"id":748,"name":"","gid":3221225640,"x":59,"y":1929,"width":48,"height":48,"rotation":0,"visible":true},{"id":749,"name":"","gid":174,"x":524,"y":426,"width":48,"height":48,"rotation":0,"visible":true},{"id":750,"name":"","gid":182,"x":753,"y":337,"width":48,"height":48,"rotation":0,"visible":true},{"id":751,"name":"","gid":2147483819,"x":147,"y":1379,"width":48,"height":48,"rotation":0,"visible":true},{"id":752,"name":"","gid":1073742001,"x":730,"y":325,"width":48,"height":48,"rotation":0,"visible":true},{"id":753,"name":"","gid":1073742001,"x":624,"y":1990,"width":48,"height":48,"rotation":0,"visible":true},{"id":754,"name":"","gid":3221225649,"x":856,"y":1729,"width":48,"height":48,"rotation":0,"visible":true},{"id":755,"name":"","gid":2147483822,"x":2493,"y":1193,"width":48,"height":48,"rotation":0,"visible":true},{"id":756,"name":"","gid":185,"x":758,"y":304,"width":48,"height":48,"rotation":0,"visible":true},{"id":757,"name":"","gid":174,"x":888,"y":1509,"width":48,"height":48,"rotation":0,"visible":true},{"id":758,"name":"","gid":3221225654,"x":1751,"y":458,"width":48,"height":48,"rotation":0,"visible":true},{"id":759,"name":"","gid":2147483834,"x":1752,"y":423,"width":48,"height":48,"rotation":0,"visible":true},{"id":760,"name":"","gid":1073741997,"x":1689,"y":1739,"width":48,"height":48,"rotation":0,"visible":true},{"id":761,"name":"","gid":1073742009,"x":1014,"y":263,"width":48,"height":48,"rotation":0,"visible":true},{"id":762,"name":"","gid":3221225658,"x":1907,"y":231,"width":48,"height":48,"rotation":0,"visible":true},{"id":763,"name":"","gid":177,"x":2272,"y":393,"width":48,"height":48,"rotation":0,"visible":true},{"id":764,"name":"","gid":163,"x":1773,"y":2028,"width":48,"height":48,"rotation":0,"visible":true},{"id":765,"name":"","gid":185,"x":887,"y":200,"width":48,"height":48,"rotation":0,"visible":true},{"id":766,"name":"","gid":2147483830,"x":1678,"y":427,"width":48,"height":48,"rotation":0,"visible":true},{"id":767,"name":"","gid":1073741984,"x":115,"y":1319,"width":48,"height":48,"rotation":0,"visible":true},{"id":768,"name":"","gid":186,"x":2206,"y":1576,"width":48,"height":48,"rotation":0,"visible":true},{"id":769,"name":"","gid":170,"x":1,"y":1763,"width":48,"height":48,"rotation":0,"visible":true},{"id":770,"name":"","gid":2147483806,"x":88,"y":900,"width":48,"height":48,"rotation":0,"visible":true},{"id":771,"name":"","gid":3221225649,"x":919,"y":1538,"width":48,"height":48,"rotation":0,"visible":true},{"id":772,"name":"","gid":2147483830,"x":2044,"y":228,"width":48,"height":48,"rotation":0,"visible":true},{"id":773,"name":"","gid":1073742010,"x":670,"y":398,"width":48,"height":48,"rotation":0,"visible":true},{"id":774,"name":"","gid":163,"x":567,"y":2037,"width":48,"height":48,"rotation":0,"visible":true},{"id":775,"name":"","gid":1073741994,"x":152,"y":1225,"width":48,"height":48,"rotation":0,"visible":true},{"id":776,"name":"","gid":3221225636,"x":3095,"y":1829,"width":48,"height":48,"rotation":0,"visible":true},{"id":777,"name":"","gid":1073742001,"x":2035,"y":1738,"width":48,"height":48,"rotation":0,"visible":true},{"id":778,"name":"","gid":2147483820,"x":127,"y":796,"width":48,"height":48,"rotation":0,"visible":true},{"id":779,"name":"","gid":1073741998,"x":1654,"y":480,"width":48,"height":48,"rotation":0,"visible":true},{"id":780,"name":"","gid":2147483810,"x":1206,"y":1894,"width":48,"height":48,"rotation":0,"visible":true},{"id":781,"name":"","gid":3221225634,"x":1273,"y":1894,"width":48,"height":48,"rotation":0,"visible":true},{"id":782,"name":"","gid":1073742010,"x":2003,"y":265,"width":48,"height":48,"rotation":0,"visible":true},{"id":783,"name":"","gid":1073741984,"x":53,"y":840,"width":48,"height":48,"rotation":0,"visible":true},{"id":784,"name":"","gid":177,"x":2135,"y":234,"width":48,"height":48,"rotation":0,"visible":true},{"id":785,"name":"","gid":1073741987,"x":3087,"y":1768,"width":48,"height":48,"rotation":0,"visible":true},{"id":786,"name":"","gid":174,"x":1689,"y":615,"width":48,"height":48,"rotation":0,"visible":true},{"id":787,"name":"","gid":2147483806,"x":-9,"y":1966,"width":48,"height":48,"rotation":0,"visible":true},{"id":788,"name":"","gid":1073742010,"x":2490,"y":1745,"width":48,"height":48,"rotation":0,"visible":true},{"id":789,"name":"","gid":158,"x":112,"y":1032,"width":48,"height":48,"rotation":0,"visible":true},{"id":790,"name":"","gid":2147483829,"x":2450,"y":1414,"width":48,"height":48,"rotation":0,"visible":true},{"id":791,"name":"","gid":186,"x":2096,"y":1733,"width":48,"height":48,"rotation":0,"visible":true},{"id":792,"name":"","gid":170,"x":130,"y":870,"width":48,"height":48,"rotation":0,"visible":true},{"id":793,"name":"","gid":186,"x":2163,"y":145,"width":48,"height":48,"rotation":0,"visible":true},{"id":794,"name":"","gid":177,"x":381,"y":1350,"width":48,"height":48,"rotation":0,"visible":true},{"id":795,"name":"","gid":2147483825,"x":1716,"y":1739,"width":48,"height":48,"rotation":0,"visible":true},{"id":796,"name":"","gid":1073741984,"x":56,"y":970,"width":48,"height":48,"rotation":0,"visible":true},{"id":797,"name":"","gid":160,"x":1243,"y":1894,"width":48,"height":48,"rotation":0,"visible":true},{"id":798,"name":"","gid":3221225635,"x":148,"y":777,"width":48,"height":48,"rotation":0,"visible":true},{"id":799,"name":"","gid":177,"x":818,"y":1471,"width":48,"height":48,"rotation":0,"visible":true},{"id":800,"name":"","gid":173,"x":1019,"y":203,"width":48,"height":48,"rotation":0,"visible":true},{"id":801,"name":"","gid":3221225645,"x":2132,"y":1578,"width":48,"height":48,"rotation":0,"visible":true},{"id":802,"name":"","gid":182,"x":2342,"y":1577,"width":48,"height":48,"rotation":0,"visible":true},{"id":803,"name":"","gid":177,"x":2350,"y":423,"width":48,"height":48,"rotation":0,"visible":true},{"id":804,"name":"","gid":3221225630,"x":246,"y":2053,"width":48,"height":48,"rotation":0,"visible":true},{"id":805,"name":"","gid":1073741997,"x":631,"y":395,"width":48,"height":48,"rotation":0,"visible":true},{"id":806,"name":"","gid":173,"x":1565,"y":640,"width":48,"height":48,"rotation":0,"visible":true},{"id":807,"name":"","gid":3221225636,"x":157,"y":748,"width":48,"height":48,"rotation":0,"visible":true},{"id":808,"name":"","gid":1073742001,"x":2325,"y":519,"width":48,"height":48,"rotation":0,"visible":true},{"id":809,"name":"","gid":3221225640,"x":1921,"y":1768,"width":48,"height":48,"rotation":0,"visible":true},{"id":810,"name":"","gid":3221225632,"x":2513,"y":1794,"width":48,"height":48,"rotation":0,"visible":true},{"id":811,"name":"","gid":2147483822,"x":950,"y":1741,"width":48,"height":48,"rotation":0,"visible":true},{"id":812,"name":"","gid":1073741984,"x":3122,"y":1775,"width":48,"height":48,"rotation":0,"visible":true},{"id":813,"name":"","gid":2147483834,"x":1848,"y":1643,"width":48,"height":48,"rotation":0,"visible":true},{"id":814,"name":"","gid":158,"x":59,"y":809,"width":48,"height":48,"rotation":0,"visible":true},{"id":815,"name":"","gid":3221225646,"x":1784,"y":448,"width":48,"height":48,"rotation":0,"visible":true},{"id":816,"name":"","gid":2147483821,"x":1942,"y":368,"width":48,"height":48,"rotation":0,"visible":true},{"id":817,"name":"","gid":2147483816,"x":87,"y":1067,"width":48,"height":48,"rotation":0,"visible":true},{"id":818,"name":"","gid":2147483821,"x":1933,"y":197,"width":48,"height":48,"rotation":0,"visible":true},{"id":819,"name":"","gid":2147483829,"x":725,"y":1984,"width":48,"height":48,"rotation":0,"visible":true},{"id":820,"name":"","gid":161,"x":195,"y":843,"width":48,"height":48,"rotation":0,"visible":true},{"id":821,"name":"","gid":3221225646,"x":2026,"y":483,"width":48,"height":48,"rotation":0,"visible":true},{"id":822,"name":"","gid":161,"x":176,"y":771,"width":48,"height":48,"rotation":0,"visible":true},{"id":823,"name":"","gid":181,"x":443,"y":1399,"width":48,"height":48,"rotation":0,"visible":true},{"id":824,"name":"","gid":2147483830,"x":1617,"y":430,"width":48,"height":48,"rotation":0,"visible":true},{"id":825,"name":"","gid":1073741998,"x":690,"y":2002,"width":48,"height":48,"rotation":0,"visible":true},{"id":826,"name":"","gid":3221225632,"x":219,"y":2048,"width":48,"height":48,"rotation":0,"visible":true},{"id":827,"name":"","gid":2147483834,"x":348,"y":1992,"width":48,"height":48,"rotation":0,"visible":true},{"id":828,"name":"","gid":2147483821,"x":2201,"y":1616,"width":48,"height":48,"rotation":0,"visible":true},{"id":829,"name":"","gid":3221225634,"x":156,"y":1095,"width":48,"height":48,"rotation":0,"visible":true},{"id":830,"name":"","gid":1073742001,"x":2465,"y":1389,"width":48,"height":48,"rotation":0,"visible":true},{"id":831,"name":"","gid":1073742009,"x":1624,"y":620,"width":48,"height":48,"rotation":0,"visible":true},{"id":832,"name":"","gid":168,"x":1815,"y":1705,"width":48,"height":48,"rotation":0,"visible":true},{"id":833,"name":"","gid":2147483829,"x":833,"y":176,"width":48,"height":48,"rotation":0,"visible":true},{"id":834,"name":"","gid":1073742006,"x":1601,"y":548,"width":48,"height":48,"rotation":0,"visible":true},{"id":835,"name":"","gid":3221225645,"x":1843,"y":394,"width":48,"height":48,"rotation":0,"visible":true},{"id":836,"name":"","gid":1073741998,"x":403,"y":168,"width":48,"height":48,"rotation":0,"visible":true},{"id":837,"name":"","gid":3221225649,"x":441,"y":1409,"width":48,"height":48,"rotation":0,"visible":true},{"id":838,"name":"","gid":3221225635,"x":148,"y":881,"width":48,"height":48,"rotation":0,"visible":true},{"id":839,"name":"","gid":2147483820,"x":80,"y":1035,"width":48,"height":48,"rotation":0,"visible":true},{"id":840,"name":"","gid":1073741994,"x":1843,"y":1678,"width":48,"height":48,"rotation":0,"visible":true},{"id":841,"name":"","gid":181,"x":1570,"y":206,"width":48,"height":48,"rotation":0,"visible":true},{"id":842,"name":"","gid":3221225653,"x":384,"y":268,"width":48,"height":48,"rotation":0,"visible":true},{"id":843,"name":"","gid":3221225658,"x":416,"y":1990,"width":48,"height":48,"rotation":0,"visible":true},{"id":844,"name":"","gid":2147483825,"x":1946,"y":268,"width":48,"height":48,"rotation":0,"visible":true},{"id":845,"name":"","gid":3221225657,"x":1882,"y":1507,"width":48,"height":48,"rotation":0,"visible":true},{"id":846,"name":"","gid":2147483818,"x":1626,"y":1676,"width":48,"height":48,"rotation":0,"visible":true},{"id":847,"name":"","gid":185,"x":1839,"y":1547,"width":48,"height":48,"rotation":0,"visible":true},{"id":848,"name":"","gid":2147483822,"x":1595,"y":645,"width":48,"height":48,"rotation":0,"visible":true},{"id":849,"name":"","gid":1073742009,"x":2201,"y":302,"width":48,"height":48,"rotation":0,"visible":true},{"id":850,"name":"","gid":1073742005,"x":2293,"y":1575,"width":48,"height":48,"rotation":0,"visible":true},{"id":851,"name":"","gid":1073741984,"x":725,"y":1866,"width":48,"height":48,"rotation":0,"visible":true},{"id":852,"name":"","gid":2147483834,"x":895,"y":395,"width":48,"height":48,"rotation":0,"visible":true},{"id":853,"name":"","gid":182,"x":1070,"y":199,"width":48,"height":48,"rotation":0,"visible":true},{"id":854,"name":"","gid":3221225658,"x":762,"y":364,"width":48,"height":48,"rotation":0,"visible":true},{"id":855,"name":"","gid":3221225646,"x":1620,"y":705,"width":48,"height":48,"rotation":0,"visible":true},{"id":856,"name":"","gid":1073741992,"x":1589,"y":2063,"width":48,"height":48,"rotation":0,"visible":true},{"id":857,"name":"","gid":3221225635,"x":-1,"y":1575,"width":48,"height":48,"rotation":0,"visible":true},{"id":858,"name":"","gid":3221225640,"x":185,"y":863,"width":48,"height":48,"rotation":0,"visible":true},{"id":859,"name":"","gid":2147483829,"x":1875,"y":1614,"width":48,"height":48,"rotation":0,"visible":true},{"id":860,"name":"","gid":2147483811,"x":1785,"y":1704,"width":48,"height":48,"rotation":0,"visible":true},{"id":861,"name":"","gid":3221225635,"x":187,"y":1260,"width":48,"height":48,"rotation":0,"visible":true},{"id":862,"name":"","gid":2147483821,"x":1855,"y":1609,"width":48,"height":48,"rotation":0,"visible":true},{"id":863,"name":"","gid":3221225653,"x":790,"y":1575,"width":48,"height":48,"rotation":0,"visible":true},{"id":864,"name":"","gid":2147483834,"x":949,"y":1416,"width":48,"height":48,"rotation":0,"visible":true},{"id":865,"name":"","gid":177,"x":890,"y":1580,"width":48,"height":48,"rotation":0,"visible":true},{"id":866,"name":"","gid":3221225640,"x":82,"y":869,"width":48,"height":48,"rotation":0,"visible":true},{"id":867,"name":"","gid":1073741995,"x":2360,"y":1898,"width":48,"height":48,"rotation":0,"visible":true},{"id":868,"name":"","gid":2147483811,"x":124,"y":751,"width":48,"height":48,"rotation":0,"visible":true},{"id":869,"name":"","gid":164,"x":2910,"y":1801,"width":48,"height":48,"rotation":0,"visible":true},{"id":870,"name":"","gid":2147483833,"x":863,"y":1990,"width":48,"height":48,"rotation":0,"visible":true},{"id":871,"name":"","gid":1073741987,"x":274,"y":165,"width":48,"height":48,"rotation":0,"visible":true},{"id":872,"name":"","gid":168,"x":316,"y":773,"width":48,"height":48,"rotation":0,"visible":true},{"id":873,"name":"","gid":158,"x":1657,"y":1966,"width":48,"height":48,"rotation":0,"visible":true},{"id":874,"name":"","gid":168,"x":3090,"y":1705,"width":48,"height":48,"rotation":0,"visible":true},{"id":875,"name":"","gid":3221225632,"x":274,"y":325,"width":48,"height":48,"rotation":0,"visible":true},{"id":876,"name":"","gid":3221225645,"x":821,"y":1503,"width":48,"height":48,"rotation":0,"visible":true},{"id":877,"name":"","gid":1073741987,"x":759,"y":1934,"width":48,"height":48,"rotation":0,"visible":true},{"id":878,"name":"","gid":168,"x":2326,"y":1869,"width":48,"height":48,"rotation":0,"visible":true},{"id":879,"name":"","gid":1073742010,"x":987,"y":1730,"width":48,"height":48,"rotation":0,"visible":true},{"id":880,"name":"","gid":182,"x":792,"y":1507,"width":48,"height":48,"rotation":0,"visible":true},{"id":881,"name":"","gid":2147483819,"x":111,"y":1354,"width":48,"height":48,"rotation":0,"visible":true},{"id":882,"name":"","gid":1073742009,"x":2436,"y":1226,"width":48,"height":48,"rotation":0,"visible":true},{"id":883,"name":"","gid":162,"x":54,"y":899,"width":48,"height":48,"rotation":0,"visible":true},{"id":884,"name":"","gid":177,"x":809,"y":1990,"width":48,"height":48,"rotation":0,"visible":true},{"id":885,"name":"","gid":2147483820,"x":2966,"y":1797,"width":48,"height":48,"rotation":0,"visible":true},{"id":886,"name":"","gid":3221225640,"x":2363,"y":1867,"width":48,"height":48,"rotation":0,"visible":true},{"id":887,"name":"","gid":2147483830,"x":2481,"y":1225,"width":48,"height":48,"rotation":0,"visible":true},{"id":888,"name":"","gid":1073742005,"x":1848,"y":1571,"width":48,"height":48,"rotation":0,"visible":true},{"id":889,"name":"","gid":163,"x":216,"y":1613,"width":48,"height":48,"rotation":0,"visible":true},{"id":890,"name":"","gid":3221225653,"x":2000,"y":1476,"width":48,"height":48,"rotation":0,"visible":true},{"id":891,"name":"","gid":1073742010,"x":571,"y":1982,"width":48,"height":48,"rotation":0,"visible":true},{"id":892,"name":"","gid":2147483830,"x":1791,"y":1729,"width":48,"height":48,"rotation":0,"visible":true},{"id":893,"name":"","gid":158,"x":-5,"y":1678,"width":48,"height":48,"rotation":0,"visible":true},{"id":894,"name":"","gid":158,"x":1178,"y":1919,"width":48,"height":48,"rotation":0,"visible":true},{"id":895,"name":"","gid":1073741984,"x":190,"y":1213,"width":48,"height":48,"rotation":0,"visible":true},{"id":896,"name":"","gid":2147483811,"x":2416,"y":1883,"width":48,"height":48,"rotation":0,"visible":true},{"id":897,"name":"","gid":2147483822,"x":2456,"y":1735,"width":48,"height":48,"rotation":0,"visible":true},{"id":898,"name":"","gid":2147483810,"x":144,"y":1195,"width":48,"height":48,"rotation":0,"visible":true},{"id":899,"name":"","gid":2147483806,"x":2358,"y":1828,"width":48,"height":48,"rotation":0,"visible":true},{"id":900,"name":"","gid":3221225630,"x":2550,"y":1890,"width":48,"height":48,"rotation":0,"visible":true},{"id":901,"name":"","gid":1073741997,"x":948,"y":1470,"width":48,"height":48,"rotation":0,"visible":true},{"id":902,"name":"","gid":2147483833,"x":758,"y":1569,"width":48,"height":48,"rotation":0,"visible":true},{"id":903,"name":"","gid":3221225630,"x":2455,"y":1675,"width":48,"height":48,"rotation":0,"visible":true},{"id":904,"name":"","gid":2147483808,"x":2353,"y":1802,"width":48,"height":48,"rotation":0,"visible":true},{"id":905,"name":"","gid":2147483820,"x":121,"y":451,"width":48,"height":48,"rotation":0,"visible":true},{"id":906,"name":"","gid":1073742001,"x":2167,"y":1615,"width":48,"height":48,"rotation":0,"visible":true},{"id":907,"name":"","gid":3221225636,"x":2228,"y":1860,"width":48,"height":48,"rotation":0,"visible":true},{"id":908,"name":"","gid":3221225654,"x":1052,"y":1475,"width":48,"height":48,"rotation":0,"visible":true},{"id":909,"name":"","gid":3221225657,"x":2678,"y":1731,"width":48,"height":48,"rotation":0,"visible":true},{"id":910,"name":"","gid":1073742006,"x":924,"y":1739,"width":48,"height":48,"rotation":0,"visible":true},{"id":911,"name":"","gid":3221225633,"x":2522,"y":1826,"width":48,"height":48,"rotation":0,"visible":true},{"id":912,"name":"","gid":2147483834,"x":2322,"y":1547,"width":48,"height":48,"rotation":0,"visible":true},{"id":913,"name":"","gid":1073742006,"x":917,"y":1581,"width":48,"height":48,"rotation":0,"visible":true},{"id":914,"name":"","gid":1073741994,"x":194,"y":1026,"width":48,"height":48,"rotation":0,"visible":true},{"id":915,"name":"","gid":3221225640,"x":-8,"y":1872,"width":48,"height":48,"rotation":0,"visible":true},{"id":916,"name":"","gid":2147483834,"x":2487,"y":1386,"width":48,"height":48,"rotation":0,"visible":true},{"id":917,"name":"","gid":1073741982,"x":17,"y":1999,"width":48,"height":48,"rotation":0,"visible":true},{"id":918,"name":"","gid":168,"x":2557,"y":1824,"width":48,"height":48,"rotation":0,"visible":true},{"id":919,"name":"","gid":1073742010,"x":2073,"y":1730,"width":48,"height":48,"rotation":0,"visible":true},{"id":920,"name":"","gid":1073742001,"x":960,"y":1536,"width":48,"height":48,"rotation":0,"visible":true},{"id":921,"name":"","gid":1073741982,"x":2495,"y":1838,"width":48,"height":48,"rotation":0,"visible":true},{"id":922,"name":"","gid":2147483808,"x":181,"y":1318,"width":48,"height":48,"rotation":0,"visible":true},{"id":923,"name":"","gid":1073741992,"x":915,"y":1712,"width":48,"height":48,"rotation":0,"visible":true},{"id":924,"name":"","gid":170,"x":2259,"y":1928,"width":48,"height":48,"rotation":0,"visible":true},{"id":925,"name":"","gid":2147483806,"x":2258,"y":1837,"width":48,"height":48,"rotation":0,"visible":true},{"id":926,"name":"","gid":3221225645,"x":750,"y":1739,"width":48,"height":48,"rotation":0,"visible":true},{"id":927,"name":"","gid":2147483821,"x":2525,"y":1746,"width":48,"height":48,"rotation":0,"visible":true},{"id":928,"name":"","gid":162,"x":2461,"y":1899,"width":48,"height":48,"rotation":0,"visible":true},{"id":929,"name":"","gid":163,"x":273,"y":261,"width":48,"height":48,"rotation":0,"visible":true},{"id":930,"name":"","gid":2147483833,"x":2484,"y":1445,"width":48,"height":48,"rotation":0,"visible":true},{"id":931,"name":"","gid":158,"x":2495,"y":1800,"width":48,"height":48,"rotation":0,"visible":true},{"id":932,"name":"","gid":2147483825,"x":693,"y":1635,"width":48,"height":48,"rotation":0,"visible":true},{"id":933,"name":"","gid":3221225649,"x":2264,"y":1610,"width":48,"height":48,"rotation":0,"visible":true},{"id":934,"name":"","gid":3221225636,"x":126,"y":426,"width":48,"height":48,"rotation":0,"visible":true},{"id":935,"name":"","gid":173,"x":2446,"y":1135,"width":48,"height":48,"rotation":0,"visible":true},{"id":936,"name":"","gid":3221225642,"x":151,"y":61,"width":48,"height":48,"rotation":0,"visible":true},{"id":937,"name":"","gid":170,"x":2387,"y":1870,"width":48,"height":48,"rotation":0,"visible":true},{"id":938,"name":"","gid":182,"x":557,"y":1741,"width":48,"height":48,"rotation":0,"visible":true},{"id":939,"name":"","gid":2147483809,"x":2491,"y":1899,"width":48,"height":48,"rotation":0,"visible":true},{"id":940,"name":"","gid":2147483806,"x":93,"y":937,"width":48,"height":48,"rotation":0,"visible":true},{"id":941,"name":"","gid":160,"x":67,"y":1892,"width":48,"height":48,"rotation":0,"visible":true},{"id":942,"name":"","gid":1073741994,"x":191,"y":39,"width":48,"height":48,"rotation":0,"visible":true},{"id":943,"name":"","gid":2147483811,"x":1205,"y":1929,"width":48,"height":48,"rotation":0,"visible":true},{"id":944,"name":"","gid":2147483811,"x":29,"y":1872,"width":48,"height":48,"rotation":0,"visible":true},{"id":945,"name":"","gid":1073742010,"x":441,"y":1990,"width":48,"height":48,"rotation":0,"visible":true},{"id":946,"name":"","gid":163,"x":829,"y":1895,"width":48,"height":48,"rotation":0,"visible":true},{"id":947,"name":"","gid":168,"x":2553,"y":1805,"width":48,"height":48,"rotation":0,"visible":true},{"id":948,"name":"","gid":1073741996,"x":820,"y":1866,"width":48,"height":48,"rotation":0,"visible":true},{"id":949,"name":"","gid":161,"x":1301,"y":1898,"width":48,"height":48,"rotation":0,"visible":true},{"id":950,"name":"","gid":2147483830,"x":1876,"y":1588,"width":48,"height":48,"rotation":0,"visible":true},{"id":951,"name":"","gid":3221225635,"x":145,"y":391,"width":48,"height":48,"rotation":0,"visible":true},{"id":952,"name":"","gid":164,"x":188,"y":368,"width":48,"height":48,"rotation":0,"visible":true},{"id":953,"name":"","gid":2147483825,"x":2483,"y":1348,"width":48,"height":48,"rotation":0,"visible":true},{"id":954,"name":"","gid":162,"x":2321,"y":1840,"width":48,"height":48,"rotation":0,"visible":true},{"id":955,"name":"","gid":160,"x":179,"y":744,"width":48,"height":48,"rotation":0,"visible":true},{"id":956,"name":"","gid":3221225630,"x":2261,"y":1869,"width":48,"height":48,"rotation":0,"visible":true},{"id":957,"name":"","gid":2147483834,"x":373,"y":1327,"width":48,"height":48,"rotation":0,"visible":true},{"id":958,"name":"","gid":1073741992,"x":1676,"y":2049,"width":48,"height":48,"rotation":0,"visible":true},{"id":959,"name":"","gid":2147483833,"x":402,"y":1445,"width":48,"height":48,"rotation":0,"visible":true},{"id":960,"name":"","gid":3221225642,"x":182,"y":1290,"width":48,"height":48,"rotation":0,"visible":true},{"id":961,"name":"","gid":1073742001,"x":854,"y":1537,"width":48,"height":48,"rotation":0,"visible":true},{"id":962,"name":"","gid":3221225632,"x":2932,"y":1800,"width":48,"height":48,"rotation":0,"visible":true},{"id":963,"name":"","gid":2147483825,"x":249,"y":1361,"width":48,"height":48,"rotation":0,"visible":true},{"id":964,"name":"","gid":3221225636,"x":2998,"y":1798,"width":48,"height":48,"rotation":0,"visible":true},{"id":965,"name":"","gid":3221225630,"x":2419,"y":1829,"width":48,"height":48,"rotation":0,"visible":true},{"id":966,"name":"","gid":1073742001,"x":961,"y":1994,"width":48,"height":48,"rotation":0,"visible":true},{"id":967,"name":"","gid":2147483834,"x":1177,"y":1606,"width":48,"height":48,"rotation":0,"visible":true},{"id":968,"name":"","gid":3221225646,"x":246,"y":1394,"width":48,"height":48,"rotation":0,"visible":true},{"id":969,"name":"","gid":3221225630,"x":823,"y":1767,"width":48,"height":48,"rotation":0,"visible":true},{"id":970,"name":"","gid":1073741998,"x":1112,"y":1575,"width":48,"height":48,"rotation":0,"visible":true},{"id":971,"name":"","gid":2147483812,"x":180,"y":1413,"width":48,"height":48,"rotation":0,"visible":true},{"id":972,"name":"","gid":168,"x":251,"y":1993,"width":48,"height":48,"rotation":0,"visible":true},{"id":973,"name":"","gid":3221225646,"x":2126,"y":1548,"width":48,"height":48,"rotation":0,"visible":true},{"id":974,"name":"","gid":3221225649,"x":2489,"y":1167,"width":48,"height":48,"rotation":0,"visible":true},{"id":975,"name":"","gid":185,"x":928,"y":1610,"width":48,"height":48,"rotation":0,"visible":true},{"id":976,"name":"","gid":163,"x":53,"y":1956,"width":48,"height":48,"rotation":0,"visible":true},{"id":977,"name":"","gid":174,"x":342,"y":1286,"width":48,"height":48,"rotation":0,"visible":true},{"id":978,"name":"","gid":173,"x":1337,"y":1993,"width":48,"height":48,"rotation":0,"visible":true},{"id":979,"name":"","gid":174,"x":2429,"y":1163,"width":48,"height":48,"rotation":0,"visible":true},{"id":980,"name":"","gid":1073742005,"x":2456,"y":1223,"width":48,"height":48,"rotation":0,"visible":true},{"id":981,"name":"","gid":2147483810,"x":149,"y":1027,"width":48,"height":48,"rotation":0,"visible":true},{"id":982,"name":"","gid":2147483810,"x":155,"y":1280,"width":48,"height":48,"rotation":0,"visible":true},{"id":983,"name":"","gid":1073741984,"x":890,"y":1668,"width":48,"height":48,"rotation":0,"visible":true},{"id":984,"name":"","gid":1073741998,"x":2452,"y":1451,"width":48,"height":48,"rotation":0,"visible":true},{"id":985,"name":"","gid":2147483825,"x":923,"y":1511,"width":48,"height":48,"rotation":0,"visible":true},{"id":986,"name":"","gid":2147483806,"x":1248,"y":1931,"width":48,"height":48,"rotation":0,"visible":true},{"id":987,"name":"","gid":1073741992,"x":182,"y":1445,"width":48,"height":48,"rotation":0,"visible":true},{"id":988,"name":"","gid":2147483819,"x":143,"y":802,"width":48,"height":48,"rotation":0,"visible":true},{"id":989,"name":"","gid":163,"x":2397,"y":1898,"width":48,"height":48,"rotation":0,"visible":true},{"id":990,"name":"","gid":2147483808,"x":790,"y":1923,"width":48,"height":48,"rotation":0,"visible":true},{"id":991,"name":"","gid":2147483819,"x":152,"y":1446,"width":48,"height":48,"rotation":0,"visible":true},{"id":992,"name":"","gid":161,"x":123,"y":938,"width":48,"height":48,"rotation":0,"visible":true},{"id":993,"name":"","gid":1073742005,"x":593,"y":1992,"width":48,"height":48,"rotation":0,"visible":true},{"id":994,"name":"","gid":2147483806,"x":1772,"y":1678,"width":48,"height":48,"rotation":0,"visible":true}]},{"id":7,"name":"props","type":"objectgroup","draworder":"topdown","x":0,"y":0,"opacity":1,"visible":true,"objects":[{"id":995,"name":"R1","type":"prop","x":1184,"y":1088,"width":96,"height":64,"rotation":0,"visible":true,"properties":[{"name":"key","type":"string","value":"prop_escalera_derrumbada"},{"name":"collides","type":"bool","value":true},{"name":"flipX","type":"bool","value":false},{"name":"flipY","type":"bool","value":false}]},{"id":996,"name":"R2","type":"prop","x":1152,"y":1120,"width":32,"height":32,"rotation":0,"visible":true,"properties":[{"name":"key","type":"string","value":"prop_escombros"},{"name":"collides","type":"bool","value":false},{"name":"flipX","type":"bool","value":false},{"name":"flipY","type":"bool","value":false}]},{"id":997,"name":"R4","type":"prop","x":1056,"y":1088,"width":64,"height":32,"rotation":0,"visible":true,"properties":[{"name":"key","type":"string","value":"prop_consola_volcada"},{"name":"collides","type":"bool","value":true},{"name":"flipX","type":"bool","value":false},{"name":"flipY","type":"bool","value":false}]},{"id":998,"name":"R5","type":"prop","x":1120,"y":1184,"width":96,"height":64,"rotation":0,"visible":true,"properties":[{"name":"key","type":"string","value":"prop_alfombra"},{"name":"collides","type":"bool","value":false},{"name":"flipX","type":"bool","value":false},{"name":"flipY","type":"bool","value":false}]},{"id":999,"name":"R6","type":"prop","x":1440,"y":1088,"width":64,"height":64,"rotation":0,"visible":true,"properties":[{"name":"key","type":"string","value":"prop_cajas"},{"name":"collides","type":"bool","value":true},{"name":"flipX","type":"bool","value":false},{"name":"flipY","type":"bool","value":false}]},{"id":1000,"name":"R7","type":"prop","x":1472,"y":1184,"width":32,"height":32,"rotation":0,"visible":true,"properties":[{"name":"key","type":"string","value":"prop_inodoro"},{"name":"collides","type":"bool","value":true},{"name":"flipX","type":"bool","value":false},{"name":"flipY","type":"bool","value":false}]},{"id":1001,"name":"R8","type":"prop","x":1376,"y":960,"width":64,"height":32,"rotation":0,"visible":true,"properties":[{"name":"key","type":"string","value":"prop_banco"},{"name":"collides","type":"bool","value":true},{"name":"flipX","type":"bool","value":false},{"name":"flipY","type":"bool","value":false}]},{"id":1002,"name":"R9","type":"prop","x":1120,"y":992,"width":32,"height":32,"rotation":0,"visible":true,"properties":[{"name":"key","type":"string","value":"prop_cuadro_caido"},{"name":"collides","type":"bool","value":false},{"name":"flipX","type":"bool","value":false},{"name":"flipY","type":"bool","value":false}]},{"id":1003,"name":"S1","type":"prop","x":640,"y":1024,"width":32,"height":96,"rotation":0,"visible":true,"properties":[{"name":"key","type":"string","value":"prop_sofa"},{"name":"collides","type":"bool","value":true},{"name":"flipX","type":"bool","value":false},{"name":"flipY","type":"bool","value":false}]},{"id":1004,"name":"S2","type":"prop","x":544,"y":1056,"width":64,"height":64,"rotation":0,"visible":true,"properties":[{"name":"key","type":"string","value":"prop_alfombra_hogar"},{"name":"collides","type":"bool","value":false},{"name":"flipX","type":"bool","value":false},{"name":"flipY","type":"bool","value":false}]},{"id":1005,"name":"S3","type":"prop","x":608,"y":1120,"width":32,"height":32,"rotation":0,"visible":true,"properties":[{"name":"key","type":"string","value":"prop_sillon"},{"name":"collides","type":"bool","value":true},{"name":"flipX","type":"bool","value":false},{"name":"flipY","type":"bool","value":false}]},{"id":1006,"name":"S4","type":"prop","x":640,"y":1280,"width":64,"height":64,"rotation":0,"visible":true,"properties":[{"name":"key","type":"string","value":"prop_piano"},{"name":"collides","type":"bool","value":true},{"name":"flipX","type":"bool","value":false},{"name":"flipY","type":"bool","value":false}]},{"id":1007,"name":"S5","type":"prop","x":896,"y":1056,"width":64,"height":64,"rotation":0,"visible":true,"properties":[{"name":"key","type":"string","value":"prop_barricada_muebles"},{"name":"collides","type":"bool","value":true},{"name":"flipX","type":"bool","value":false},{"name":"flipY","type":"bool","value":false}]},{"id":1008,"name":"S6","type":"prop","x":832,"y":960,"width":96,"height":32,"rotation":0,"visible":true,"properties":[{"name":"key","type":"string","value":"prop_mueble_bajo"},{"name":"collides","type":"bool","value":true},{"name":"flipX","type":"bool","value":false},{"name":"flipY","type":"bool","value":false}]},{"id":1009,"name":"S7","type":"prop","x":800,"y":992,"width":32,"height":32,"rotation":0,"visible":true,"properties":[{"name":"key","type":"string","value":"prop_libros_suelo"},{"name":"collides","type":"bool","value":false},{"name":"flipX","type":"bool","value":false},{"name":"flipY","type":"bool","value":false}]},{"id":1010,"name":"C1","type":"prop","x":1632,"y":1088,"width":160,"height":64,"rotation":0,"visible":true,"properties":[{"name":"key","type":"string","value":"prop_mesa_comedor"},{"name":"collides","type":"bool","value":true},{"name":"flipX","type":"bool","value":false},{"name":"flipY","type":"bool","value":false}]},{"id":1011,"name":"C2","type":"prop","x":1600,"y":1056,"width":32,"height":32,"rotation":0,"visible":true,"properties":[{"name":"key","type":"string","value":"prop_sillas_volcadas"},{"name":"collides","type":"bool","value":false},{"name":"flipX","type":"bool","value":false},{"name":"flipY","type":"bool","value":false}]},{"id":1012,"name":"C3","type":"prop","x":1792,"y":1152,"width":32,"height":32,"rotation":0,"visible":true,"properties":[{"name":"key","type":"string","value":"prop_sillas_volcadas"},{"name":"collides","type":"bool","value":false},{"name":"flipX","type":"bool","value":true},{"name":"flipY","type":"bool","value":false}]},{"id":1013,"name":"C4","type":"prop","x":1696,"y":1152,"width":32,"height":32,"rotation":0,"visible":true,"properties":[{"name":"key","type":"string","value":"prop_vajilla_rota"},{"name":"collides","type":"bool","value":false},{"name":"flipX","type":"bool","value":false},{"name":"flipY","type":"bool","value":false}]},{"id":1014,"name":"C5","type":"prop","x":1856,"y":1024,"width":32,"height":96,"rotation":0,"visible":true,"properties":[{"name":"key","type":"string","value":"prop_aparador"},{"name":"collides","type":"bool","value":true},{"name":"flipX","type":"bool","value":false},{"name":"flipY","type":"bool","value":false}]},{"id":1015,"name":"C6","type":"prop","x":1664,"y":1056,"width":32,"height":32,"rotation":0,"visible":true,"properties":[{"name":"key","type":"string","value":"prop_charco_sangre"},{"name":"collides","type":"bool","value":false},{"name":"flipX","type":"bool","value":false},{"name":"flipY","type":"bool","value":false}]},{"id":1016,"name":"B1","type":"prop","x":768,"y":672,"width":160,"height":32,"rotation":0,"visible":true,"properties":[{"name":"key","type":"string","value":"prop_estanteria_larga"},{"name":"collides","type":"bool","value":true},{"name":"flipX","type":"bool","value":false},{"name":"flipY","type":"bool","value":false}]},{"id":1017,"name":"B2","type":"prop","x":768,"y":768,"width":160,"height":32,"rotation":0,"visible":true,"properties":[{"name":"key","type":"string","value":"prop_estanteria_larga"},{"name":"collides","type":"bool","value":true},{"name":"flipX","type":"bool","value":false},{"name":"flipY","type":"bool","value":false}]},{"id":1018,"name":"B3","type":"prop","x":800,"y":800,"width":64,"height":64,"rotation":0,"visible":true,"properties":[{"name":"key","type":"string","value":"prop_mesa_lectura"},{"name":"collides","type":"bool","value":true},{"name":"flipX","type":"bool","value":false},{"name":"flipY","type":"bool","value":false}]},{"id":1019,"name":"B4","type":"prop","x":928,"y":704,"width":96,"height":32,"rotation":0,"visible":true,"properties":[{"name":"key","type":"string","value":"prop_estanteria_caida"},{"name":"collides","type":"bool","value":true},{"name":"flipX","type":"bool","value":false},{"name":"flipY","type":"bool","value":false}]},{"id":1020,"name":"B5","type":"prop","x":928,"y":736,"width":32,"height":32,"rotation":0,"visible":true,"properties":[{"name":"key","type":"string","value":"prop_libros_suelo"},{"name":"collides","type":"bool","value":false},{"name":"flipX","type":"bool","value":false},{"name":"flipY","type":"bool","value":false}]},{"id":1021,"name":"B6","type":"prop","x":992,"y":736,"width":32,"height":32,"rotation":0,"visible":true,"properties":[{"name":"key","type":"string","value":"prop_libros_suelo"},{"name":"collides","type":"bool","value":false},{"name":"flipX","type":"bool","value":false},{"name":"flipY","type":"bool","value":true}]},{"id":1022,"name":"B7","type":"prop","x":736,"y":704,"width":32,"height":32,"rotation":0,"visible":true,"properties":[{"name":"key","type":"string","value":"prop_libros_suelo"},{"name":"collides","type":"bool","value":false},{"name":"flipX","type":"bool","value":true},{"name":"flipY","type":"bool","value":false}]},{"id":1023,"name":"B8","type":"prop","x":608,"y":608,"width":64,"height":32,"rotation":0,"visible":true,"properties":[{"name":"key","type":"string","value":"prop_escritorio"},{"name":"collides","type":"bool","value":true},{"name":"flipX","type":"bool","value":false},{"name":"flipY","type":"bool","value":false}]},{"id":1024,"name":"B9","type":"prop","x":640,"y":736,"width":32,"height":32,"rotation":0,"visible":true,"properties":[{"name":"key","type":"string","value":"prop_caja_fuerte"},{"name":"collides","type":"bool","value":true},{"name":"flipX","type":"bool","value":false},{"name":"flipY","type":"bool","value":false}]},{"id":1025,"name":"B10","type":"prop","x":512,"y":800,"width":32,"height":32,"rotation":0,"visible":true,"properties":[{"name":"key","type":"string","value":"prop_sillon"},{"name":"collides","type":"bool","value":true},{"name":"flipX","type":"bool","value":false},{"name":"flipY","type":"bool","value":false}]},{"id":1026,"name":"K1","type":"prop","x":1056,"y":640,"width":96,"height":32,"rotation":0,"visible":true,"properties":[{"name":"key","type":"string","value":"prop_encimera"},{"name":"collides","type":"bool","value":true},{"name":"flipX","type":"bool","value":false},{"name":"flipY","type":"bool","value":false}]},{"id":1027,"name":"K2","type":"prop","x":1184,"y":704,"width":128,"height":32,"rotation":0,"visible":true,"properties":[{"name":"key","type":"string","value":"prop_isla_cocina"},{"name":"collides","type":"bool","value":true},{"name":"flipX","type":"bool","value":false},{"name":"flipY","type":"bool","value":false}]},{"id":1028,"name":"K3","type":"prop","x":1440,"y":736,"width":32,"height":32,"rotation":0,"visible":true,"properties":[{"name":"key","type":"string","value":"prop_nevera"},{"name":"collides","type":"bool","value":true},{"name":"flipX","type":"bool","value":false},{"name":"flipY","type":"bool","value":false}]},{"id":1029,"name":"K4","type":"prop","x":1152,"y":896,"width":32,"height":32,"rotation":0,"visible":true,"properties":[{"name":"key","type":"string","value":"prop_horno"},{"name":"collides","type":"bool","value":true},{"name":"flipX","type":"bool","value":false},{"name":"flipY","type":"bool","value":false}]},{"id":1030,"name":"K5","type":"prop","x":1152,"y":544,"width":64,"height":32,"rotation":0,"visible":true,"properties":[{"name":"key","type":"string","value":"prop_mesa"},{"name":"collides","type":"bool","value":true},{"name":"flipX","type":"bool","value":false},{"name":"flipY","type":"bool","value":false}]},{"id":1031,"name":"K6","type":"prop","x":1856,"y":736,"width":32,"height":32,"rotation":0,"visible":true,"properties":[{"name":"key","type":"string","value":"prop_lavadora"},{"name":"collides","type":"bool","value":true},{"name":"flipX","type":"bool","value":false},{"name":"flipY","type":"bool","value":false}]},{"id":1032,"name":"K7","type":"prop","x":1760,"y":672,"width":32,"height":32,"rotation":0,"visible":true,"properties":[{"name":"key","type":"string","value":"prop_latas_suelo"},{"name":"collides","type":"bool","value":false},{"name":"flipX","type":"bool","value":false},{"name":"flipY","type":"bool","value":false}]},{"id":1033,"name":"K8","type":"prop","x":1408,"y":768,"width":32,"height":32,"rotation":0,"visible":true,"properties":[{"name":"key","type":"string","value":"prop_latas_suelo"},{"name":"collides","type":"bool","value":false},{"name":"flipX","type":"bool","value":true},{"name":"flipY","type":"bool","value":false}]},{"id":1034,"name":"K9","type":"prop","x":1248,"y":768,"width":32,"height":32,"rotation":0,"visible":true,"properties":[{"name":"key","type":"string","value":"prop_vajilla_rota"},{"name":"collides","type":"bool","value":false},{"name":"flipX","type":"bool","value":false},{"name":"flipY","type":"bool","value":true}]},{"id":1035,"name":"G1","type":"prop","x":2112,"y":1152,"width":96,"height":160,"rotation":0,"visible":true,"properties":[{"name":"key","type":"string","value":"prop_coche_puerta_abierta"},{"name":"collides","type":"bool","value":true},{"name":"flipX","type":"bool","value":false},{"name":"flipY","type":"bool","value":false}]},{"id":1036,"name":"G2","type":"prop","x":2272,"y":1376,"width":32,"height":32,"rotation":0,"visible":true,"properties":[{"name":"key","type":"string","value":"prop_neumaticos"},{"name":"collides","type":"bool","value":true},{"name":"flipX","type":"bool","value":false},{"name":"flipY","type":"bool","value":false}]},{"id":1037,"name":"G3","type":"prop","x":2080,"y":832,"width":32,"height":96,"rotation":0,"visible":true,"properties":[{"name":"key","type":"string","value":"prop_banco_trabajo"},{"name":"collides","type":"bool","value":true},{"name":"flipX","type":"bool","value":false},{"name":"flipY","type":"bool","value":false}]},{"id":1038,"name":"G4","type":"prop","x":1920,"y":736,"width":32,"height":64,"rotation":0,"visible":true,"properties":[{"name":"key","type":"string","value":"prop_estanteria_metal_corta"},{"name":"collides","type":"bool","value":true},{"name":"flipX","type":"bool","value":false},{"name":"flipY","type":"bool","value":false}]},{"id":1039,"name":"G5","type":"prop","x":2048,"y":928,"width":32,"height":32,"rotation":0,"visible":true,"properties":[{"name":"key","type":"string","value":"prop_herramientas_suelo"},{"name":"collides","type":"bool","value":false},{"name":"flipX","type":"bool","value":false},{"name":"flipY","type":"bool","value":false}]},{"id":1040,"name":"G6","type":"prop","x":2048,"y":1312,"width":32,"height":32,"rotation":0,"visible":true,"properties":[{"name":"key","type":"string","value":"prop_mancha_aceite"},{"name":"collides","type":"bool","value":false},{"name":"flipX","type":"bool","value":false},{"name":"flipY","type":"bool","value":false}]},{"id":1041,"name":"J1","type":"prop","x":512,"y":96,"width":64,"height":64,"rotation":0,"visible":true,"properties":[{"name":"key","type":"string","value":"prop_arbol"},{"name":"collides","type":"bool","value":true},{"name":"flipX","type":"bool","value":false},{"name":"flipY","type":"bool","value":false}]},{"id":1042,"name":"J2","type":"prop","x":1920,"y":384,"width":64,"height":64,"rotation":0,"visible":true,"properties":[{"name":"key","type":"string","value":"prop_arbol"},{"name":"collides","type":"bool","value":true},{"name":"flipX","type":"bool","value":true},{"name":"flipY","type":"bool","value":false}]},{"id":1043,"name":"J3","type":"prop","x":2400,"y":448,"width":64,"height":64,"rotation":0,"visible":true,"properties":[{"name":"key","type":"string","value":"prop_arbol"},{"name":"collides","type":"bool","value":true},{"name":"flipX","type":"bool","value":false},{"name":"flipY","type":"bool","value":false}]},{"id":1044,"name":"J4","type":"prop","x":992,"y":96,"width":128,"height":32,"rotation":0,"visible":true,"properties":[{"name":"key","type":"string","value":"prop_seto"},{"name":"collides","type":"bool","value":true},{"name":"flipX","type":"bool","value":false},{"name":"flipY","type":"bool","value":false}]},{"id":1045,"name":"J5","type":"prop","x":1536,"y":96,"width":128,"height":32,"rotation":0,"visible":true,"properties":[{"name":"key","type":"string","value":"prop_seto"},{"name":"collides","type":"bool","value":true},{"name":"flipX","type":"bool","value":false},{"name":"flipY","type":"bool","value":false}]},{"id":1046,"name":"J6","type":"prop","x":832,"y":384,"width":64,"height":32,"rotation":0,"visible":true,"properties":[{"name":"key","type":"string","value":"prop_mesa_jardin"},{"name":"collides","type":"bool","value":true},{"name":"flipX","type":"bool","value":false},{"name":"flipY","type":"bool","value":false}]},{"id":1047,"name":"J7","type":"prop","x":800,"y":416,"width":32,"height":32,"rotation":0,"visible":true,"properties":[{"name":"key","type":"string","value":"prop_sillas_volcadas"},{"name":"collides","type":"bool","value":false},{"name":"flipX","type":"bool","value":false},{"name":"flipY","type":"bool","value":false}]},{"id":1048,"name":"J8","type":"prop","x":1536,"y":448,"width":32,"height":32,"rotation":0,"visible":true,"properties":[{"name":"key","type":"string","value":"prop_barbacoa_volcada"},{"name":"collides","type":"bool","value":true},{"name":"flipX","type":"bool","value":false},{"name":"flipY","type":"bool","value":false}]},{"id":1049,"name":"J9","type":"prop","x":1504,"y":480,"width":32,"height":32,"rotation":0,"visible":true,"properties":[{"name":"key","type":"string","value":"prop_charco_sangre"},{"name":"collides","type":"bool","value":false},{"name":"flipX","type":"bool","value":false},{"name":"flipY","type":"bool","value":false}]},{"id":1050,"name":"J10","type":"prop","x":1376,"y":384,"width":32,"height":64,"rotation":0,"visible":true,"properties":[{"name":"key","type":"string","value":"prop_tumbona"},{"name":"collides","type":"bool","value":true},{"name":"flipX","type":"bool","value":false},{"name":"flipY","type":"bool","value":false}]},{"id":1051,"name":"J11","type":"prop","x":1472,"y":384,"width":32,"height":64,"rotation":0,"visible":true,"properties":[{"name":"key","type":"string","value":"prop_tumbona"},{"name":"collides","type":"bool","value":true},{"name":"flipX","type":"bool","value":false},{"name":"flipY","type":"bool","value":false}]},{"id":1052,"name":"J12","type":"prop","x":1664,"y":192,"width":32,"height":32,"rotation":0,"visible":true,"properties":[{"name":"key","type":"string","value":"prop_flotador"},{"name":"collides","type":"bool","value":false},{"name":"flipX","type":"bool","value":false},{"name":"flipY","type":"bool","value":false}]},{"id":1053,"name":"J13","type":"prop","x":2240,"y":288,"width":32,"height":32,"rotation":0,"visible":true,"properties":[{"name":"key","type":"string","value":"prop_bidon"},{"name":"collides","type":"bool","value":true},{"name":"flipX","type":"bool","value":false},{"name":"flipY","type":"bool","value":false}]},{"id":1054,"name":"T1","type":"prop","x":64,"y":1504,"width":128,"height":64,"rotation":0,"visible":true,"properties":[{"name":"key","type":"string","value":"prop_coche_accidentado"},{"name":"collides","type":"bool","value":true},{"name":"flipX","type":"bool","value":false},{"name":"flipY","type":"bool","value":false}]},{"id":1055,"name":"T2","type":"prop","x":192,"y":1472,"width":64,"height":32,"rotation":0,"visible":true,"properties":[{"name":"key","type":"string","value":"prop_farola_caida"},{"name":"collides","type":"bool","value":false},{"name":"flipX","type":"bool","value":false},{"name":"flipY","type":"bool","value":false}]},{"id":1056,"name":"T3","type":"prop","x":640,"y":1856,"width":128,"height":64,"rotation":0,"visible":true,"properties":[{"name":"key","type":"string","value":"prop_coche"},{"name":"collides","type":"bool","value":true},{"name":"flipX","type":"bool","value":false},{"name":"flipY","type":"bool","value":false}]},{"id":1057,"name":"T4","type":"prop","x":1472,"y":1760,"width":128,"height":64,"rotation":0,"visible":true,"properties":[{"name":"key","type":"string","value":"prop_coche"},{"name":"collides","type":"bool","value":true},{"name":"flipX","type":"bool","value":true},{"name":"flipY","type":"bool","value":false}]},{"id":1058,"name":"T5","type":"prop","x":1088,"y":1600,"width":32,"height":32,"rotation":0,"visible":true,"properties":[{"name":"key","type":"string","value":"prop_buzon"},{"name":"collides","type":"bool","value":true},{"name":"flipX","type":"bool","value":false},{"name":"flipY","type":"bool","value":false}]},{"id":1059,"name":"T6","type":"prop","x":1920,"y":1600,"width":32,"height":32,"rotation":0,"visible":true,"properties":[{"name":"key","type":"string","value":"prop_cubo_basura"},{"name":"collides","type":"bool","value":true},{"name":"flipX","type":"bool","value":false},{"name":"flipY","type":"bool","value":false}]},{"id":1060,"name":"T7","type":"prop","x":800,"y":1696,"width":32,"height":32,"rotation":0,"visible":true,"properties":[{"name":"key","type":"string","value":"prop_farola"},{"name":"collides","type":"bool","value":true},{"name":"flipX","type":"bool","value":false},{"name":"flipY","type":"bool","value":false}]},{"id":1061,"name":"T8","type":"prop","x":1664,"y":1696,"width":32,"height":32,"rotation":0,"visible":true,"properties":[{"name":"key","type":"string","value":"prop_farola"},{"name":"collides","type":"bool","value":true},{"name":"flipX","type":"bool","value":false},{"name":"flipY","type":"bool","value":false}]},{"id":1062,"name":"T9","type":"prop","x":1216,"y":1952,"width":32,"height":32,"rotation":0,"visible":true,"properties":[{"name":"key","type":"string","value":"prop_farola"},{"name":"collides","type":"bool","value":true},{"name":"flipX","type":"bool","value":false},{"name":"flipY","type":"bool","value":false}]},{"id":1063,"name":"T10","type":"prop","x":256,"y":896,"width":32,"height":32,"rotation":0,"visible":true,"properties":[{"name":"key","type":"string","value":"prop_farola"},{"name":"collides","type":"bool","value":true},{"name":"flipX","type":"bool","value":false},{"name":"flipY","type":"bool","value":false}]},{"id":1064,"name":"T11","type":"prop","x":704,"y":1472,"width":64,"height":64,"rotation":0,"visible":true,"properties":[{"name":"key","type":"string","value":"prop_arbol"},{"name":"collides","type":"bool","value":true},{"name":"flipX","type":"bool","value":false},{"name":"flipY","type":"bool","value":false}]},{"id":1065,"name":"T12","type":"prop","x":1408,"y":1504,"width":64,"height":64,"rotation":0,"visible":true,"properties":[{"name":"key","type":"string","value":"prop_arbol"},{"name":"collides","type":"bool","value":true},{"name":"flipX","type":"bool","value":true},{"name":"flipY","type":"bool","value":false}]},{"id":1066,"name":"T13","type":"prop","x":384,"y":1600,"width":128,"height":32,"rotation":0,"visible":true,"properties":[{"name":"key","type":"string","value":"prop_seto"},{"name":"collides","type":"bool","value":true},{"name":"flipX","type":"bool","value":false},{"name":"flipY","type":"bool","value":false}]},{"id":1067,"name":"T14","type":"prop","x":1216,"y":1600,"width":128,"height":32,"rotation":0,"visible":true,"properties":[{"name":"key","type":"string","value":"prop_seto"},{"name":"collides","type":"bool","value":true},{"name":"flipX","type":"bool","value":false},{"name":"flipY","type":"bool","value":false}]},{"id":1068,"name":"T15","type":"prop","x":2240,"y":1600,"width":128,"height":32,"rotation":0,"visible":true,"properties":[{"name":"key","type":"string","value":"prop_seto"},{"name":"collides","type":"bool","value":true},{"name":"flipX","type":"bool","value":false},{"name":"flipY","type":"bool","value":false}]},{"id":1069,"name":"T16","type":"prop","x":384,"y":1344,"width":32,"height":128,"rotation":0,"visible":true,"properties":[{"name":"key","type":"string","value":"prop_seto_lateral"},{"name":"collides","type":"bool","value":true},{"name":"flipX","type":"bool","value":false},{"name":"flipY","type":"bool","value":false}]},{"id":1070,"name":"X1","type":"prop","x":3008,"y":928,"width":64,"height":64,"rotation":0,"visible":true,"properties":[{"name":"key","type":"string","value":"prop_caldera"},{"name":"collides","type":"bool","value":true},{"name":"flipX","type":"bool","value":false},{"name":"flipY","type":"bool","value":false}]},{"id":1071,"name":"X2","type":"prop","x":3136,"y":1280,"width":32,"height":128,"rotation":0,"visible":true,"properties":[{"name":"key","type":"string","value":"prop_botellero"},{"name":"collides","type":"bool","value":true},{"name":"flipX","type":"bool","value":false},{"name":"flipY","type":"bool","value":false}]},{"id":1072,"name":"X3","type":"prop","x":2944,"y":1216,"width":96,"height":32,"rotation":0,"visible":true,"properties":[{"name":"key","type":"string","value":"prop_botellero_bajo"},{"name":"collides","type":"bool","value":true},{"name":"flipX","type":"bool","value":false},{"name":"flipY","type":"bool","value":false}]},{"id":1073,"name":"X4","type":"prop","x":2880,"y":896,"width":32,"height":128,"rotation":0,"visible":true,"properties":[{"name":"key","type":"string","value":"prop_estanteria_metal"},{"name":"collides","type":"bool","value":true},{"name":"flipX","type":"bool","value":false},{"name":"flipY","type":"bool","value":false}]},{"id":1074,"name":"X5","type":"prop","x":2656,"y":960,"width":64,"height":64,"rotation":0,"visible":true,"properties":[{"name":"key","type":"string","value":"prop_cajas"},{"name":"collides","type":"bool","value":true},{"name":"flipX","type":"bool","value":false},{"name":"flipY","type":"bool","value":false}]},{"id":1075,"name":"X6","type":"prop","x":2720,"y":1088,"width":64,"height":64,"rotation":0,"visible":true,"properties":[{"name":"key","type":"string","value":"prop_colchon"},{"name":"collides","type":"bool","value":false},{"name":"flipX","type":"bool","value":false},{"name":"flipY","type":"bool","value":false}]},{"id":1076,"name":"X7","type":"prop","x":2784,"y":1088,"width":32,"height":32,"rotation":0,"visible":true,"properties":[{"name":"key","type":"string","value":"prop_latas_suelo"},{"name":"collides","type":"bool","value":false},{"name":"flipX","type":"bool","value":false},{"name":"flipY","type":"bool","value":false}]},{"id":1077,"name":"X8","type":"prop","x":2720,"y":1152,"width":32,"height":32,"rotation":0,"visible":true,"properties":[{"name":"key","type":"string","value":"prop_charco_sangre"},{"name":"collides","type":"bool","value":false},{"name":"flipX","type":"bool","value":false},{"name":"flipY","type":"bool","value":false}]},{"id":1078,"name":"Y1","type":"prop","x":2848,"y":160,"width":64,"height":32,"rotation":0,"visible":true,"properties":[{"name":"key","type":"string","value":"prop_aire_acondicionado"},{"name":"collides","type":"bool","value":true},{"name":"flipX","type":"bool","value":false},{"name":"flipY","type":"bool","value":false}]},{"id":1079,"name":"Y2","type":"prop","x":3040,"y":352,"width":64,"height":64,"rotation":0,"visible":true,"properties":[{"name":"key","type":"string","value":"prop_deposito_agua"},{"name":"collides","type":"bool","value":true},{"name":"flipX","type":"bool","value":false},{"name":"flipY","type":"bool","value":false}]},{"id":1080,"name":"Y3","type":"prop","x":2656,"y":384,"width":64,"height":32,"rotation":0,"visible":true,"properties":[{"name":"key","type":"string","value":"prop_cajas_provisiones"},{"name":"collides","type":"bool","value":true},{"name":"flipX","type":"bool","value":false},{"name":"flipY","type":"bool","value":false}]},{"id":1081,"name":"Y4","type":"prop","x":2752,"y":416,"width":64,"height":32,"rotation":0,"visible":true,"properties":[{"name":"key","type":"string","value":"prop_saco_dormir"},{"name":"collides","type":"bool","value":false},{"name":"flipX","type":"bool","value":false},{"name":"flipY","type":"bool","value":false}]},{"id":1082,"name":"Y5","type":"prop","x":2912,"y":512,"width":64,"height":32,"rotation":0,"visible":true,"properties":[{"name":"key","type":"string","value":"prop_aire_acondicionado"},{"name":"collides","type":"bool","value":true},{"name":"flipX","type":"bool","value":false},{"name":"flipY","type":"bool","value":false}]}]},{"id":5,"name":"objects","type":"objectgroup","draworder":"topdown","x":0,"y":0,"opacity":1,"visible":true,"objects":[{"id":1,"rotation":0,"visible":true,"name":"recibidor","type":"zone","x":1056,"y":960,"width":448,"height":96,"properties":[{"name":"id","type":"string","value":"recibidor"},{"name":"name","type":"string","value":"Recibidor"},{"name":"startsUnlocked","type":"bool","value":true},{"name":"interior","type":"bool","value":true},{"name":"openSpawns","type":"bool","value":false}]},{"id":2,"rotation":0,"visible":true,"name":"recibidor","type":"zone","x":1120,"y":1056,"width":64,"height":256,"properties":[{"name":"id","type":"string","value":"recibidor"},{"name":"name","type":"string","value":"Recibidor"},{"name":"startsUnlocked","type":"bool","value":true},{"name":"interior","type":"bool","value":true},{"name":"openSpawns","type":"bool","value":false}]},{"id":3,"rotation":0,"visible":true,"name":"recibidor","type":"zone","x":1280,"y":1056,"width":64,"height":256,"properties":[{"name":"id","type":"string","value":"recibidor"},{"name":"name","type":"string","value":"Recibidor"},{"name":"startsUnlocked","type":"bool","value":true},{"name":"interior","type":"bool","value":true},{"name":"openSpawns","type":"bool","value":false}]},{"id":4,"rotation":0,"visible":true,"name":"recibidor","type":"zone","x":1056,"y":1088,"width":64,"height":224,"properties":[{"name":"id","type":"string","value":"recibidor"},{"name":"name","type":"string","value":"Recibidor"},{"name":"startsUnlocked","type":"bool","value":true},{"name":"interior","type":"bool","value":true},{"name":"openSpawns","type":"bool","value":false}]},{"id":5,"rotation":0,"visible":true,"name":"recibidor","type":"zone","x":1184,"y":1088,"width":96,"height":224,"properties":[{"name":"id","type":"string","value":"recibidor"},{"name":"name","type":"string","value":"Recibidor"},{"name":"startsUnlocked","type":"bool","value":true},{"name":"interior","type":"bool","value":true},{"name":"openSpawns","type":"bool","value":false}]},{"id":6,"rotation":0,"visible":true,"name":"recibidor","type":"zone","x":1344,"y":1088,"width":160,"height":64,"properties":[{"name":"id","type":"string","value":"recibidor"},{"name":"name","type":"string","value":"Recibidor"},{"name":"startsUnlocked","type":"bool","value":true},{"name":"interior","type":"bool","value":true},{"name":"openSpawns","type":"bool","value":false}]},{"id":7,"rotation":0,"visible":true,"name":"recibidor","type":"zone","x":1344,"y":1184,"width":160,"height":64,"properties":[{"name":"id","type":"string","value":"recibidor"},{"name":"name","type":"string","value":"Recibidor"},{"name":"startsUnlocked","type":"bool","value":true},{"name":"interior","type":"bool","value":true},{"name":"openSpawns","type":"bool","value":false}]},{"id":8,"rotation":0,"visible":true,"name":"recibidor","type":"zone","x":1376,"y":1248,"width":128,"height":32,"properties":[{"name":"id","type":"string","value":"recibidor"},{"name":"name","type":"string","value":"Recibidor"},{"name":"startsUnlocked","type":"bool","value":true},{"name":"interior","type":"bool","value":true},{"name":"openSpawns","type":"bool","value":false}]},{"id":9,"rotation":0,"visible":true,"name":"salon","type":"zone","x":512,"y":960,"width":512,"height":96,"properties":[{"name":"id","type":"string","value":"salon"},{"name":"name","type":"string","value":"Salón"},{"name":"startsUnlocked","type":"bool","value":false},{"name":"interior","type":"bool","value":true},{"name":"openSpawns","type":"bool","value":false}]},{"id":10,"rotation":0,"visible":true,"name":"salon","type":"zone","x":544,"y":1056,"width":224,"height":160,"properties":[{"name":"id","type":"string","value":"salon"},{"name":"name","type":"string","value":"Salón"},{"name":"startsUnlocked","type":"bool","value":false},{"name":"interior","type":"bool","value":true},{"name":"openSpawns","type":"bool","value":false}]},{"id":11,"rotation":0,"visible":true,"name":"salon","type":"zone","x":832,"y":1056,"width":192,"height":288,"properties":[{"name":"id","type":"string","value":"salon"},{"name":"name","type":"string","value":"Salón"},{"name":"startsUnlocked","type":"bool","value":false},{"name":"interior","type":"bool","value":true},{"name":"openSpawns","type":"bool","value":false}]},{"id":12,"rotation":0,"visible":true,"name":"salon","type":"zone","x":512,"y":1120,"width":32,"height":96,"properties":[{"name":"id","type":"string","value":"salon"},{"name":"name","type":"string","value":"Salón"},{"name":"startsUnlocked","type":"bool","value":false},{"name":"interior","type":"bool","value":true},{"name":"openSpawns","type":"bool","value":false}]},{"id":13,"rotation":0,"visible":true,"name":"salon","type":"zone","x":768,"y":1120,"width":64,"height":224,"properties":[{"name":"id","type":"string","value":"salon"},{"name":"name","type":"string","value":"Salón"},{"name":"startsUnlocked","type":"bool","value":false},{"name":"interior","type":"bool","value":true},{"name":"openSpawns","type":"bool","value":false}]},{"id":14,"rotation":0,"visible":true,"name":"salon","type":"zone","x":640,"y":1216,"width":128,"height":128,"properties":[{"name":"id","type":"string","value":"salon"},{"name":"name","type":"string","value":"Salón"},{"name":"startsUnlocked","type":"bool","value":false},{"name":"interior","type":"bool","value":true},{"name":"openSpawns","type":"bool","value":false}]},{"id":15,"rotation":0,"visible":true,"name":"comedor","type":"zone","x":1536,"y":960,"width":352,"height":320,"properties":[{"name":"id","type":"string","value":"comedor"},{"name":"name","type":"string","value":"Comedor"},{"name":"startsUnlocked","type":"bool","value":false},{"name":"interior","type":"bool","value":true},{"name":"openSpawns","type":"bool","value":false}]},{"id":16,"rotation":0,"visible":true,"name":"comedor","type":"zone","x":1632,"y":1280,"width":160,"height":64,"properties":[{"name":"id","type":"string","value":"comedor"},{"name":"name","type":"string","value":"Comedor"},{"name":"startsUnlocked","type":"bool","value":false},{"name":"interior","type":"bool","value":true},{"name":"openSpawns","type":"bool","value":false}]},{"id":17,"rotation":0,"visible":true,"name":"biblioteca","type":"zone","x":736,"y":544,"width":160,"height":384,"properties":[{"name":"id","type":"string","value":"biblioteca"},{"name":"name","type":"string","value":"Biblioteca"},{"name":"startsUnlocked","type":"bool","value":false},{"name":"interior","type":"bool","value":true},{"name":"openSpawns","type":"bool","value":false}]},{"id":18,"rotation":0,"visible":true,"name":"biblioteca","type":"zone","x":512,"y":608,"width":160,"height":160,"properties":[{"name":"id","type":"string","value":"biblioteca"},{"name":"name","type":"string","value":"Biblioteca"},{"name":"startsUnlocked","type":"bool","value":false},{"name":"interior","type":"bool","value":true},{"name":"openSpawns","type":"bool","value":false}]},{"id":19,"rotation":0,"visible":true,"name":"biblioteca","type":"zone","x":704,"y":608,"width":32,"height":320,"properties":[{"name":"id","type":"string","value":"biblioteca"},{"name":"name","type":"string","value":"Biblioteca"},{"name":"startsUnlocked","type":"bool","value":false},{"name":"interior","type":"bool","value":true},{"name":"openSpawns","type":"bool","value":false}]},{"id":20,"rotation":0,"visible":true,"name":"biblioteca","type":"zone","x":896,"y":608,"width":128,"height":320,"properties":[{"name":"id","type":"string","value":"biblioteca"},{"name":"name","type":"string","value":"Biblioteca"},{"name":"startsUnlocked","type":"bool","value":false},{"name":"interior","type":"bool","value":true},{"name":"openSpawns","type":"bool","value":false}]},{"id":21,"rotation":0,"visible":true,"name":"biblioteca","type":"zone","x":672,"y":672,"width":32,"height":64,"properties":[{"name":"id","type":"string","value":"biblioteca"},{"name":"name","type":"string","value":"Biblioteca"},{"name":"startsUnlocked","type":"bool","value":false},{"name":"interior","type":"bool","value":true},{"name":"openSpawns","type":"bool","value":false}]},{"id":22,"rotation":0,"visible":true,"name":"biblioteca","type":"zone","x":576,"y":768,"width":64,"height":160,"properties":[{"name":"id","type":"string","value":"biblioteca"},{"name":"name","type":"string","value":"Biblioteca"},{"name":"startsUnlocked","type":"bool","value":false},{"name":"interior","type":"bool","value":true},{"name":"openSpawns","type":"bool","value":false}]},{"id":23,"rotation":0,"visible":true,"name":"biblioteca","type":"zone","x":512,"y":800,"width":64,"height":128,"properties":[{"name":"id","type":"string","value":"biblioteca"},{"name":"name","type":"string","value":"Biblioteca"},{"name":"startsUnlocked","type":"bool","value":false},{"name":"interior","type":"bool","value":true},{"name":"openSpawns","type":"bool","value":false}]},{"id":24,"rotation":0,"visible":true,"name":"biblioteca","type":"zone","x":640,"y":800,"width":32,"height":128,"properties":[{"name":"id","type":"string","value":"biblioteca"},{"name":"name","type":"string","value":"Biblioteca"},{"name":"startsUnlocked","type":"bool","value":false},{"name":"interior","type":"bool","value":true},{"name":"openSpawns","type":"bool","value":false}]},{"id":25,"rotation":0,"visible":true,"name":"biblioteca","type":"zone","x":672,"y":832,"width":32,"height":64,"properties":[{"name":"id","type":"string","value":"biblioteca"},{"name":"name","type":"string","value":"Biblioteca"},{"name":"startsUnlocked","type":"bool","value":false},{"name":"interior","type":"bool","value":true},{"name":"openSpawns","type":"bool","value":false}]},{"id":26,"rotation":0,"visible":true,"name":"cocina","type":"zone","x":1152,"y":544,"width":192,"height":384,"properties":[{"name":"id","type":"string","value":"cocina"},{"name":"name","type":"string","value":"Cocina"},{"name":"startsUnlocked","type":"bool","value":false},{"name":"interior","type":"bool","value":true},{"name":"openSpawns","type":"bool","value":false}]},{"id":27,"rotation":0,"visible":true,"name":"cocina","type":"zone","x":1760,"y":608,"width":128,"height":96,"properties":[{"name":"id","type":"string","value":"cocina"},{"name":"name","type":"string","value":"Cocina"},{"name":"startsUnlocked","type":"bool","value":false},{"name":"interior","type":"bool","value":true},{"name":"openSpawns","type":"bool","value":false}]},{"id":28,"rotation":0,"visible":true,"name":"cocina","type":"zone","x":1056,"y":640,"width":96,"height":288,"properties":[{"name":"id","type":"string","value":"cocina"},{"name":"name","type":"string","value":"Cocina"},{"name":"startsUnlocked","type":"bool","value":false},{"name":"interior","type":"bool","value":true},{"name":"openSpawns","type":"bool","value":false}]},{"id":29,"rotation":0,"visible":true,"name":"cocina","type":"zone","x":1344,"y":640,"width":128,"height":288,"properties":[{"name":"id","type":"string","value":"cocina"},{"name":"name","type":"string","value":"Cocina"},{"name":"startsUnlocked","type":"bool","value":false},{"name":"interior","type":"bool","value":true},{"name":"openSpawns","type":"bool","value":false}]},{"id":30,"rotation":0,"visible":true,"name":"cocina","type":"zone","x":1760,"y":704,"width":64,"height":224,"properties":[{"name":"id","type":"string","value":"cocina"},{"name":"name","type":"string","value":"Cocina"},{"name":"startsUnlocked","type":"bool","value":false},{"name":"interior","type":"bool","value":true},{"name":"openSpawns","type":"bool","value":false}]},{"id":31,"rotation":0,"visible":true,"name":"cocina","type":"zone","x":1472,"y":736,"width":256,"height":192,"properties":[{"name":"id","type":"string","value":"cocina"},{"name":"name","type":"string","value":"Cocina"},{"name":"startsUnlocked","type":"bool","value":false},{"name":"interior","type":"bool","value":true},{"name":"openSpawns","type":"bool","value":false}]},{"id":32,"rotation":0,"visible":true,"name":"cocina","type":"zone","x":1824,"y":736,"width":64,"height":192,"properties":[{"name":"id","type":"string","value":"cocina"},{"name":"name","type":"string","value":"Cocina"},{"name":"startsUnlocked","type":"bool","value":false},{"name":"interior","type":"bool","value":true},{"name":"openSpawns","type":"bool","value":false}]},{"id":33,"rotation":0,"visible":true,"name":"cocina","type":"zone","x":1728,"y":800,"width":32,"height":64,"properties":[{"name":"id","type":"string","value":"cocina"},{"name":"name","type":"string","value":"Cocina"},{"name":"startsUnlocked","type":"bool","value":false},{"name":"interior","type":"bool","value":true},{"name":"openSpawns","type":"bool","value":false}]},{"id":34,"rotation":0,"visible":true,"name":"garaje","type":"zone","x":1920,"y":736,"width":192,"height":320,"properties":[{"name":"id","type":"string","value":"garaje"},{"name":"name","type":"string","value":"Garaje"},{"name":"startsUnlocked","type":"bool","value":false},{"name":"interior","type":"bool","value":true},{"name":"openSpawns","type":"bool","value":false}]},{"id":35,"rotation":0,"visible":true,"name":"garaje","type":"zone","x":1952,"y":1056,"width":64,"height":352,"properties":[{"name":"id","type":"string","value":"garaje"},{"name":"name","type":"string","value":"Garaje"},{"name":"startsUnlocked","type":"bool","value":false},{"name":"interior","type":"bool","value":true},{"name":"openSpawns","type":"bool","value":false}]},{"id":36,"rotation":0,"visible":true,"name":"garaje","type":"zone","x":1920,"y":1088,"width":32,"height":320,"properties":[{"name":"id","type":"string","value":"garaje"},{"name":"name","type":"string","value":"Garaje"},{"name":"startsUnlocked","type":"bool","value":false},{"name":"interior","type":"bool","value":true},{"name":"openSpawns","type":"bool","value":false}]},{"id":37,"rotation":0,"visible":true,"name":"garaje","type":"zone","x":2016,"y":1088,"width":288,"height":320,"properties":[{"name":"id","type":"string","value":"garaje"},{"name":"name","type":"string","value":"Garaje"},{"name":"startsUnlocked","type":"bool","value":false},{"name":"interior","type":"bool","value":true},{"name":"openSpawns","type":"bool","value":false}]},{"id":38,"rotation":0,"visible":true,"name":"jardin","type":"zone","x":384,"y":96,"width":2144,"height":64,"properties":[{"name":"id","type":"string","value":"jardin"},{"name":"name","type":"string","value":"Jardín trasero"},{"name":"startsUnlocked","type":"bool","value":false},{"name":"interior","type":"bool","value":false},{"name":"openSpawns","type":"bool","value":false}]},{"id":39,"rotation":0,"visible":true,"name":"jardin","type":"zone","x":384,"y":160,"width":1888,"height":352,"properties":[{"name":"id","type":"string","value":"jardin"},{"name":"name","type":"string","value":"Jardín trasero"},{"name":"startsUnlocked","type":"bool","value":false},{"name":"interior","type":"bool","value":false},{"name":"openSpawns","type":"bool","value":false}]},{"id":40,"rotation":0,"visible":true,"name":"jardin","type":"zone","x":2432,"y":160,"width":96,"height":896,"properties":[{"name":"id","type":"string","value":"jardin"},{"name":"name","type":"string","value":"Jardín trasero"},{"name":"startsUnlocked","type":"bool","value":false},{"name":"interior","type":"bool","value":false},{"name":"openSpawns","type":"bool","value":false}]},{"id":41,"rotation":0,"visible":true,"name":"jardin","type":"zone","x":2272,"y":288,"width":160,"height":768,"properties":[{"name":"id","type":"string","value":"jardin"},{"name":"name","type":"string","value":"Jardín trasero"},{"name":"startsUnlocked","type":"bool","value":false},{"name":"interior","type":"bool","value":false},{"name":"openSpawns","type":"bool","value":false}]},{"id":42,"rotation":0,"visible":true,"name":"jardin","type":"zone","x":384,"y":512,"width":320,"height":64,"properties":[{"name":"id","type":"string","value":"jardin"},{"name":"name","type":"string","value":"Jardín trasero"},{"name":"startsUnlocked","type":"bool","value":false},{"name":"interior","type":"bool","value":false},{"name":"openSpawns","type":"bool","value":false}]},{"id":43,"rotation":0,"visible":true,"name":"jardin","type":"zone","x":928,"y":512,"width":192,"height":64,"properties":[{"name":"id","type":"string","value":"jardin"},{"name":"name","type":"string","value":"Jardín trasero"},{"name":"startsUnlocked","type":"bool","value":false},{"name":"interior","type":"bool","value":false},{"name":"openSpawns","type":"bool","value":false}]},{"id":44,"rotation":0,"visible":true,"name":"jardin","type":"zone","x":1376,"y":512,"width":896,"height":64,"properties":[{"name":"id","type":"string","value":"jardin"},{"name":"name","type":"string","value":"Jardín trasero"},{"name":"startsUnlocked","type":"bool","value":false},{"name":"interior","type":"bool","value":false},{"name":"openSpawns","type":"bool","value":false}]},{"id":45,"rotation":0,"visible":true,"name":"jardin","type":"zone","x":384,"y":576,"width":96,"height":448,"properties":[{"name":"id","type":"string","value":"jardin"},{"name":"name","type":"string","value":"Jardín trasero"},{"name":"startsUnlocked","type":"bool","value":false},{"name":"interior","type":"bool","value":false},{"name":"openSpawns","type":"bool","value":false}]},{"id":46,"rotation":0,"visible":true,"name":"jardin","type":"zone","x":1056,"y":576,"width":64,"height":32,"properties":[{"name":"id","type":"string","value":"jardin"},{"name":"name","type":"string","value":"Jardín trasero"},{"name":"startsUnlocked","type":"bool","value":false},{"name":"interior","type":"bool","value":false},{"name":"openSpawns","type":"bool","value":false}]},{"id":47,"rotation":0,"visible":true,"name":"jardin","type":"zone","x":1376,"y":576,"width":352,"height":32,"properties":[{"name":"id","type":"string","value":"jardin"},{"name":"name","type":"string","value":"Jardín trasero"},{"name":"startsUnlocked","type":"bool","value":false},{"name":"interior","type":"bool","value":false},{"name":"openSpawns","type":"bool","value":false}]},{"id":48,"rotation":0,"visible":true,"name":"jardin","type":"zone","x":1920,"y":576,"width":352,"height":128,"properties":[{"name":"id","type":"string","value":"jardin"},{"name":"name","type":"string","value":"Jardín trasero"},{"name":"startsUnlocked","type":"bool","value":false},{"name":"interior","type":"bool","value":false},{"name":"openSpawns","type":"bool","value":false}]},{"id":49,"rotation":0,"visible":true,"name":"jardin","type":"zone","x":1504,"y":608,"width":224,"height":96,"properties":[{"name":"id","type":"string","value":"jardin"},{"name":"name","type":"string","value":"Jardín trasero"},{"name":"startsUnlocked","type":"bool","value":false},{"name":"interior","type":"bool","value":false},{"name":"openSpawns","type":"bool","value":false}]},{"id":50,"rotation":0,"visible":true,"name":"jardin","type":"zone","x":2144,"y":704,"width":128,"height":352,"properties":[{"name":"id","type":"string","value":"jardin"},{"name":"name","type":"string","value":"Jardín trasero"},{"name":"startsUnlocked","type":"bool","value":false},{"name":"interior","type":"bool","value":false},{"name":"openSpawns","type":"bool","value":false}]},{"id":51,"rotation":0,"visible":true,"name":"jardin","type":"zone","x":384,"y":1024,"width":64,"height":192,"properties":[{"name":"id","type":"string","value":"jardin"},{"name":"name","type":"string","value":"Jardín trasero"},{"name":"startsUnlocked","type":"bool","value":false},{"name":"interior","type":"bool","value":false},{"name":"openSpawns","type":"bool","value":false}]},{"id":52,"rotation":0,"visible":true,"name":"jardin","type":"zone","x":448,"y":1152,"width":32,"height":64,"properties":[{"name":"id","type":"string","value":"jardin"},{"name":"name","type":"string","value":"Jardín trasero"},{"name":"startsUnlocked","type":"bool","value":false},{"name":"interior","type":"bool","value":false},{"name":"openSpawns","type":"bool","value":false}]},{"id":53,"rotation":0,"visible":true,"name":"calle","type":"zone","x":0,"y":0,"width":352,"height":2176,"properties":[{"name":"id","type":"string","value":"calle"},{"name":"name","type":"string","value":"Calle delantera"},{"name":"startsUnlocked","type":"bool","value":false},{"name":"interior","type":"bool","value":false},{"name":"openSpawns","type":"bool","value":true}]},{"id":54,"rotation":0,"visible":true,"name":"calle","type":"zone","x":2336,"y":1088,"width":192,"height":960,"properties":[{"name":"id","type":"string","value":"calle"},{"name":"name","type":"string","value":"Calle delantera"},{"name":"startsUnlocked","type":"bool","value":false},{"name":"interior","type":"bool","value":false},{"name":"openSpawns","type":"bool","value":true}]},{"id":55,"rotation":0,"visible":true,"name":"calle","type":"zone","x":352,"y":1248,"width":256,"height":800,"properties":[{"name":"id","type":"string","value":"calle"},{"name":"name","type":"string","value":"Calle delantera"},{"name":"startsUnlocked","type":"bool","value":false},{"name":"interior","type":"bool","value":false},{"name":"openSpawns","type":"bool","value":true}]},{"id":56,"rotation":0,"visible":true,"name":"calle","type":"zone","x":1376,"y":1312,"width":224,"height":736,"properties":[{"name":"id","type":"string","value":"calle"},{"name":"name","type":"string","value":"Calle delantera"},{"name":"startsUnlocked","type":"bool","value":false},{"name":"interior","type":"bool","value":false},{"name":"openSpawns","type":"bool","value":true}]},{"id":57,"rotation":0,"visible":true,"name":"calle","type":"zone","x":1824,"y":1312,"width":64,"height":736,"properties":[{"name":"id","type":"string","value":"calle"},{"name":"name","type":"string","value":"Calle delantera"},{"name":"startsUnlocked","type":"bool","value":false},{"name":"interior","type":"bool","value":false},{"name":"openSpawns","type":"bool","value":true}]},{"id":58,"rotation":0,"visible":true,"name":"calle","type":"zone","x":1024,"y":1344,"width":352,"height":32,"properties":[{"name":"id","type":"string","value":"calle"},{"name":"name","type":"string","value":"Calle delantera"},{"name":"startsUnlocked","type":"bool","value":false},{"name":"interior","type":"bool","value":false},{"name":"openSpawns","type":"bool","value":true}]},{"id":59,"rotation":0,"visible":true,"name":"calle","type":"zone","x":608,"y":1376,"width":416,"height":672,"properties":[{"name":"id","type":"string","value":"calle"},{"name":"name","type":"string","value":"Calle delantera"},{"name":"startsUnlocked","type":"bool","value":false},{"name":"interior","type":"bool","value":false},{"name":"openSpawns","type":"bool","value":true}]},{"id":60,"rotation":0,"visible":true,"name":"calle","type":"zone","x":1056,"y":1376,"width":288,"height":672,"properties":[{"name":"id","type":"string","value":"calle"},{"name":"name","type":"string","value":"Calle delantera"},{"name":"startsUnlocked","type":"bool","value":false},{"name":"interior","type":"bool","value":false},{"name":"openSpawns","type":"bool","value":true}]},{"id":61,"rotation":0,"visible":true,"name":"calle","type":"zone","x":1600,"y":1376,"width":224,"height":672,"properties":[{"name":"id","type":"string","value":"calle"},{"name":"name","type":"string","value":"Calle delantera"},{"name":"startsUnlocked","type":"bool","value":false},{"name":"interior","type":"bool","value":false},{"name":"openSpawns","type":"bool","value":true}]},{"id":62,"rotation":0,"visible":true,"name":"calle","type":"zone","x":1024,"y":1408,"width":32,"height":640,"properties":[{"name":"id","type":"string","value":"calle"},{"name":"name","type":"string","value":"Calle delantera"},{"name":"startsUnlocked","type":"bool","value":false},{"name":"interior","type":"bool","value":false},{"name":"openSpawns","type":"bool","value":true}]},{"id":63,"rotation":0,"visible":true,"name":"calle","type":"zone","x":1344,"y":1408,"width":32,"height":640,"properties":[{"name":"id","type":"string","value":"calle"},{"name":"name","type":"string","value":"Calle delantera"},{"name":"startsUnlocked","type":"bool","value":false},{"name":"interior","type":"bool","value":false},{"name":"openSpawns","type":"bool","value":true}]},{"id":64,"rotation":0,"visible":true,"name":"calle","type":"zone","x":1888,"y":1440,"width":448,"height":608,"properties":[{"name":"id","type":"string","value":"calle"},{"name":"name","type":"string","value":"Calle delantera"},{"name":"startsUnlocked","type":"bool","value":false},{"name":"interior","type":"bool","value":false},{"name":"openSpawns","type":"bool","value":true}]},{"id":65,"rotation":0,"visible":true,"name":"calle","type":"zone","x":2528,"y":1632,"width":672,"height":416,"properties":[{"name":"id","type":"string","value":"calle"},{"name":"name","type":"string","value":"Calle delantera"},{"name":"startsUnlocked","type":"bool","value":false},{"name":"interior","type":"bool","value":false},{"name":"openSpawns","type":"bool","value":true}]},{"id":66,"rotation":0,"visible":true,"name":"sotano","type":"zone","x":2656,"y":832,"width":320,"height":320,"properties":[{"name":"id","type":"string","value":"sotano"},{"name":"name","type":"string","value":"Sótano"},{"name":"startsUnlocked","type":"bool","value":false},{"name":"interior","type":"bool","value":true},{"name":"openSpawns","type":"bool","value":false}]},{"id":67,"rotation":0,"visible":true,"name":"sotano","type":"zone","x":3008,"y":832,"width":160,"height":160,"properties":[{"name":"id","type":"string","value":"sotano"},{"name":"name","type":"string","value":"Sótano"},{"name":"startsUnlocked","type":"bool","value":false},{"name":"interior","type":"bool","value":true},{"name":"openSpawns","type":"bool","value":false}]},{"id":68,"rotation":0,"visible":true,"name":"sotano","type":"zone","x":2976,"y":864,"width":32,"height":64,"properties":[{"name":"id","type":"string","value":"sotano"},{"name":"name","type":"string","value":"Sótano"},{"name":"startsUnlocked","type":"bool","value":false},{"name":"interior","type":"bool","value":true},{"name":"openSpawns","type":"bool","value":false}]},{"id":69,"rotation":0,"visible":true,"name":"sotano","type":"zone","x":3072,"y":992,"width":64,"height":192,"properties":[{"name":"id","type":"string","value":"sotano"},{"name":"name","type":"string","value":"Sótano"},{"name":"startsUnlocked","type":"bool","value":false},{"name":"interior","type":"bool","value":true},{"name":"openSpawns","type":"bool","value":false}]},{"id":70,"rotation":0,"visible":true,"name":"sotano","type":"zone","x":3008,"y":1024,"width":64,"height":160,"properties":[{"name":"id","type":"string","value":"sotano"},{"name":"name","type":"string","value":"Sótano"},{"name":"startsUnlocked","type":"bool","value":false},{"name":"interior","type":"bool","value":true},{"name":"openSpawns","type":"bool","value":false}]},{"id":71,"rotation":0,"visible":true,"name":"sotano","type":"zone","x":3136,"y":1024,"width":32,"height":160,"properties":[{"name":"id","type":"string","value":"sotano"},{"name":"name","type":"string","value":"Sótano"},{"name":"startsUnlocked","type":"bool","value":false},{"name":"interior","type":"bool","value":true},{"name":"openSpawns","type":"bool","value":false}]},{"id":72,"rotation":0,"visible":true,"name":"sotano","type":"zone","x":2976,"y":1056,"width":32,"height":64,"properties":[{"name":"id","type":"string","value":"sotano"},{"name":"name","type":"string","value":"Sótano"},{"name":"startsUnlocked","type":"bool","value":false},{"name":"interior","type":"bool","value":true},{"name":"openSpawns","type":"bool","value":false}]},{"id":73,"rotation":0,"visible":true,"name":"sotano","type":"zone","x":2656,"y":1152,"width":192,"height":256,"properties":[{"name":"id","type":"string","value":"sotano"},{"name":"name","type":"string","value":"Sótano"},{"name":"startsUnlocked","type":"bool","value":false},{"name":"interior","type":"bool","value":true},{"name":"openSpawns","type":"bool","value":false}]},{"id":74,"rotation":0,"visible":true,"name":"sotano","type":"zone","x":3040,"y":1184,"width":64,"height":224,"properties":[{"name":"id","type":"string","value":"sotano"},{"name":"name","type":"string","value":"Sótano"},{"name":"startsUnlocked","type":"bool","value":false},{"name":"interior","type":"bool","value":true},{"name":"openSpawns","type":"bool","value":false}]},{"id":75,"rotation":0,"visible":true,"name":"sotano","type":"zone","x":2880,"y":1216,"width":160,"height":192,"properties":[{"name":"id","type":"string","value":"sotano"},{"name":"name","type":"string","value":"Sótano"},{"name":"startsUnlocked","type":"bool","value":false},{"name":"interior","type":"bool","value":true},{"name":"openSpawns","type":"bool","value":false}]},{"id":76,"rotation":0,"visible":true,"name":"sotano","type":"zone","x":3104,"y":1216,"width":64,"height":192,"properties":[{"name":"id","type":"string","value":"sotano"},{"name":"name","type":"string","value":"Sótano"},{"name":"startsUnlocked","type":"bool","value":false},{"name":"interior","type":"bool","value":true},{"name":"openSpawns","type":"bool","value":false}]},{"id":77,"rotation":0,"visible":true,"name":"sotano","type":"zone","x":2848,"y":1248,"width":32,"height":64,"properties":[{"name":"id","type":"string","value":"sotano"},{"name":"name","type":"string","value":"Sótano"},{"name":"startsUnlocked","type":"bool","value":false},{"name":"interior","type":"bool","value":true},{"name":"openSpawns","type":"bool","value":false}]},{"id":78,"rotation":0,"visible":true,"name":"azotea","type":"zone","x":2656,"y":96,"width":320,"height":160,"properties":[{"name":"id","type":"string","value":"azotea"},{"name":"name","type":"string","value":"Azotea"},{"name":"startsUnlocked","type":"bool","value":false},{"name":"interior","type":"bool","value":false},{"name":"openSpawns","type":"bool","value":true}]},{"id":79,"rotation":0,"visible":true,"name":"azotea","type":"zone","x":2656,"y":256,"width":96,"height":384,"properties":[{"name":"id","type":"string","value":"azotea"},{"name":"name","type":"string","value":"Azotea"},{"name":"startsUnlocked","type":"bool","value":false},{"name":"interior","type":"bool","value":false},{"name":"openSpawns","type":"bool","value":true}]},{"id":80,"rotation":0,"visible":true,"name":"azotea","type":"zone","x":2816,"y":256,"width":160,"height":96,"properties":[{"name":"id","type":"string","value":"azotea"},{"name":"name","type":"string","value":"Azotea"},{"name":"startsUnlocked","type":"bool","value":false},{"name":"interior","type":"bool","value":false},{"name":"openSpawns","type":"bool","value":true}]},{"id":81,"rotation":0,"visible":true,"name":"azotea","type":"zone","x":2976,"y":288,"width":192,"height":160,"properties":[{"name":"id","type":"string","value":"azotea"},{"name":"name","type":"string","value":"Azotea"},{"name":"startsUnlocked","type":"bool","value":false},{"name":"interior","type":"bool","value":false},{"name":"openSpawns","type":"bool","value":true}]},{"id":82,"rotation":0,"visible":true,"name":"azotea","type":"zone","x":2752,"y":320,"width":64,"height":320,"properties":[{"name":"id","type":"string","value":"azotea"},{"name":"name","type":"string","value":"Azotea"},{"name":"startsUnlocked","type":"bool","value":false},{"name":"interior","type":"bool","value":false},{"name":"openSpawns","type":"bool","value":true}]},{"id":83,"rotation":0,"visible":true,"name":"azotea","type":"zone","x":2816,"y":352,"width":32,"height":288,"properties":[{"name":"id","type":"string","value":"azotea"},{"name":"name","type":"string","value":"Azotea"},{"name":"startsUnlocked","type":"bool","value":false},{"name":"interior","type":"bool","value":false},{"name":"openSpawns","type":"bool","value":true}]},{"id":84,"rotation":0,"visible":true,"name":"azotea","type":"zone","x":2944,"y":352,"width":32,"height":288,"properties":[{"name":"id","type":"string","value":"azotea"},{"name":"name","type":"string","value":"Azotea"},{"name":"startsUnlocked","type":"bool","value":false},{"name":"interior","type":"bool","value":false},{"name":"openSpawns","type":"bool","value":true}]},{"id":85,"rotation":0,"visible":true,"name":"azotea","type":"zone","x":2848,"y":416,"width":96,"height":224,"properties":[{"name":"id","type":"string","value":"azotea"},{"name":"name","type":"string","value":"Azotea"},{"name":"startsUnlocked","type":"bool","value":false},{"name":"interior","type":"bool","value":false},{"name":"openSpawns","type":"bool","value":true}]},{"id":86,"rotation":0,"visible":true,"name":"azotea","type":"zone","x":3040,"y":448,"width":128,"height":192,"properties":[{"name":"id","type":"string","value":"azotea"},{"name":"name","type":"string","value":"Azotea"},{"name":"startsUnlocked","type":"bool","value":false},{"name":"interior","type":"bool","value":false},{"name":"openSpawns","type":"bool","value":true}]},{"id":87,"rotation":0,"visible":true,"name":"azotea","type":"zone","x":2976,"y":512,"width":64,"height":128,"properties":[{"name":"id","type":"string","value":"azotea"},{"name":"name","type":"string","value":"Azotea"},{"name":"startsUnlocked","type":"bool","value":false},{"name":"interior","type":"bool","value":false},{"name":"openSpawns","type":"bool","value":true}]},{"id":88,"rotation":0,"visible":true,"name":"player","type":"player_spawn","point":true,"x":1264,"y":1008,"width":0,"height":0},{"id":89,"rotation":0,"visible":true,"name":"W1","type":"window","x":1248,"y":1312,"width":32,"height":32,"properties":[{"name":"id","type":"string","value":"W1"},{"name":"zone","type":"string","value":"recibidor"},{"name":"planks","type":"int","value":5},{"name":"kind","type":"string","value":"window"}]},{"id":90,"rotation":0,"visible":true,"name":"spawn_W1","type":"zombie_spawn","point":true,"x":1264,"y":1392,"width":0,"height":0,"properties":[{"name":"window","type":"string","value":"W1"}]},{"id":91,"rotation":0,"visible":true,"name":"W2","type":"window","x":1408,"y":1280,"width":32,"height":32,"properties":[{"name":"id","type":"string","value":"W2"},{"name":"zone","type":"string","value":"recibidor"},{"name":"planks","type":"int","value":5},{"name":"kind","type":"string","value":"window"}]},{"id":92,"rotation":0,"visible":true,"name":"spawn_W2","type":"zombie_spawn","point":true,"x":1424,"y":1360,"width":0,"height":0,"properties":[{"name":"window","type":"string","value":"W2"}]},{"id":93,"rotation":0,"visible":true,"name":"W3","type":"window","x":480,"y":992,"width":32,"height":32,"properties":[{"name":"id","type":"string","value":"W3"},{"name":"zone","type":"string","value":"salon"},{"name":"planks","type":"int","value":5},{"name":"kind","type":"string","value":"window"}]},{"id":94,"rotation":0,"visible":true,"name":"spawn_W3","type":"zombie_spawn","point":true,"x":432,"y":1008,"width":0,"height":0,"properties":[{"name":"window","type":"string","value":"W3"}]},{"id":95,"rotation":0,"visible":true,"name":"W4","type":"window","x":480,"y":1152,"width":32,"height":32,"properties":[{"name":"id","type":"string","value":"W4"},{"name":"zone","type":"string","value":"salon"},{"name":"planks","type":"int","value":5},{"name":"kind","type":"string","value":"window"}]},{"id":96,"rotation":0,"visible":true,"name":"spawn_W4","type":"zombie_spawn","point":true,"x":432,"y":1168,"width":0,"height":0,"properties":[{"name":"window","type":"string","value":"W4"}]},{"id":97,"rotation":0,"visible":true,"name":"W5","type":"window","x":896,"y":1344,"width":32,"height":32,"properties":[{"name":"id","type":"string","value":"W5"},{"name":"zone","type":"string","value":"salon"},{"name":"planks","type":"int","value":5},{"name":"kind","type":"string","value":"window"}]},{"id":98,"rotation":0,"visible":true,"name":"spawn_W5","type":"zombie_spawn","point":true,"x":912,"y":1424,"width":0,"height":0,"properties":[{"name":"window","type":"string","value":"W5"}]},{"id":99,"rotation":0,"visible":true,"name":"W6","type":"window","x":1696,"y":1344,"width":32,"height":32,"properties":[{"name":"id","type":"string","value":"W6"},{"name":"zone","type":"string","value":"comedor"},{"name":"planks","type":"int","value":5},{"name":"kind","type":"string","value":"window"}]},{"id":100,"rotation":0,"visible":true,"name":"spawn_W6","type":"zombie_spawn","point":true,"x":1712,"y":1424,"width":0,"height":0,"properties":[{"name":"window","type":"string","value":"W6"}]},{"id":101,"rotation":0,"visible":true,"name":"W7","type":"window","x":1824,"y":1280,"width":32,"height":32,"properties":[{"name":"id","type":"string","value":"W7"},{"name":"zone","type":"string","value":"comedor"},{"name":"planks","type":"int","value":5},{"name":"kind","type":"string","value":"window"}]},{"id":102,"rotation":0,"visible":true,"name":"spawn_W7","type":"zombie_spawn","point":true,"x":1840,"y":1360,"width":0,"height":0,"properties":[{"name":"window","type":"string","value":"W7"}]},{"id":103,"rotation":0,"visible":true,"name":"W8","type":"window","x":480,"y":672,"width":32,"height":32,"properties":[{"name":"id","type":"string","value":"W8"},{"name":"zone","type":"string","value":"biblioteca"},{"name":"planks","type":"int","value":5},{"name":"kind","type":"string","value":"window"}]},{"id":104,"rotation":0,"visible":true,"name":"spawn_W8","type":"zombie_spawn","point":true,"x":432,"y":688,"width":0,"height":0,"properties":[{"name":"window","type":"string","value":"W8"}]},{"id":105,"rotation":0,"visible":true,"name":"W9","type":"window","x":960,"y":576,"width":32,"height":32,"properties":[{"name":"id","type":"string","value":"W9"},{"name":"zone","type":"string","value":"biblioteca"},{"name":"planks","type":"int","value":5},{"name":"kind","type":"string","value":"window"}]},{"id":106,"rotation":0,"visible":true,"name":"spawn_W9","type":"zombie_spawn","point":true,"x":976,"y":528,"width":0,"height":0,"properties":[{"name":"window","type":"string","value":"W9"}]},{"id":107,"rotation":0,"visible":true,"name":"W10","type":"window","x":1280,"y":512,"width":32,"height":32,"properties":[{"name":"id","type":"string","value":"W10"},{"name":"zone","type":"string","value":"cocina"},{"name":"planks","type":"int","value":5},{"name":"kind","type":"string","value":"window"}]},{"id":108,"rotation":0,"visible":true,"name":"spawn_W10","type":"zombie_spawn","point":true,"x":1296,"y":464,"width":0,"height":0,"properties":[{"name":"window","type":"string","value":"W10"}]},{"id":109,"rotation":0,"visible":true,"name":"W11","type":"window","x":1632,"y":704,"width":32,"height":32,"properties":[{"name":"id","type":"string","value":"W11"},{"name":"zone","type":"string","value":"cocina"},{"name":"planks","type":"int","value":5},{"name":"kind","type":"string","value":"window"}]},{"id":110,"rotation":0,"visible":true,"name":"spawn_W11","type":"zombie_spawn","point":true,"x":1648,"y":656,"width":0,"height":0,"properties":[{"name":"window","type":"string","value":"W11"}]},{"id":111,"rotation":0,"visible":true,"name":"W12","type":"window","x":2304,"y":1216,"width":32,"height":32,"properties":[{"name":"id","type":"string","value":"W12"},{"name":"zone","type":"string","value":"garaje"},{"name":"planks","type":"int","value":5},{"name":"kind","type":"string","value":"window"}]},{"id":112,"rotation":0,"visible":true,"name":"spawn_W12","type":"zombie_spawn","point":true,"x":2384,"y":1232,"width":0,"height":0,"properties":[{"name":"window","type":"string","value":"W12"}]},{"id":113,"rotation":0,"visible":true,"name":"W13","type":"window","x":2016,"y":704,"width":32,"height":32,"properties":[{"name":"id","type":"string","value":"W13"},{"name":"zone","type":"string","value":"garaje"},{"name":"planks","type":"int","value":5},{"name":"kind","type":"string","value":"window"}]},{"id":114,"rotation":0,"visible":true,"name":"spawn_W13","type":"zombie_spawn","point":true,"x":2032,"y":656,"width":0,"height":0,"properties":[{"name":"window","type":"string","value":"W13"}]},{"id":115,"rotation":0,"visible":true,"name":"F1","type":"window","x":736,"y":64,"width":32,"height":32,"properties":[{"name":"id","type":"string","value":"F1"},{"name":"zone","type":"string","value":"jardin"},{"name":"planks","type":"int","value":5},{"name":"kind","type":"string","value":"fence"}]},{"id":116,"rotation":0,"visible":true,"name":"spawn_F1","type":"zombie_spawn","point":true,"x":752,"y":16,"width":0,"height":0,"properties":[{"name":"window","type":"string","value":"F1"}]},{"id":117,"rotation":0,"visible":true,"name":"F2","type":"window","x":1952,"y":64,"width":32,"height":32,"properties":[{"name":"id","type":"string","value":"F2"},{"name":"zone","type":"string","value":"jardin"},{"name":"planks","type":"int","value":5},{"name":"kind","type":"string","value":"fence"}]},{"id":118,"rotation":0,"visible":true,"name":"spawn_F2","type":"zombie_spawn","point":true,"x":1968,"y":16,"width":0,"height":0,"properties":[{"name":"window","type":"string","value":"F2"}]},{"id":119,"rotation":0,"visible":true,"name":"F3","type":"window","x":352,"y":320,"width":32,"height":32,"properties":[{"name":"id","type":"string","value":"F3"},{"name":"zone","type":"string","value":"jardin"},{"name":"planks","type":"int","value":5},{"name":"kind","type":"string","value":"fence"}]},{"id":120,"rotation":0,"visible":true,"name":"spawn_F3","type":"zombie_spawn","point":true,"x":304,"y":336,"width":0,"height":0,"properties":[{"name":"window","type":"string","value":"F3"}]},{"id":121,"rotation":0,"visible":true,"name":"S1","type":"window","x":2784,"y":800,"width":32,"height":32,"properties":[{"name":"id","type":"string","value":"S1"},{"name":"zone","type":"string","value":"sotano"},{"name":"planks","type":"int","value":5},{"name":"kind","type":"string","value":"window"}]},{"id":122,"rotation":0,"visible":true,"name":"spawn_S1","type":"zombie_spawn","point":true,"x":2800,"y":752,"width":0,"height":0,"properties":[{"name":"window","type":"string","value":"S1"}]},{"id":123,"rotation":0,"visible":true,"name":"S2","type":"window","x":3040,"y":1408,"width":32,"height":32,"properties":[{"name":"id","type":"string","value":"S2"},{"name":"zone","type":"string","value":"sotano"},{"name":"planks","type":"int","value":5},{"name":"kind","type":"string","value":"window"}]},{"id":124,"rotation":0,"visible":true,"name":"spawn_S2","type":"zombie_spawn","point":true,"x":3056,"y":1488,"width":0,"height":0,"properties":[{"name":"window","type":"string","value":"S2"}]},{"id":125,"rotation":0,"visible":true,"name":"O1","type":"zombie_spawn","point":true,"x":112,"y":1296,"width":0,"height":0},{"id":126,"rotation":0,"visible":true,"name":"O2","type":"zombie_spawn","point":true,"x":2224,"y":2000,"width":0,"height":0},{"id":127,"rotation":0,"visible":true,"name":"O3","type":"zombie_spawn","point":true,"x":2736,"y":144,"width":0,"height":0},{"id":128,"rotation":0,"visible":true,"name":"O4","type":"zombie_spawn","point":true,"x":2928,"y":144,"width":0,"height":0},{"id":129,"rotation":0,"visible":true,"name":"O5","type":"zombie_spawn","point":true,"x":3120,"y":400,"width":0,"height":0},{"id":130,"rotation":0,"visible":true,"name":"D1","type":"door","x":1024,"y":1216,"width":32,"height":64,"properties":[{"name":"id","type":"string","value":"D1"},{"name":"cost","type":"int","value":750},{"name":"fromZone","type":"string","value":"recibidor"},{"name":"toZone","type":"string","value":"salon"}]},{"id":131,"rotation":0,"visible":true,"name":"D2","type":"door","x":1504,"y":960,"width":32,"height":64,"properties":[{"name":"id","type":"string","value":"D2"},{"name":"cost","type":"int","value":750},{"name":"fromZone","type":"string","value":"recibidor"},{"name":"toZone","type":"string","value":"comedor"}]},{"id":132,"rotation":0,"visible":true,"name":"D3","type":"door","x":544,"y":928,"width":64,"height":32,"properties":[{"name":"id","type":"string","value":"D3"},{"name":"cost","type":"int","value":1000},{"name":"fromZone","type":"string","value":"salon"},{"name":"toZone","type":"string","value":"biblioteca"}]},{"id":133,"rotation":0,"visible":true,"name":"D4","type":"door","x":1568,"y":928,"width":64,"height":32,"properties":[{"name":"id","type":"string","value":"D4"},{"name":"cost","type":"int","value":1000},{"name":"fromZone","type":"string","value":"comedor"},{"name":"toZone","type":"string","value":"cocina"}]},{"id":134,"rotation":0,"visible":true,"name":"D5","type":"door","x":1024,"y":800,"width":32,"height":64,"properties":[{"name":"id","type":"string","value":"D5"},{"name":"cost","type":"int","value":1250},{"name":"fromZone","type":"string","value":"biblioteca"},{"name":"toZone","type":"string","value":"cocina"}]},{"id":135,"rotation":0,"visible":true,"name":"D6","type":"door","x":1888,"y":864,"width":32,"height":64,"properties":[{"name":"id","type":"string","value":"D6"},{"name":"cost","type":"int","value":1250},{"name":"fromZone","type":"string","value":"cocina"},{"name":"toZone","type":"string","value":"garaje"}]},{"id":136,"rotation":0,"visible":true,"name":"D7","type":"door","x":1984,"y":1408,"width":64,"height":32,"properties":[{"name":"id","type":"string","value":"D7"},{"name":"cost","type":"int","value":1250},{"name":"fromZone","type":"string","value":"garaje"},{"name":"toZone","type":"string","value":"calle"}]},{"id":137,"rotation":0,"visible":true,"name":"D8","type":"door","x":1088,"y":1312,"width":64,"height":32,"properties":[{"name":"id","type":"string","value":"D8"},{"name":"cost","type":"int","value":1500},{"name":"fromZone","type":"string","value":"recibidor"},{"name":"toZone","type":"string","value":"calle"}]},{"id":138,"rotation":0,"visible":true,"name":"D9","type":"door","x":1376,"y":608,"width":64,"height":32,"properties":[{"name":"id","type":"string","value":"D9"},{"name":"cost","type":"int","value":1500},{"name":"fromZone","type":"string","value":"cocina"},{"name":"toZone","type":"string","value":"jardin"}]},{"id":139,"rotation":0,"visible":true,"name":"D10","type":"door","x":768,"y":512,"width":64,"height":32,"properties":[{"name":"id","type":"string","value":"D10"},{"name":"cost","type":"int","value":1500},{"name":"fromZone","type":"string","value":"biblioteca"},{"name":"toZone","type":"string","value":"jardin"}]},{"id":140,"rotation":0,"visible":true,"name":"P1a","type":"portal","x":1824,"y":608,"width":64,"height":32,"properties":[{"name":"id","type":"string","value":"P1a"},{"name":"pair","type":"string","value":"P1b"},{"name":"cost","type":"int","value":1750},{"name":"zone","type":"string","value":"cocina"},{"name":"secondary","type":"bool","value":false},{"name":"kind","type":"string","value":"stairs"}]},{"id":141,"rotation":0,"visible":true,"name":"P1b","type":"portal","x":2688,"y":1376,"width":64,"height":32,"properties":[{"name":"id","type":"string","value":"P1b"},{"name":"pair","type":"string","value":"P1a"},{"name":"cost","type":"int","value":1750},{"name":"zone","type":"string","value":"sotano"},{"name":"secondary","type":"bool","value":false},{"name":"kind","type":"string","value":"stairs"}]},{"id":142,"rotation":0,"visible":true,"name":"P2a","type":"portal","x":2144,"y":832,"width":32,"height":64,"properties":[{"name":"id","type":"string","value":"P2a"},{"name":"pair","type":"string","value":"P2b"},{"name":"cost","type":"int","value":2000},{"name":"zone","type":"string","value":"jardin"},{"name":"secondary","type":"bool","value":false},{"name":"kind","type":"string","value":"ladder"}]},{"id":143,"rotation":0,"visible":true,"name":"P2b","type":"portal","x":2688,"y":608,"width":64,"height":32,"properties":[{"name":"id","type":"string","value":"P2b"},{"name":"pair","type":"string","value":"P2a"},{"name":"cost","type":"int","value":2000},{"name":"zone","type":"string","value":"azotea"},{"name":"secondary","type":"bool","value":false},{"name":"kind","type":"string","value":"ladder"}]},{"id":144,"rotation":0,"visible":true,"name":"P3a","type":"portal","x":544,"y":544,"width":64,"height":32,"properties":[{"name":"id","type":"string","value":"P3a"},{"name":"pair","type":"string","value":"P3b"},{"name":"cost","type":"int","value":1000},{"name":"zone","type":"string","value":"jardin"},{"name":"secondary","type":"bool","value":true},{"name":"kind","type":"string","value":"hatch"}]},{"id":145,"rotation":0,"visible":true,"name":"P3b","type":"portal","x":3072,"y":832,"width":64,"height":32,"properties":[{"name":"id","type":"string","value":"P3b"},{"name":"pair","type":"string","value":"P3a"},{"name":"cost","type":"int","value":1000},{"name":"zone","type":"string","value":"sotano"},{"name":"secondary","type":"bool","value":true},{"name":"kind","type":"string","value":"hatch"}]},{"id":146,"rotation":0,"visible":true,"name":"P4a","type":"portal","x":544,"y":1248,"width":64,"height":32,"properties":[{"name":"id","type":"string","value":"P4a"},{"name":"pair","type":"string","value":"P4b"},{"name":"cost","type":"int","value":1250},{"name":"zone","type":"string","value":"calle"},{"name":"secondary","type":"bool","value":true},{"name":"kind","type":"string","value":"ladder"}]},{"id":147,"rotation":0,"visible":true,"name":"P4b","type":"portal","x":3072,"y":608,"width":64,"height":32,"properties":[{"name":"id","type":"string","value":"P4b"},{"name":"pair","type":"string","value":"P4a"},{"name":"cost","type":"int","value":1250},{"name":"zone","type":"string","value":"azotea"},{"name":"secondary","type":"bool","value":true},{"name":"kind","type":"string","value":"ladder"}]}]}],"tilesets":[{"firstgid":1,"name":"tileset_street","tilewidth":32,"tileheight":32,"tilecount":20,"columns":5,"image":"../tiles/tileset_street.png","imagewidth":160,"imageheight":128,"margin":0,"spacing":0,"tiles":[{"id":0,"properties":[{"name":"terrain_corners","type":"string","value":"1110"}]},{"id":1,"properties":[{"name":"terrain_corners","type":"string","value":"1100"}]},{"id":2,"properties":[{"name":"terrain_corners","type":"string","value":"1101"}]},{"id":3,"properties":[{"name":"terrain_corners","type":"string","value":"0001"}]},{"id":4,"properties":[{"name":"terrain_corners","type":"string","value":"0010"}]},{"id":5,"properties":[{"name":"terrain_corners","type":"string","value":"1010"}]},{"id":6,"properties":[{"name":"terrain_corners","type":"string","value":"0000"}]},{"id":7,"properties":[{"name":"terrain_corners","type":"string","value":"0101"}]},{"id":8,"properties":[{"name":"terrain_corners","type":"string","value":"0100"}]},{"id":9,"properties":[{"name":"terrain_corners","type":"string","value":"1000"}]},{"id":10,"properties":[{"name":"terrain_corners","type":"string","value":"1011"}]},{"id":11,"properties":[{"name":"terrain_corners","type":"string","value":"0011"}]},{"id":12,"properties":[{"name":"terrain_corners","type":"string","value":"0111"}]},{"id":13,"properties":[{"name":"terrain_corners","type":"string","value":"0110"}]},{"id":14,"properties":[{"name":"terrain_corners","type":"string","value":"1001"}]},{"id":15,"properties":[{"name":"terrain_corners","type":"string","value":"0000"}]},{"id":16,"properties":[{"name":"terrain_corners","type":"string","value":"1111"}]}],"wangsets":[{"name":"asfalto-acera","type":"corner","tile":-1,"colors":[{"name":"asfalto","color":"#584f49","probability":1,"tile":-1},{"name":"acera","color":"#7f7869","probability":1,"tile":-1}],"wangtiles":[{"tileid":0,"wangid":[0,2,0,1,0,2,0,2]},{"tileid":1,"wangid":[0,2,0,1,0,1,0,2]},{"tileid":2,"wangid":[0,2,0,2,0,1,0,2]},{"tileid":3,"wangid":[0,1,0,2,0,1,0,1]},{"tileid":4,"wangid":[0,1,0,1,0,2,0,1]},{"tileid":5,"wangid":[0,1,0,1,0,2,0,2]},{"tileid":6,"wangid":[0,1,0,1,0,1,0,1]},{"tileid":7,"wangid":[0,2,0,2,0,1,0,1]},{"tileid":8,"wangid":[0,2,0,1,0,1,0,1]},{"tileid":9,"wangid":[0,1,0,1,0,1,0,2]},{"tileid":10,"wangid":[0,1,0,2,0,2,0,2]},{"tileid":11,"wangid":[0,1,0,2,0,2,0,1]},{"tileid":12,"wangid":[0,2,0,2,0,2,0,1]},{"tileid":13,"wangid":[0,2,0,1,0,2,0,1]},{"tileid":14,"wangid":[0,1,0,2,0,1,0,2]},{"tileid":15,"wangid":[0,1,0,1,0,1,0,1]},{"tileid":16,"wangid":[0,2,0,2,0,2,0,2]}]}]},{"firstgid":21,"name":"tileset_pool","tilewidth":32,"tileheight":32,"tilecount":20,"columns":5,"image":"../tiles/tileset_pool.png","imagewidth":160,"imageheight":128,"margin":0,"spacing":0,"tiles":[{"id":0,"properties":[{"name":"terrain_corners","type":"string","value":"1110"}]},{"id":1,"properties":[{"name":"terrain_corners","type":"string","value":"1100"},{"name":"water","type":"bool","value":true}]},{"id":2,"properties":[{"name":"terrain_corners","type":"string","value":"1101"}]},{"id":3,"properties":[{"name":"terrain_corners","type":"string","value":"0001"},{"name":"water","type":"bool","value":true}]},{"id":4,"properties":[{"name":"terrain_corners","type":"string","value":"0010"},{"name":"water","type":"bool","value":true}]},{"id":5,"properties":[{"name":"terrain_corners","type":"string","value":"1010"},{"name":"water","type":"bool","value":true}]},{"id":6,"properties":[{"name":"terrain_corners","type":"string","value":"0000"},{"name":"water","type":"bool","value":true}]},{"id":7,"properties":[{"name":"terrain_corners","type":"string","value":"0101"},{"name":"water","type":"bool","value":true}]},{"id":8,"properties":[{"name":"terrain_corners","type":"string","value":"0100"},{"name":"water","type":"bool","value":true}]},{"id":9,"properties":[{"name":"terrain_corners","type":"string","value":"1000"},{"name":"water","type":"bool","value":true}]},{"id":10,"properties":[{"name":"terrain_corners","type":"string","value":"1011"}]},{"id":11,"properties":[{"name":"terrain_corners","type":"string","value":"0011"},{"name":"water","type":"bool","value":true}]},{"id":12,"properties":[{"name":"terrain_corners","type":"string","value":"0111"}]},{"id":13,"properties":[{"name":"terrain_corners","type":"string","value":"0110"},{"name":"water","type":"bool","value":true}]},{"id":14,"properties":[{"name":"terrain_corners","type":"string","value":"1001"},{"name":"water","type":"bool","value":true}]},{"id":15,"properties":[{"name":"terrain_corners","type":"string","value":"0000"},{"name":"water","type":"bool","value":true}]},{"id":16,"properties":[{"name":"terrain_corners","type":"string","value":"1111"}]}],"wangsets":[{"name":"agua-cubierta","type":"corner","tile":-1,"colors":[{"name":"agua","color":"#2b452d","probability":1,"tile":-1},{"name":"cubierta","color":"#948065","probability":1,"tile":-1}],"wangtiles":[{"tileid":0,"wangid":[0,2,0,1,0,2,0,2]},{"tileid":1,"wangid":[0,2,0,1,0,1,0,2]},{"tileid":2,"wangid":[0,2,0,2,0,1,0,2]},{"tileid":3,"wangid":[0,1,0,2,0,1,0,1]},{"tileid":4,"wangid":[0,1,0,1,0,2,0,1]},{"tileid":5,"wangid":[0,1,0,1,0,2,0,2]},{"tileid":6,"wangid":[0,1,0,1,0,1,0,1]},{"tileid":7,"wangid":[0,2,0,2,0,1,0,1]},{"tileid":8,"wangid":[0,2,0,1,0,1,0,1]},{"tileid":9,"wangid":[0,1,0,1,0,1,0,2]},{"tileid":10,"wangid":[0,1,0,2,0,2,0,2]},{"tileid":11,"wangid":[0,1,0,2,0,2,0,1]},{"tileid":12,"wangid":[0,2,0,2,0,2,0,1]},{"tileid":13,"wangid":[0,2,0,1,0,2,0,1]},{"tileid":14,"wangid":[0,1,0,2,0,1,0,2]},{"tileid":15,"wangid":[0,1,0,1,0,1,0,1]},{"tileid":16,"wangid":[0,2,0,2,0,2,0,2]}]}]},{"firstgid":41,"name":"tileset_garden","tilewidth":32,"tileheight":32,"tilecount":20,"columns":5,"image":"../tiles/tileset_garden.png","imagewidth":160,"imageheight":128,"margin":0,"spacing":0,"tiles":[{"id":0,"properties":[{"name":"terrain_corners","type":"string","value":"1110"}]},{"id":1,"properties":[{"name":"terrain_corners","type":"string","value":"1100"}]},{"id":2,"properties":[{"name":"terrain_corners","type":"string","value":"1101"}]},{"id":3,"properties":[{"name":"terrain_corners","type":"string","value":"0001"}]},{"id":4,"properties":[{"name":"terrain_corners","type":"string","value":"0010"}]},{"id":5,"properties":[{"name":"terrain_corners","type":"string","value":"1010"}]},{"id":6,"properties":[{"name":"terrain_corners","type":"string","value":"0000"}]},{"id":7,"properties":[{"name":"terrain_corners","type":"string","value":"0101"}]},{"id":8,"properties":[{"name":"terrain_corners","type":"string","value":"0100"}]},{"id":9,"properties":[{"name":"terrain_corners","type":"string","value":"1000"}]},{"id":10,"properties":[{"name":"terrain_corners","type":"string","value":"1011"}]},{"id":11,"properties":[{"name":"terrain_corners","type":"string","value":"0011"}]},{"id":12,"properties":[{"name":"terrain_corners","type":"string","value":"0111"}]},{"id":13,"properties":[{"name":"terrain_corners","type":"string","value":"0110"}]},{"id":14,"properties":[{"name":"terrain_corners","type":"string","value":"1001"}]},{"id":15,"properties":[{"name":"terrain_corners","type":"string","value":"0000"}]},{"id":16,"properties":[{"name":"terrain_corners","type":"string","value":"1111"}]}],"wangsets":[{"name":"patio-cesped","type":"corner","tile":-1,"colors":[{"name":"patio","color":"#747269","probability":1,"tile":-1},{"name":"cesped","color":"#9d8d5f","probability":1,"tile":-1}],"wangtiles":[{"tileid":0,"wangid":[0,2,0,1,0,2,0,2]},{"tileid":1,"wangid":[0,2,0,1,0,1,0,2]},{"tileid":2,"wangid":[0,2,0,2,0,1,0,2]},{"tileid":3,"wangid":[0,1,0,2,0,1,0,1]},{"tileid":4,"wangid":[0,1,0,1,0,2,0,1]},{"tileid":5,"wangid":[0,1,0,1,0,2,0,2]},{"tileid":6,"wangid":[0,1,0,1,0,1,0,1]},{"tileid":7,"wangid":[0,2,0,2,0,1,0,1]},{"tileid":8,"wangid":[0,2,0,1,0,1,0,1]},{"tileid":9,"wangid":[0,1,0,1,0,1,0,2]},{"tileid":10,"wangid":[0,1,0,2,0,2,0,2]},{"tileid":11,"wangid":[0,1,0,2,0,2,0,1]},{"tileid":12,"wangid":[0,2,0,2,0,2,0,1]},{"tileid":13,"wangid":[0,2,0,1,0,2,0,1]},{"tileid":14,"wangid":[0,1,0,2,0,1,0,2]},{"tileid":15,"wangid":[0,1,0,1,0,1,0,1]},{"tileid":16,"wangid":[0,2,0,2,0,2,0,2]}]}]},{"firstgid":61,"name":"floors_interior","tilewidth":32,"tileheight":32,"tilecount":16,"columns":4,"image":"../tiles/floors_interior.png","imagewidth":128,"imageheight":128,"margin":0,"spacing":0,"tiles":[{"id":0,"properties":[{"name":"material","type":"string","value":"madera"}]},{"id":1,"properties":[{"name":"material","type":"string","value":"madera"}]},{"id":2,"properties":[{"name":"material","type":"string","value":"madera"}]},{"id":3,"properties":[{"name":"material","type":"string","value":"madera"}]},{"id":4,"properties":[{"name":"material","type":"string","value":"linoleo"}]},{"id":5,"properties":[{"name":"material","type":"string","value":"linoleo"}]},{"id":6,"properties":[{"name":"material","type":"string","value":"linoleo"}]},{"id":7,"properties":[{"name":"material","type":"string","value":"linoleo"}]},{"id":8,"properties":[{"name":"material","type":"string","value":"bano"}]},{"id":9,"properties":[{"name":"material","type":"string","value":"bano"}]},{"id":10,"properties":[{"name":"material","type":"string","value":"bano"}]},{"id":11,"properties":[{"name":"material","type":"string","value":"bano"}]},{"id":12,"properties":[{"name":"material","type":"string","value":"hormigon"}]},{"id":13,"properties":[{"name":"material","type":"string","value":"hormigon"}]},{"id":14,"properties":[{"name":"material","type":"string","value":"hormigon"}]},{"id":15,"properties":[{"name":"material","type":"string","value":"hormigon"}]}]},{"firstgid":77,"name":"kit_interior","tilewidth":32,"tileheight":48,"tilecount":20,"columns":5,"image":"../tiles/kit_interior.png","imagewidth":160,"imageheight":192,"margin":0,"spacing":0,"objectalignment":"bottomleft","tiles":[{"id":0,"properties":[{"name":"piece","type":"string","value":"floor_persp"}]},{"id":1,"properties":[{"name":"piece","type":"string","value":"wall_h"},{"name":"collides","type":"bool","value":true}]},{"id":2,"properties":[{"name":"piece","type":"string","value":"wall_v_long"},{"name":"collides","type":"bool","value":true}]},{"id":3,"properties":[{"name":"piece","type":"string","value":"wall_v_end"},{"name":"collides","type":"bool","value":true}]},{"id":4,"properties":[{"name":"piece","type":"string","value":"wall_v"},{"name":"collides","type":"bool","value":true}]},{"id":5,"properties":[{"name":"piece","type":"string","value":"door_jamb"},{"name":"collides","type":"bool","value":true}]},{"id":6,"properties":[{"name":"piece","type":"string","value":"pillar"},{"name":"collides","type":"bool","value":true}]},{"id":7,"properties":[{"name":"piece","type":"string","value":"corner_tl"},{"name":"collides","type":"bool","value":true}]},{"id":8,"properties":[{"name":"piece","type":"string","value":"corner_tr"},{"name":"collides","type":"bool","value":true}]},{"id":9,"properties":[{"name":"piece","type":"string","value":"pillar"},{"name":"collides","type":"bool","value":true}]},{"id":10,"properties":[{"name":"piece","type":"string","value":"wall_v_long"},{"name":"collides","type":"bool","value":true}]},{"id":11,"properties":[{"name":"piece","type":"string","value":"wall_low"},{"name":"collides","type":"bool","value":true}]},{"id":12,"properties":[{"name":"piece","type":"string","value":"wall_high"},{"name":"collides","type":"bool","value":true}]},{"id":13,"properties":[{"name":"piece","type":"string","value":"stairs"}]},{"id":14,"properties":[{"name":"piece","type":"string","value":"stairs"}]},{"id":15,"properties":[{"name":"piece","type":"string","value":"roof_persp"}]},{"id":16,"properties":[{"name":"piece","type":"string","value":"pillar"},{"name":"collides","type":"bool","value":true}]},{"id":17,"properties":[{"name":"piece","type":"string","value":"wall_v_long"},{"name":"collides","type":"bool","value":true}]},{"id":18,"properties":[{"name":"piece","type":"string","value":"corner_bl"},{"name":"collides","type":"bool","value":true}]},{"id":19,"properties":[{"name":"piece","type":"string","value":"corner_br"},{"name":"collides","type":"bool","value":true}]}]},{"firstgid":97,"name":"kit_exterior","tilewidth":32,"tileheight":48,"tilecount":20,"columns":5,"image":"../tiles/kit_exterior.png","imagewidth":160,"imageheight":192,"margin":0,"spacing":0,"objectalignment":"bottomleft","tiles":[{"id":0,"properties":[{"name":"piece","type":"string","value":"floor_persp"}]},{"id":1,"properties":[{"name":"piece","type":"string","value":"wall_h"},{"name":"collides","type":"bool","value":true}]},{"id":2,"properties":[{"name":"piece","type":"string","value":"wall_v_long"},{"name":"collides","type":"bool","value":true}]},{"id":3,"properties":[{"name":"piece","type":"string","value":"wall_v_end"},{"name":"collides","type":"bool","value":true}]},{"id":4,"properties":[{"name":"piece","type":"string","value":"wall_v"},{"name":"collides","type":"bool","value":true}]},{"id":5,"properties":[{"name":"piece","type":"string","value":"door_jamb"},{"name":"collides","type":"bool","value":true}]},{"id":6,"properties":[{"name":"piece","type":"string","value":"pillar"},{"name":"collides","type":"bool","value":true}]},{"id":7,"properties":[{"name":"piece","type":"string","value":"corner_tl"},{"name":"collides","type":"bool","value":true}]},{"id":8,"properties":[{"name":"piece","type":"string","value":"corner_tr"},{"name":"collides","type":"bool","value":true}]},{"id":9,"properties":[{"name":"piece","type":"string","value":"pillar"},{"name":"collides","type":"bool","value":true}]},{"id":10,"properties":[{"name":"piece","type":"string","value":"wall_v_long"},{"name":"collides","type":"bool","value":true}]},{"id":11,"properties":[{"name":"piece","type":"string","value":"wall_low"},{"name":"collides","type":"bool","value":true}]},{"id":12,"properties":[{"name":"piece","type":"string","value":"wall_high"},{"name":"collides","type":"bool","value":true}]},{"id":13,"properties":[{"name":"piece","type":"string","value":"stairs"}]},{"id":14,"properties":[{"name":"piece","type":"string","value":"stairs"}]},{"id":15,"properties":[{"name":"piece","type":"string","value":"roof_persp"}]},{"id":16,"properties":[{"name":"piece","type":"string","value":"pillar"},{"name":"collides","type":"bool","value":true}]},{"id":17,"properties":[{"name":"piece","type":"string","value":"wall_v_long"},{"name":"collides","type":"bool","value":true}]},{"id":18,"properties":[{"name":"piece","type":"string","value":"corner_bl"},{"name":"collides","type":"bool","value":true}]},{"id":19,"properties":[{"name":"piece","type":"string","value":"corner_br"},{"name":"collides","type":"bool","value":true}]}]},{"firstgid":117,"name":"kit_basement","tilewidth":32,"tileheight":48,"tilecount":20,"columns":5,"image":"../tiles/kit_basement.png","imagewidth":160,"imageheight":192,"margin":0,"spacing":0,"objectalignment":"bottomleft","tiles":[{"id":0,"properties":[{"name":"piece","type":"string","value":"floor_persp"}]},{"id":1,"properties":[{"name":"piece","type":"string","value":"wall_h"},{"name":"collides","type":"bool","value":true}]},{"id":2,"properties":[{"name":"piece","type":"string","value":"wall_v_long"},{"name":"collides","type":"bool","value":true}]},{"id":3,"properties":[{"name":"piece","type":"string","value":"wall_v_end"},{"name":"collides","type":"bool","value":true}]},{"id":4,"properties":[{"name":"piece","type":"string","value":"wall_v"},{"name":"collides","type":"bool","value":true}]},{"id":5,"properties":[{"name":"piece","type":"string","value":"door_jamb"},{"name":"collides","type":"bool","value":true}]},{"id":6,"properties":[{"name":"piece","type":"string","value":"pillar"},{"name":"collides","type":"bool","value":true}]},{"id":7,"properties":[{"name":"piece","type":"string","value":"corner_tl"},{"name":"collides","type":"bool","value":true}]},{"id":8,"properties":[{"name":"piece","type":"string","value":"corner_tr"},{"name":"collides","type":"bool","value":true}]},{"id":9,"properties":[{"name":"piece","type":"string","value":"pillar"},{"name":"collides","type":"bool","value":true}]},{"id":10,"properties":[{"name":"piece","type":"string","value":"wall_v_long"},{"name":"collides","type":"bool","value":true}]},{"id":11,"properties":[{"name":"piece","type":"string","value":"wall_low"},{"name":"collides","type":"bool","value":true}]},{"id":12,"properties":[{"name":"piece","type":"string","value":"wall_high"},{"name":"collides","type":"bool","value":true}]},{"id":13,"properties":[{"name":"piece","type":"string","value":"stairs"}]},{"id":14,"properties":[{"name":"piece","type":"string","value":"stairs"}]},{"id":15,"properties":[{"name":"piece","type":"string","value":"roof_persp"}]},{"id":16,"properties":[{"name":"piece","type":"string","value":"pillar"},{"name":"collides","type":"bool","value":true}]},{"id":17,"properties":[{"name":"piece","type":"string","value":"wall_v_long"},{"name":"collides","type":"bool","value":true}]},{"id":18,"properties":[{"name":"piece","type":"string","value":"corner_bl"},{"name":"collides","type":"bool","value":true}]},{"id":19,"properties":[{"name":"piece","type":"string","value":"corner_br"},{"name":"collides","type":"bool","value":true}]}]},{"firstgid":137,"name":"kit_fence","tilewidth":32,"tileheight":48,"tilecount":20,"columns":5,"image":"../tiles/kit_fence.png","imagewidth":160,"imageheight":192,"margin":0,"spacing":0,"objectalignment":"bottomleft","tiles":[{"id":0,"properties":[{"name":"piece","type":"string","value":"floor_persp"}]},{"id":1,"properties":[{"name":"piece","type":"string","value":"wall_h"},{"name":"collides","type":"bool","value":true}]},{"id":2,"properties":[{"name":"piece","type":"string","value":"wall_v_long"},{"name":"collides","type":"bool","value":true}]},{"id":3,"properties":[{"name":"piece","type":"string","value":"wall_v_end"},{"name":"collides","type":"bool","value":true}]},{"id":4,"properties":[{"name":"piece","type":"string","value":"wall_v"},{"name":"collides","type":"bool","value":true}]},{"id":5,"properties":[{"name":"piece","type":"string","value":"door_jamb"},{"name":"collides","type":"bool","value":true}]},{"id":6,"properties":[{"name":"piece","type":"string","value":"pillar"},{"name":"collides","type":"bool","value":true}]},{"id":7,"properties":[{"name":"piece","type":"string","value":"corner_tl"},{"name":"collides","type":"bool","value":true}]},{"id":8,"properties":[{"name":"piece","type":"string","value":"corner_tr"},{"name":"collides","type":"bool","value":true}]},{"id":9,"properties":[{"name":"piece","type":"string","value":"pillar"},{"name":"collides","type":"bool","value":true}]},{"id":10,"properties":[{"name":"piece","type":"string","value":"wall_v_long"},{"name":"collides","type":"bool","value":true}]},{"id":11,"properties":[{"name":"piece","type":"string","value":"wall_low"},{"name":"collides","type":"bool","value":true}]},{"id":12,"properties":[{"name":"piece","type":"string","value":"wall_high"},{"name":"collides","type":"bool","value":true}]},{"id":13,"properties":[{"name":"piece","type":"string","value":"stairs"}]},{"id":14,"properties":[{"name":"piece","type":"string","value":"stairs"}]},{"id":15,"properties":[{"name":"piece","type":"string","value":"roof_persp"}]},{"id":16,"properties":[{"name":"piece","type":"string","value":"pillar"},{"name":"collides","type":"bool","value":true}]},{"id":17,"properties":[{"name":"piece","type":"string","value":"wall_v_long"},{"name":"collides","type":"bool","value":true}]},{"id":18,"properties":[{"name":"piece","type":"string","value":"corner_bl"},{"name":"collides","type":"bool","value":true}]},{"id":19,"properties":[{"name":"piece","type":"string","value":"corner_br"},{"name":"collides","type":"bool","value":true}]}]},{"firstgid":157,"name":"decals_asphalt","tilewidth":48,"tileheight":48,"tilecount":16,"columns":4,"image":"../tiles/decals_asphalt.png","imagewidth":192,"imageheight":192,"margin":0,"spacing":0},{"firstgid":173,"name":"decals_grass","tilewidth":48,"tileheight":48,"tilecount":16,"columns":4,"image":"../tiles/decals_grass.png","imagewidth":192,"imageheight":192,"margin":0,"spacing":0},{"firstgid":189,"name":"map_special","tilewidth":32,"tileheight":32,"tilecount":3,"columns":3,"image":"../tiles/map_special.png","imagewidth":96,"imageheight":32,"margin":0,"spacing":0,"tiles":[{"id":0,"properties":[{"name":"void","type":"bool","value":true}]},{"id":1,"properties":[{"name":"material","type":"string","value":"tierra"}]},{"id":2,"properties":[{"name":"material","type":"string","value":"tierra"},{"name":"placeholder","type":"bool","value":true}]}]},{"firstgid":192,"name":"decals_interior","tilewidth":32,"tileheight":32,"tilecount":16,"columns":4,"image":"../tiles/decals_interior.png","imagewidth":128,"imageheight":128,"margin":0,"spacing":0},{"firstgid":208,"name":"map_shadows","tilewidth":32,"tileheight":32,"tilecount":4,"columns":4,"image":"../tiles/map_shadows.png","imagewidth":128,"imageheight":32,"margin":0,"spacing":0}],"properties":[{"name":"compiledFrom","type":"string","value":"maps/src/mansion.txt"},{"name":"compiledHash","type":"string","value":"a4c8cdf9c19c6319"}]}
