{
 "type": "map",
 "version": "1.10",
 "tiledversion": "1.11.0",
 "orientation": "orthogonal",
 "renderorder": "right-down",
 "infinite": false,
 "width": 100,
 "height": 68,
 "tilewidth": 32,
 "tileheight": 32,
 "nextlayerid": 6,
 "nextobjectid": 148,
 "layers": [
  {
   "id": 1,
   "name": "floor",
   "type": "tilelayer",
   "width": 100,
   "height": 68,
   "x": 0,
   "y": 0,
   "opacity": 1,
   "visible": true,
   "data": [
    17,
    1,
    10,
    7,
    16,
    7,
    9,
    3,
    57,
    17,
    17,
    17,
    191,
    191,
    191,
    191,
    191,
    191,
    191,
    191,
    191,
    191,
    191,
    191,
    191,
    191,
    191,
    191,
    191,
    191,
    191,
    191,
    191,
    191,
    191,
    191,
    191,
    191,
    191,
    191,
    191,
    191,
    191,
    191,
    191,
    191,
    191,
    191,
    191,
    191,
    191,
    191,
    191,
    191,
    191,
    191,
    191,
    191,
    191,
    191,
    191,
    191,
    191,
    191,
    191,
    191,
    191,
    191,
    191,
    191,
    191,
    191,
    191,
    191,
    191,
    191,
    191,
    191,
    191,
    191,
    191,
    189,
    189,
    189,
    189,
    189,
    189,
    189,
    189,
    189,
    189,
    189,
    189,
    189,
    189,
    189,
    189,
    189,
    189,
    189,
    17,
    6,
    16,
    7,
    7,
    16,
    16,
    8,
    57,
    17,
    17,
    17,
    191,
    191,
    191,
    191,
    191,
    191,
    191,
    191,
    191,
    191,
    191,
    191,
    191,
    191,
    191,
    191,
    191,
    191,
    191,
    191,
    191,
    191,
    191,
    191,
    191,
    191,
    191,
    191,
    191,
    191,
    191,
    191,
    191,
    191,
    191,
    191,
    191,
    191,
    191,
    191,
    191,
    191,
    191,
    191,
    191,
    191,
    191,
    191,
    191,
    191,
    191,
    191,
    191,
    191,
    191,
    191,
    191,
    191,
    191,
    191,
    191,
    191,
    191,
    191,
    191,
    191,
    191,
    191,
    191,
    189,
    189,
    189,
    189,
    189,
    189,
    189,
    189,
    189,
    189,
    189,
    189,
    189,
    189,
    189,
    189,
    189,
    189,
    189,
    17,
    6,
    16,
    7,
    7,
    7,
    16,
    8,
    57,
    17,
    17,
    17,
    57,
    57,
    57,
    57,
    57,
    57,
    57,
    57,
    57,
    57,
    57,
    57,
    57,
    57,
    57,
    57,
    57,
    57,
    57,
    57,
    57,
    57,
    57,
    57,
    57,
    57,
    57,
    57,
    57,
    57,
    57,
    57,
    57,
    57,
    57,
    57,
    57,
    57,
    57,
    57,
    57,
    57,
    57,
    57,
    57,
    57,
    57,
    57,
    57,
    57,
    57,
    57,
    57,
    57,
    57,
    57,
    57,
    57,
    57,
    57,
    57,
    57,
    57,
    57,
    57,
    57,
    57,
    57,
    57,
    189,
    189,
    189,
    189,
    189,
    189,
    189,
    189,
    189,
    189,
    189,
    189,
    189,
    189,
    189,
    189,
    189,
    189,
    189,
    17,
    6,
    7,
    16,
    7,
    7,
    7,
    8,
    57,
    17,
    17,
    57,
    57,
    57,
    57,
    57,
    57,
    57,
    57,
    57,
    57,
    57,
    57,
    57,
    57,
    57,
    57,
    57,
    57,
    57,
    57,
    57,
    57,
    57,
    57,
    57,
    57,
    57,
    57,
    57,
    57,
    57,
    57,
    57,
    57,
    57,
    57,
    57,
    57,
    57,
    57,
    57,
    57,
    57,
    57,
    57,
    57,
    57,
    57,
    57,
    57,
    57,
    57,
    57,
    57,
    57,
    57,
    57,
    57,
    57,
    57,
    57,
    57,
    57,
    57,
    57,
    57,
    57,
    57,
    57,
    57,
    189,
    189,
    73,
    73,
    73,
    73,
    73,
    73,
    73,
    73,
    73,
    73,
    189,
    189,
    189,
    189,
    189,
    189,
    189,
    17,
    6,
    7,
    16,
    16,
    16,
    16,
    8,
    57,
    17,
    17,
    57,
    57,
    57,
    57,
    57,
    57,
    57,
    57,
    57,
    57,
    57,
    57,
    57,
    57,
    57,
    57,
    57,
    57,
    57,
    57,
    57,
    57,
    57,
    57,
    57,
    57,
    57,
    57,
    57,
    57,
    37,
    37,
    37,
    37,
    37,
    37,
    37,
    37,
    57,
    57,
    57,
    57,
    57,
    57,
    57,
    57,
    57,
    57,
    57,
    57,
    57,
    57,
    57,
    57,
    57,
    57,
    57,
    57,
    57,
    57,
    57,
    57,
    57,
    57,
    57,
    57,
    57,
    57,
    57,
    57,
    189,
    189,
    73,
    73,
    73,
    73,
    73,
    73,
    73,
    73,
    73,
    73,
    189,
    189,
    189,
    189,
    189,
    189,
    189,
    17,
    6,
    7,
    16,
    7,
    7,
    7,
    8,
    57,
    17,
    17,
    57,
    57,
    57,
    57,
    57,
    57,
    57,
    57,
    57,
    57,
    57,
    57,
    57,
    57,
    57,
    57,
    57,
    57,
    57,
    57,
    57,
    57,
    57,
    57,
    57,
    57,
    57,
    57,
    37,
    37,
    37,
    37,
    37,
    37,
    37,
    37,
    37,
    37,
    37,
    37,
    37,
    37,
    57,
    57,
    57,
    57,
    57,
    57,
    57,
    57,
    57,
    57,
    57,
    57,
    57,
    57,
    57,
    57,
    57,
    57,
    190,
    190,
    190,
    190,
    190,
    57,
    57,
    57,
    57,
    57,
    189,
    189,
    73,
    73,
    73,
    73,
    73,
    73,
    73,
    73,
    73,
    73,
    189,
    189,
    189,
    189,
    189,
    189,
    189,
    17,
    6,
    7,
    16,
    7,
    16,
    7,
    8,
    57,
    17,
    17,
    57,
    57,
    191,
    57,
    57,
    57,
    57,
    57,
    57,
    57,
    57,
    57,
    57,
    57,
    57,
    57,
    57,
    57,
    57,
    57,
    57,
    57,
    57,
    57,
    57,
    37,
    37,
    37,
    37,
    37,
    37,
    37,
    37,
    37,
    37,
    37,
    37,
    37,
    37,
    37,
    37,
    37,
    37,
    57,
    57,
    57,
    57,
    57,
    57,
    57,
    57,
    57,
    57,
    57,
    57,
    57,
    57,
    57,
    57,
    57,
    190,
    190,
    190,
    190,
    190,
    57,
    57,
    57,
    57,
    57,
    189,
    189,
    73,
    73,
    73,
    73,
    73,
    73,
    73,
    73,
    73,
    73,
    189,
    189,
    189,
    189,
    189,
    189,
    189,
    17,
    6,
    7,
    16,
    7,
    7,
    16,
    8,
    57,
    17,
    17,
    57,
    57,
    191,
    191,
    57,
    57,
    57,
    57,
    57,
    57,
    57,
    57,
    57,
    57,
    57,
    57,
    57,
    57,
    57,
    57,
    57,
    57,
    57,
    57,
    57,
    37,
    37,
    37,
    37,
    21,
    22,
    22,
    22,
    22,
    22,
    22,
    22,
    22,
    22,
    23,
    37,
    37,
    37,
    57,
    57,
    57,
    57,
    57,
    57,
    57,
    57,
    57,
    57,
    57,
    57,
    57,
    57,
    57,
    57,
    57,
    190,
    190,
    190,
    190,
    190,
    57,
    57,
    57,
    57,
    57,
    189,
    189,
    73,
    73,
    73,
    73,
    73,
    73,
    73,
    73,
    73,
    73,
    189,
    189,
    189,
    189,
    189,
    189,
    189,
    17,
    6,
    16,
    7,
    7,
    16,
    16,
    8,
    57,
    17,
    17,
    57,
    57,
    191,
    57,
    57,
    57,
    57,
    57,
    57,
    57,
    57,
    57,
    57,
    57,
    57,
    57,
    57,
    57,
    57,
    57,
    57,
    57,
    57,
    57,
    57,
    37,
    37,
    37,
    37,
    26,
    27,
    27,
    36,
    27,
    36,
    36,
    36,
    36,
    36,
    28,
    37,
    37,
    37,
    57,
    57,
    57,
    191,
    191,
    191,
    191,
    191,
    57,
    57,
    57,
    57,
    57,
    57,
    57,
    57,
    57,
    190,
    190,
    190,
    190,
    190,
    57,
    57,
    57,
    57,
    57,
    189,
    189,
    73,
    73,
    73,
    190,
    190,
    73,
    73,
    73,
    73,
    73,
    189,
    189,
    189,
    189,
    189,
    189,
    189,
    17,
    6,
    16,
    7,
    16,
    16,
    7,
    8,
    57,
    17,
    17,
    57,
    57,
    191,
    191,
    57,
    57,
    57,
    57,
    57,
    57,
    57,
    57,
    57,
    57,
    57,
    57,
    57,
    57,
    57,
    57,
    57,
    57,
    57,
    57,
    57,
    37,
    37,
    37,
    37,
    31,
    32,
    32,
    32,
    32,
    32,
    32,
    32,
    32,
    32,
    33,
    37,
    37,
    37,
    191,
    191,
    191,
    57,
    191,
    57,
    57,
    191,
    191,
    191,
    191,
    191,
    191,
    191,
    191,
    191,
    191,
    191,
    57,
    57,
    57,
    57,
    57,
    57,
    57,
    57,
    57,
    189,
    189,
    73,
    73,
    73,
    190,
    190,
    73,
    73,
    73,
    73,
    73,
    73,
    73,
    73,
    73,
    73,
    73,
    189,
    17,
    6,
    16,
    16,
    7,
    16,
    7,
    8,
    57,
    17,
    17,
    57,
    57,
    191,
    191,
    57,
    57,
    57,
    57,
    57,
    57,
    57,
    57,
    41,
    42,
    42,
    42,
    42,
    42,
    42,
    43,
    57,
    57,
    57,
    57,
    57,
    57,
    37,
    37,
    37,
    37,
    37,
    37,
    37,
    37,
    37,
    37,
    37,
    37,
    37,
    37,
    37,
    37,
    37,
    191,
    191,
    191,
    57,
    57,
    57,
    57,
    57,
    57,
    191,
    57,
    57,
    57,
    191,
    57,
    191,
    191,
    191,
    57,
    57,
    57,
    57,
    57,
    57,
    57,
    57,
    57,
    189,
    189,
    73,
    73,
    73,
    73,
    73,
    73,
    73,
    73,
    73,
    73,
    73,
    73,
    73,
    73,
    73,
    73,
    189,
    17,
    6,
    7,
    16,
    16,
    7,
    16,
    8,
    57,
    17,
    17,
    57,
    57,
    191,
    191,
    57,
    57,
    57,
    57,
    41,
    42,
    42,
    42,
    50,
    47,
    47,
    56,
    56,
    56,
    56,
    49,
    43,
    57,
    57,
    191,
    191,
    57,
    57,
    37,
    37,
    37,
    37,
    37,
    37,
    37,
    37,
    37,
    37,
    37,
    37,
    37,
    37,
    37,
    57,
    57,
    57,
    57,
    57,
    57,
    57,
    57,
    57,
    57,
    57,
    57,
    57,
    57,
    57,
    57,
    57,
    57,
    57,
    57,
    57,
    57,
    57,
    57,
    57,
    57,
    57,
    57,
    189,
    189,
    73,
    73,
    73,
    73,
    73,
    73,
    190,
    190,
    190,
    73,
    73,
    73,
    73,
    73,
    73,
    73,
    189,
    17,
    6,
    16,
    7,
    7,
    7,
    16,
    8,
    57,
    17,
    17,
    57,
    57,
    191,
    191,
    57,
    57,
    57,
    41,
    50,
    56,
    56,
    47,
    47,
    56,
    47,
    47,
    56,
    56,
    47,
    56,
    48,
    191,
    191,
    191,
    57,
    57,
    57,
    57,
    57,
    57,
    57,
    37,
    37,
    37,
    37,
    37,
    37,
    37,
    37,
    57,
    57,
    57,
    57,
    57,
    57,
    57,
    57,
    57,
    57,
    57,
    57,
    57,
    57,
    57,
    57,
    57,
    57,
    57,
    57,
    57,
    57,
    57,
    57,
    57,
    57,
    57,
    57,
    57,
    57,
    57,
    189,
    189,
    73,
    73,
    73,
    73,
    73,
    73,
    190,
    190,
    190,
    73,
    73,
    73,
    73,
    73,
    73,
    73,
    189,
    17,
    6,
    16,
    16,
    16,
    7,
    7,
    8,
    57,
    17,
    17,
    57,
    57,
    191,
    57,
    57,
    57,
    57,
    51,
    45,
    56,
    56,
    47,
    56,
    56,
    47,
    47,
    56,
    47,
    47,
    56,
    191,
    191,
    57,
    191,
    57,
    57,
    57,
    57,
    57,
    57,
    41,
    42,
    50,
    56,
    56,
    47,
    49,
    42,
    42,
    43,
    57,
    57,
    57,
    57,
    57,
    57,
    57,
    57,
    57,
    57,
    57,
    57,
    57,
    57,
    57,
    57,
    57,
    57,
    57,
    57,
    57,
    57,
    57,
    57,
    57,
    57,
    57,
    57,
    57,
    57,
    189,
    189,
    73,
    73,
    73,
    73,
    73,
    73,
    73,
    73,
    73,
    73,
    73,
    73,
    73,
    73,
    73,
    73,
    189,
    17,
    6,
    7,
    7,
    16,
    7,
    7,
    8,
    57,
    17,
    17,
    57,
    57,
    191,
    191,
    57,
    57,
    57,
    57,
    51,
    191,
    45,
    56,
    56,
    47,
    47,
    56,
    47,
    56,
    56,
    44,
    53,
    57,
    57,
    57,
    57,
    57,
    57,
    57,
    57,
    41,
    50,
    47,
    56,
    56,
    56,
    56,
    47,
    56,
    47,
    49,
    43,
    57,
    57,
    57,
    57,
    57,
    57,
    57,
    57,
    57,
    57,
    57,
    57,
    57,
    57,
    57,
    57,
    57,
    57,
    57,
    57,
    57,
    57,
    57,
    57,
    57,
    57,
    57,
    57,
    57,
    189,
    189,
    73,
    73,
    73,
    73,
    73,
    73,
    73,
    73,
    73,
    73,
    190,
    190,
    73,
    73,
    73,
    73,
    189,
    17,
    6,
    16,
    7,
    7,
    16,
    7,
    8,
    57,
    17,
    17,
    17,
    191,
    191,
    57,
    57,
    57,
    57,
    191,
    191,
    191,
    191,
    45,
    47,
    56,
    56,
    56,
    56,
    44,
    52,
    53,
    57,
    57,
    57,
    57,
    57,
    57,
    57,
    57,
    57,
    51,
    45,
    47,
    47,
    56,
    56,
    56,
    56,
    47,
    56,
    47,
    48,
    57,
    57,
    57,
    57,
    57,
    57,
    57,
    57,
    57,
    57,
    57,
    57,
    57,
    57,
    57,
    57,
    57,
    57,
    57,
    57,
    57,
    57,
    57,
    57,
    57,
    57,
    57,
    57,
    57,
    189,
    189,
    73,
    73,
    73,
    73,
    73,
    73,
    73,
    73,
    73,
    73,
    190,
    190,
    73,
    73,
    73,
    73,
    189,
    17,
    6,
    16,
    7,
    16,
    7,
    16,
    8,
    57,
    17,
    17,
    17,
    191,
    57,
    57,
    57,
    57,
    57,
    57,
    191,
    57,
    57,
    190,
    190,
    63,
    63,
    190,
    190,
    190,
    57,
    57,
    57,
    57,
    57,
    57,
    190,
    190,
    190,
    190,
    190,
    190,
    190,
    190,
    47,
    56,
    56,
    47,
    56,
    56,
    56,
    44,
    53,
    191,
    191,
    191,
    57,
    57,
    57,
    57,
    57,
    57,
    57,
    57,
    57,
    57,
    57,
    57,
    57,
    57,
    57,
    57,
    57,
    57,
    57,
    57,
    57,
    57,
    57,
    57,
    57,
    57,
    189,
    189,
    73,
    73,
    73,
    73,
    73,
    73,
    73,
    73,
    73,
    73,
    73,
    73,
    73,
    73,
    73,
    73,
    189,
    17,
    6,
    7,
    16,
    7,
    7,
    7,
    8,
    57,
    17,
    17,
    17,
    191,
    57,
    57,
    57,
    57,
    57,
    57,
    57,
    57,
    57,
    190,
    63,
    63,
    63,
    63,
    63,
    190,
    57,
    57,
    57,
    57,
    57,
    57,
    190,
    66,
    66,
    66,
    66,
    66,
    66,
    190,
    45,
    56,
    47,
    56,
    47,
    44,
    52,
    53,
    57,
    191,
    57,
    191,
    191,
    191,
    191,
    191,
    57,
    57,
    57,
    57,
    57,
    57,
    57,
    57,
    57,
    57,
    57,
    57,
    57,
    57,
    57,
    57,
    57,
    57,
    57,
    57,
    57,
    57,
    189,
    189,
    73,
    73,
    73,
    73,
    73,
    73,
    73,
    73,
    73,
    73,
    73,
    73,
    73,
    73,
    73,
    73,
    189,
    17,
    6,
    16,
    7,
    7,
    7,
    16,
    8,
    57,
    17,
    17,
    17,
    191,
    57,
    57,
    190,
    190,
    190,
    190,
    190,
    190,
    190,
    190,
    63,
    63,
    63,
    63,
    63,
    190,
    190,
    190,
    190,
    190,
    57,
    57,
    190,
    66,
    66,
    66,
    66,
    66,
    66,
    190,
    51,
    52,
    52,
    52,
    52,
    53,
    57,
    57,
    57,
    57,
    57,
    190,
    190,
    190,
    190,
    190,
    190,
    191,
    191,
    191,
    57,
    57,
    57,
    57,
    57,
    57,
    57,
    57,
    57,
    57,
    57,
    57,
    57,
    57,
    57,
    57,
    57,
    57,
    189,
    189,
    73,
    73,
    73,
    73,
    73,
    73,
    73,
    73,
    73,
    73,
    73,
    73,
    73,
    73,
    73,
    73,
    189,
    17,
    6,
    16,
    7,
    16,
    7,
    16,
    8,
    57,
    17,
    17,
    17,
    191,
    191,
    57,
    190,
    63,
    63,
    63,
    63,
    63,
    190,
    63,
    63,
    63,
    63,
    63,
    63,
    63,
    63,
    63,
    63,
    190,
    190,
    190,
    190,
    66,
    66,
    66,
    66,
    66,
    66,
    190,
    66,
    66,
    190,
    190,
    57,
    57,
    57,
    57,
    57,
    57,
    57,
    190,
    66,
    66,
    66,
    66,
    190,
    57,
    191,
    191,
    191,
    191,
    57,
    57,
    57,
    57,
    57,
    57,
    57,
    57,
    57,
    57,
    57,
    57,
    57,
    57,
    57,
    57,
    189,
    189,
    73,
    73,
    73,
    73,
    73,
    73,
    73,
    73,
    73,
    73,
    73,
    73,
    73,
    73,
    73,
    73,
    189,
    17,
    6,
    16,
    16,
    7,
    7,
    16,
    8,
    57,
    17,
    17,
    17,
    191,
    57,
    57,
    190,
    63,
    63,
    63,
    63,
    63,
    190,
    63,
    63,
    63,
    63,
    63,
    63,
    63,
    63,
    63,
    63,
    190,
    66,
    66,
    66,
    66,
    66,
    66,
    66,
    66,
    66,
    66,
    66,
    66,
    66,
    190,
    57,
    57,
    57,
    57,
    57,
    57,
    57,
    190,
    66,
    66,
    66,
    66,
    190,
    57,
    57,
    191,
    57,
    191,
    191,
    57,
    57,
    57,
    57,
    57,
    57,
    57,
    57,
    57,
    57,
    57,
    57,
    57,
    57,
    57,
    189,
    189,
    189,
    189,
    189,
    189,
    189,
    189,
    189,
    189,
    189,
    189,
    189,
    189,
    189,
    189,
    189,
    189,
    189,
    17,
    6,
    16,
    16,
    7,
    16,
    7,
    8,
    57,
    17,
    17,
    17,
    191,
    57,
    57,
    190,
    63,
    63,
    63,
    63,
    63,
    63,
    63,
    63,
    63,
    63,
    63,
    63,
    63,
    63,
    63,
    63,
    190,
    66,
    66,
    66,
    66,
    66,
    66,
    66,
    66,
    66,
    66,
    66,
    66,
    66,
    190,
    57,
    57,
    57,
    57,
    57,
    57,
    57,
    190,
    66,
    66,
    66,
    66,
    190,
    57,
    57,
    57,
    57,
    57,
    191,
    191,
    57,
    57,
    57,
    57,
    57,
    57,
    57,
    57,
    57,
    57,
    57,
    57,
    57,
    57,
    189,
    189,
    189,
    189,
    189,
    189,
    189,
    189,
    189,
    189,
    189,
    189,
    189,
    189,
    189,
    189,
    189,
    189,
    189,
    17,
    6,
    16,
    16,
    7,
    7,
    7,
    8,
    57,
    17,
    17,
    17,
    191,
    191,
    191,
    190,
    63,
    63,
    63,
    63,
    63,
    63,
    63,
    63,
    63,
    63,
    63,
    63,
    63,
    63,
    63,
    63,
    190,
    66,
    66,
    66,
    66,
    66,
    66,
    66,
    66,
    66,
    66,
    66,
    66,
    66,
    190,
    190,
    190,
    190,
    190,
    190,
    190,
    190,
    190,
    66,
    66,
    190,
    190,
    190,
    190,
    190,
    190,
    190,
    190,
    190,
    190,
    191,
    57,
    57,
    57,
    57,
    57,
    57,
    57,
    57,
    57,
    57,
    57,
    57,
    57,
    189,
    189,
    189,
    189,
    189,
    189,
    189,
    189,
    189,
    189,
    189,
    189,
    189,
    189,
    189,
    189,
    189,
    189,
    189,
    17,
    6,
    7,
    7,
    7,
    7,
    16,
    8,
    57,
    17,
    17,
    57,
    57,
    191,
    191,
    190,
    63,
    63,
    63,
    63,
    63,
    190,
    63,
    63,
    63,
    63,
    63,
    63,
    63,
    63,
    63,
    63,
    190,
    66,
    66,
    66,
    66,
    66,
    66,
    66,
    66,
    66,
    66,
    66,
    66,
    66,
    66,
    66,
    66,
    66,
    66,
    66,
    66,
    66,
    190,
    66,
    66,
    66,
    66,
    190,
    74,
    74,
    74,
    74,
    74,
    74,
    190,
    191,
    191,
    191,
    57,
    57,
    57,
    57,
    57,
    57,
    57,
    57,
    57,
    57,
    57,
    189,
    189,
    189,
    189,
    189,
    189,
    189,
    189,
    189,
    189,
    189,
    189,
    189,
    189,
    189,
    189,
    189,
    189,
    189,
    17,
    6,
    7,
    16,
    7,
    7,
    7,
    8,
    57,
    17,
    17,
    57,
    57,
    191,
    191,
    190,
    190,
    190,
    63,
    63,
    190,
    190,
    63,
    63,
    63,
    63,
    63,
    63,
    63,
    63,
    63,
    63,
    190,
    66,
    66,
    66,
    66,
    66,
    66,
    66,
    66,
    66,
    66,
    66,
    66,
    66,
    66,
    66,
    66,
    66,
    66,
    66,
    66,
    66,
    190,
    66,
    66,
    66,
    66,
    190,
    74,
    74,
    74,
    74,
    74,
    74,
    190,
    57,
    191,
    57,
    57,
    57,
    57,
    57,
    57,
    57,
    57,
    57,
    57,
    57,
    57,
    189,
    189,
    189,
    189,
    189,
    189,
    189,
    189,
    189,
    189,
    189,
    189,
    189,
    189,
    189,
    189,
    189,
    189,
    189,
    17,
    6,
    16,
    16,
    7,
    7,
    16,
    8,
    57,
    17,
    17,
    57,
    57,
    191,
    191,
    190,
    63,
    63,
    63,
    63,
    63,
    190,
    63,
    63,
    63,
    63,
    63,
    63,
    63,
    63,
    63,
    63,
    63,
    66,
    66,
    66,
    66,
    66,
    66,
    66,
    66,
    66,
    66,
    66,
    66,
    66,
    66,
    66,
    66,
    66,
    66,
    66,
    66,
    66,
    66,
    66,
    66,
    66,
    66,
    190,
    74,
    74,
    74,
    74,
    74,
    74,
    190,
    57,
    191,
    57,
    57,
    57,
    57,
    57,
    57,
    57,
    57,
    57,
    57,
    57,
    57,
    189,
    190,
    190,
    190,
    190,
    190,
    190,
    190,
    190,
    190,
    190,
    190,
    190,
    190,
    190,
    190,
    190,
    190,
    190,
    17,
    6,
    7,
    16,
    7,
    7,
    16,
    8,
    57,
    17,
    17,
    57,
    57,
    191,
    191,
    190,
    63,
    63,
    63,
    63,
    63,
    63,
    63,
    63,
    63,
    63,
    63,
    63,
    63,
    63,
    63,
    63,
    63,
    66,
    66,
    66,
    66,
    66,
    66,
    66,
    66,
    66,
    66,
    66,
    66,
    66,
    66,
    66,
    66,
    66,
    66,
    66,
    66,
    66,
    66,
    66,
    66,
    66,
    66,
    190,
    74,
    74,
    74,
    74,
    74,
    74,
    190,
    57,
    57,
    57,
    57,
    57,
    57,
    57,
    57,
    57,
    57,
    57,
    57,
    57,
    57,
    189,
    190,
    76,
    76,
    76,
    76,
    76,
    76,
    76,
    76,
    76,
    76,
    190,
    76,
    76,
    76,
    76,
    76,
    190,
    17,
    6,
    7,
    7,
    16,
    16,
    16,
    8,
    57,
    17,
    17,
    57,
    57,
    191,
    57,
    190,
    63,
    63,
    63,
    63,
    63,
    63,
    63,
    63,
    63,
    63,
    63,
    63,
    63,
    63,
    63,
    63,
    190,
    66,
    66,
    66,
    66,
    66,
    66,
    66,
    66,
    66,
    66,
    66,
    66,
    66,
    66,
    66,
    66,
    66,
    66,
    66,
    66,
    66,
    190,
    66,
    66,
    66,
    66,
    66,
    74,
    74,
    74,
    74,
    74,
    74,
    190,
    57,
    57,
    57,
    57,
    57,
    57,
    57,
    57,
    57,
    57,
    57,
    57,
    57,
    57,
    189,
    190,
    76,
    76,
    76,
    76,
    76,
    76,
    76,
    76,
    76,
    76,
    76,
    76,
    76,
    76,
    76,
    76,
    190,
    17,
    6,
    16,
    16,
    7,
    7,
    7,
    8,
    57,
    17,
    17,
    57,
    57,
    191,
    191,
    190,
    63,
    63,
    63,
    63,
    63,
    190,
    63,
    63,
    63,
    63,
    63,
    63,
    63,
    63,
    63,
    63,
    190,
    66,
    66,
    66,
    66,
    66,
    66,
    66,
    66,
    66,
    66,
    66,
    66,
    66,
    66,
    66,
    66,
    66,
    66,
    66,
    66,
    66,
    190,
    66,
    66,
    66,
    66,
    66,
    74,
    74,
    74,
    74,
    74,
    74,
    190,
    57,
    57,
    57,
    57,
    57,
    57,
    57,
    57,
    57,
    57,
    57,
    57,
    57,
    57,
    189,
    190,
    76,
    76,
    76,
    76,
    76,
    76,
    76,
    76,
    76,
    76,
    76,
    76,
    76,
    76,
    76,
    76,
    190,
    17,
    6,
    7,
    16,
    7,
    7,
    16,
    8,
    57,
    17,
    17,
    57,
    57,
    191,
    57,
    190,
    190,
    63,
    63,
    190,
    190,
    190,
    190,
    190,
    190,
    190,
    190,
    190,
    190,
    190,
    190,
    190,
    190,
    190,
    190,
    190,
    190,
    190,
    190,
    190,
    190,
    190,
    190,
    190,
    190,
    190,
    190,
    190,
    190,
    66,
    66,
    190,
    190,
    190,
    190,
    190,
    190,
    190,
    190,
    190,
    74,
    74,
    74,
    74,
    74,
    74,
    190,
    57,
    57,
    57,
    57,
    57,
    57,
    57,
    57,
    57,
    57,
    57,
    57,
    57,
    57,
    189,
    190,
    76,
    76,
    76,
    76,
    76,
    76,
    76,
    76,
    76,
    76,
    190,
    76,
    76,
    76,
    76,
    76,
    190,
    17,
    6,
    7,
    7,
    7,
    16,
    16,
    8,
    57,
    17,
    17,
    57,
    57,
    191,
    191,
    190,
    64,
    64,
    64,
    64,
    64,
    64,
    64,
    64,
    64,
    64,
    64,
    64,
    64,
    64,
    64,
    64,
    190,
    61,
    61,
    61,
    61,
    61,
    61,
    61,
    61,
    61,
    61,
    61,
    61,
    61,
    61,
    61,
    62,
    62,
    62,
    62,
    62,
    62,
    62,
    62,
    62,
    62,
    62,
    190,
    74,
    74,
    74,
    74,
    74,
    74,
    190,
    57,
    57,
    57,
    57,
    57,
    57,
    57,
    57,
    57,
    57,
    57,
    57,
    57,
    57,
    189,
    190,
    76,
    76,
    76,
    76,
    76,
    76,
    76,
    76,
    76,
    76,
    190,
    76,
    76,
    76,
    76,
    76,
    190,
    17,
    6,
    16,
    7,
    7,
    7,
    7,
    8,
    57,
    17,
    17,
    57,
    57,
    57,
    57,
    190,
    64,
    64,
    64,
    64,
    64,
    64,
    64,
    64,
    64,
    64,
    64,
    64,
    64,
    64,
    64,
    64,
    190,
    61,
    61,
    61,
    61,
    61,
    61,
    61,
    61,
    61,
    61,
    61,
    61,
    61,
    61,
    61,
    62,
    62,
    62,
    62,
    62,
    62,
    62,
    62,
    62,
    62,
    62,
    190,
    74,
    74,
    74,
    74,
    74,
    74,
    190,
    57,
    57,
    57,
    57,
    57,
    57,
    57,
    57,
    57,
    57,
    57,
    57,
    57,
    57,
    189,
    190,
    76,
    76,
    76,
    76,
    76,
    76,
    76,
    76,
    76,
    76,
    190,
    190,
    190,
    76,
    76,
    190,
    190,
    17,
    6,
    16,
    7,
    16,
    16,
    7,
    8,
    57,
    17,
    17,
    57,
    57,
    57,
    190,
    190,
    64,
    64,
    64,
    64,
    64,
    64,
    64,
    64,
    64,
    64,
    64,
    64,
    64,
    64,
    64,
    64,
    190,
    61,
    61,
    61,
    61,
    61,
    61,
    61,
    61,
    61,
    61,
    61,
    61,
    61,
    61,
    190,
    62,
    62,
    62,
    62,
    62,
    62,
    62,
    62,
    62,
    62,
    62,
    190,
    74,
    74,
    74,
    74,
    74,
    74,
    190,
    57,
    57,
    57,
    57,
    57,
    57,
    57,
    57,
    57,
    57,
    57,
    57,
    57,
    57,
    189,
    190,
    76,
    76,
    76,
    76,
    76,
    76,
    76,
    76,
    76,
    76,
    190,
    76,
    76,
    76,
    76,
    76,
    190,
    17,
    6,
    16,
    7,
    7,
    16,
    16,
    8,
    57,
    17,
    17,
    57,
    57,
    57,
    190,
    190,
    190,
    64,
    64,
    64,
    64,
    64,
    64,
    64,
    190,
    190,
    64,
    64,
    64,
    64,
    64,
    64,
    190,
    190,
    190,
    61,
    61,
    190,
    190,
    190,
    61,
    61,
    190,
    190,
    190,
    190,
    190,
    190,
    62,
    62,
    62,
    62,
    62,
    62,
    62,
    62,
    62,
    62,
    62,
    190,
    190,
    74,
    74,
    190,
    190,
    190,
    190,
    190,
    190,
    190,
    190,
    190,
    190,
    57,
    57,
    57,
    57,
    57,
    57,
    57,
    57,
    189,
    190,
    76,
    76,
    76,
    76,
    76,
    76,
    76,
    76,
    76,
    76,
    76,
    76,
    76,
    76,
    76,
    76,
    190,
    17,
    6,
    7,
    16,
    7,
    16,
    7,
    8,
    57,
    17,
    17,
    57,
    57,
    57,
    190,
    190,
    190,
    64,
    64,
    64,
    64,
    64,
    64,
    64,
    190,
    190,
    64,
    64,
    64,
    64,
    64,
    64,
    190,
    61,
    61,
    61,
    61,
    61,
    61,
    61,
    61,
    61,
    61,
    61,
    61,
    61,
    61,
    190,
    62,
    62,
    62,
    62,
    62,
    62,
    62,
    62,
    62,
    62,
    62,
    190,
    74,
    74,
    74,
    74,
    74,
    74,
    74,
    74,
    74,
    74,
    74,
    74,
    190,
    57,
    57,
    57,
    57,
    57,
    57,
    57,
    57,
    189,
    190,
    76,
    76,
    76,
    76,
    76,
    76,
    76,
    76,
    76,
    76,
    76,
    76,
    76,
    76,
    76,
    76,
    190,
    17,
    6,
    7,
    7,
    7,
    16,
    7,
    8,
    57,
    17,
    17,
    57,
    57,
    57,
    190,
    190,
    64,
    64,
    64,
    64,
    64,
    64,
    64,
    64,
    64,
    64,
    64,
    64,
    64,
    64,
    64,
    64,
    190,
    61,
    61,
    61,
    61,
    61,
    61,
    61,
    61,
    61,
    61,
    61,
    61,
    61,
    61,
    190,
    62,
    62,
    62,
    62,
    62,
    62,
    62,
    62,
    62,
    62,
    62,
    190,
    74,
    74,
    74,
    74,
    74,
    74,
    74,
    74,
    74,
    74,
    74,
    74,
    190,
    57,
    57,
    57,
    57,
    57,
    57,
    57,
    57,
    189,
    190,
    76,
    76,
    76,
    76,
    76,
    76,
    76,
    76,
    76,
    76,
    190,
    76,
    76,
    76,
    76,
    76,
    190,
    17,
    6,
    7,
    7,
    16,
    16,
    7,
    8,
    57,
    17,
    17,
    57,
    57,
    57,
    57,
    190,
    64,
    64,
    64,
    64,
    64,
    64,
    64,
    64,
    64,
    64,
    64,
    64,
    64,
    64,
    64,
    64,
    190,
    61,
    61,
    61,
    61,
    61,
    61,
    61,
    61,
    61,
    190,
    190,
    190,
    190,
    190,
    190,
    62,
    62,
    62,
    62,
    62,
    62,
    62,
    62,
    62,
    62,
    62,
    190,
    74,
    74,
    74,
    74,
    74,
    74,
    74,
    74,
    74,
    74,
    74,
    74,
    190,
    57,
    57,
    57,
    57,
    57,
    57,
    57,
    57,
    189,
    190,
    76,
    76,
    76,
    76,
    76,
    76,
    190,
    190,
    190,
    190,
    190,
    76,
    76,
    76,
    76,
    76,
    190,
    17,
    6,
    16,
    16,
    16,
    7,
    7,
    8,
    57,
    17,
    17,
    57,
    57,
    57,
    57,
    190,
    64,
    64,
    64,
    64,
    64,
    64,
    64,
    64,
    64,
    64,
    64,
    64,
    64,
    64,
    64,
    64,
    190,
    61,
    61,
    61,
    61,
    61,
    61,
    61,
    61,
    61,
    61,
    69,
    69,
    69,
    69,
    190,
    62,
    62,
    62,
    62,
    62,
    62,
    62,
    62,
    62,
    62,
    62,
    190,
    74,
    74,
    74,
    74,
    74,
    74,
    74,
    74,
    74,
    74,
    74,
    74,
    190,
    57,
    57,
    57,
    57,
    57,
    57,
    57,
    57,
    189,
    190,
    76,
    76,
    76,
    76,
    76,
    76,
    190,
    190,
    190,
    190,
    190,
    190,
    76,
    76,
    190,
    190,
    190,
    17,
    6,
    7,
    7,
    16,
    16,
    7,
    8,
    57,
    17,
    17,
    57,
    57,
    57,
    57,
    190,
    190,
    190,
    190,
    190,
    64,
    64,
    64,
    64,
    64,
    64,
    64,
    64,
    64,
    64,
    64,
    64,
    64,
    61,
    61,
    61,
    61,
    61,
    61,
    61,
    61,
    61,
    61,
    69,
    69,
    69,
    69,
    190,
    62,
    62,
    62,
    62,
    62,
    62,
    62,
    62,
    62,
    62,
    62,
    190,
    74,
    74,
    74,
    74,
    74,
    74,
    74,
    74,
    74,
    74,
    74,
    74,
    190,
    57,
    57,
    57,
    57,
    57,
    57,
    57,
    57,
    189,
    190,
    76,
    76,
    76,
    76,
    76,
    76,
    190,
    76,
    76,
    76,
    76,
    76,
    76,
    76,
    76,
    76,
    190,
    17,
    6,
    16,
    7,
    16,
    7,
    16,
    8,
    57,
    17,
    17,
    57,
    57,
    57,
    57,
    57,
    57,
    57,
    57,
    190,
    64,
    64,
    64,
    64,
    64,
    64,
    64,
    64,
    64,
    64,
    64,
    64,
    64,
    61,
    61,
    61,
    61,
    61,
    61,
    61,
    61,
    61,
    190,
    69,
    69,
    69,
    69,
    190,
    62,
    62,
    62,
    62,
    62,
    62,
    62,
    62,
    62,
    62,
    62,
    190,
    74,
    74,
    74,
    74,
    74,
    74,
    74,
    74,
    74,
    74,
    74,
    74,
    190,
    57,
    57,
    57,
    57,
    57,
    57,
    57,
    57,
    189,
    190,
    76,
    76,
    76,
    76,
    76,
    76,
    76,
    76,
    76,
    76,
    76,
    76,
    76,
    76,
    76,
    76,
    190,
    17,
    6,
    7,
    7,
    7,
    7,
    7,
    8,
    57,
    17,
    17,
    57,
    57,
    57,
    57,
    57,
    57,
    57,
    57,
    190,
    64,
    64,
    64,
    64,
    64,
    64,
    64,
    64,
    64,
    64,
    64,
    64,
    190,
    61,
    61,
    61,
    61,
    61,
    61,
    61,
    61,
    61,
    190,
    190,
    190,
    190,
    190,
    190,
    190,
    190,
    190,
    62,
    62,
    62,
    62,
    62,
    190,
    190,
    190,
    190,
    74,
    74,
    74,
    74,
    74,
    74,
    74,
    74,
    74,
    74,
    74,
    74,
    190,
    57,
    57,
    57,
    57,
    57,
    57,
    57,
    57,
    189,
    190,
    76,
    76,
    76,
    76,
    76,
    76,
    76,
    76,
    76,
    76,
    76,
    76,
    76,
    76,
    76,
    76,
    190,
    17,
    6,
    7,
    16,
    7,
    16,
    16,
    8,
    57,
    17,
    17,
    57,
    57,
    57,
    57,
    57,
    57,
    57,
    57,
    190,
    64,
    64,
    64,
    64,
    64,
    64,
    64,
    64,
    64,
    64,
    64,
    64,
    190,
    190,
    61,
    61,
    190,
    190,
    190,
    190,
    190,
    190,
    190,
    57,
    57,
    57,
    191,
    191,
    191,
    57,
    190,
    62,
    62,
    62,
    62,
    62,
    190,
    57,
    57,
    190,
    74,
    74,
    74,
    74,
    74,
    74,
    74,
    74,
    74,
    74,
    74,
    74,
    190,
    57,
    57,
    57,
    57,
    57,
    57,
    57,
    57,
    189,
    190,
    76,
    76,
    76,
    76,
    76,
    76,
    190,
    76,
    76,
    76,
    76,
    76,
    76,
    76,
    76,
    76,
    190,
    17,
    6,
    7,
    7,
    16,
    16,
    7,
    8,
    57,
    17,
    17,
    57,
    57,
    57,
    57,
    57,
    57,
    57,
    57,
    190,
    190,
    190,
    190,
    190,
    190,
    190,
    190,
    190,
    190,
    190,
    190,
    190,
    46,
    47,
    47,
    56,
    56,
    47,
    47,
    47,
    56,
    49,
    43,
    57,
    57,
    191,
    191,
    191,
    191,
    191,
    190,
    190,
    190,
    190,
    190,
    190,
    190,
    57,
    57,
    190,
    74,
    74,
    74,
    74,
    74,
    74,
    74,
    74,
    74,
    74,
    74,
    74,
    190,
    57,
    57,
    57,
    57,
    57,
    57,
    57,
    57,
    189,
    190,
    76,
    76,
    76,
    76,
    76,
    76,
    190,
    76,
    76,
    76,
    76,
    76,
    76,
    76,
    76,
    76,
    190,
    17,
    6,
    7,
    16,
    16,
    7,
    7,
    8,
    57,
    17,
    17,
    57,
    57,
    57,
    57,
    57,
    57,
    57,
    57,
    191,
    191,
    191,
    191,
    191,
    191,
    191,
    191,
    191,
    191,
    191,
    57,
    57,
    190,
    45,
    56,
    47,
    47,
    47,
    56,
    47,
    47,
    44,
    190,
    57,
    57,
    57,
    191,
    191,
    191,
    191,
    57,
    57,
    57,
    57,
    57,
    57,
    57,
    57,
    57,
    190,
    74,
    74,
    74,
    74,
    74,
    74,
    74,
    74,
    74,
    74,
    74,
    74,
    190,
    57,
    57,
    57,
    57,
    57,
    57,
    57,
    57,
    189,
    190,
    76,
    76,
    76,
    76,
    76,
    76,
    190,
    76,
    76,
    76,
    76,
    76,
    76,
    76,
    76,
    76,
    190,
    17,
    6,
    7,
    7,
    7,
    7,
    7,
    8,
    57,
    17,
    17,
    57,
    57,
    57,
    57,
    57,
    57,
    57,
    57,
    57,
    57,
    191,
    191,
    191,
    191,
    191,
    191,
    191,
    57,
    57,
    57,
    57,
    57,
    46,
    47,
    56,
    56,
    44,
    52,
    52,
    52,
    53,
    57,
    57,
    57,
    57,
    57,
    57,
    57,
    57,
    57,
    57,
    57,
    57,
    57,
    57,
    57,
    57,
    57,
    190,
    190,
    190,
    74,
    74,
    190,
    190,
    190,
    190,
    190,
    190,
    190,
    190,
    190,
    57,
    57,
    57,
    57,
    57,
    57,
    57,
    57,
    189,
    190,
    190,
    190,
    190,
    190,
    190,
    190,
    190,
    190,
    190,
    190,
    190,
    190,
    190,
    190,
    190,
    190,
    190,
    17,
    6,
    7,
    16,
    7,
    7,
    16,
    8,
    57,
    17,
    17,
    57,
    57,
    57,
    57,
    57,
    57,
    57,
    57,
    57,
    57,
    57,
    57,
    57,
    57,
    57,
    57,
    57,
    57,
    57,
    57,
    57,
    57,
    46,
    47,
    47,
    44,
    53,
    57,
    57,
    57,
    57,
    57,
    57,
    57,
    57,
    57,
    57,
    57,
    57,
    57,
    57,
    57,
    57,
    57,
    57,
    57,
    57,
    57,
    57,
    41,
    50,
    47,
    56,
    47,
    56,
    49,
    43,
    191,
    191,
    191,
    57,
    191,
    191,
    57,
    57,
    57,
    57,
    57,
    57,
    57,
    189,
    189,
    189,
    189,
    189,
    189,
    189,
    189,
    189,
    189,
    189,
    189,
    189,
    189,
    189,
    189,
    189,
    189,
    189,
    17,
    6,
    7,
    16,
    16,
    16,
    7,
    8,
    57,
    17,
    17,
    57,
    57,
    57,
    57,
    57,
    57,
    57,
    57,
    57,
    57,
    57,
    57,
    57,
    57,
    57,
    57,
    57,
    57,
    57,
    57,
    57,
    41,
    50,
    47,
    44,
    53,
    57,
    57,
    57,
    57,
    57,
    57,
    57,
    57,
    57,
    57,
    57,
    57,
    57,
    57,
    57,
    57,
    57,
    57,
    57,
    57,
    57,
    57,
    57,
    46,
    56,
    47,
    56,
    56,
    56,
    56,
    191,
    191,
    191,
    191,
    191,
    191,
    191,
    191,
    191,
    57,
    57,
    57,
    57,
    57,
    189,
    189,
    189,
    189,
    189,
    189,
    189,
    189,
    189,
    189,
    189,
    189,
    189,
    189,
    189,
    189,
    189,
    189,
    189,
    17,
    6,
    7,
    16,
    16,
    7,
    7,
    8,
    57,
    17,
    17,
    57,
    57,
    57,
    57,
    57,
    57,
    57,
    57,
    57,
    57,
    57,
    57,
    57,
    57,
    57,
    57,
    57,
    57,
    57,
    57,
    41,
    50,
    47,
    47,
    48,
    57,
    57,
    57,
    57,
    57,
    57,
    57,
    57,
    57,
    57,
    57,
    57,
    57,
    57,
    57,
    57,
    57,
    57,
    57,
    57,
    57,
    57,
    57,
    57,
    46,
    47,
    56,
    47,
    47,
    56,
    56,
    48,
    191,
    191,
    191,
    191,
    57,
    57,
    191,
    191,
    191,
    57,
    57,
    57,
    57,
    57,
    57,
    57,
    57,
    57,
    57,
    57,
    57,
    57,
    57,
    57,
    57,
    57,
    57,
    57,
    57,
    57,
    57,
    57,
    17,
    6,
    7,
    16,
    16,
    16,
    7,
    8,
    57,
    17,
    17,
    57,
    57,
    57,
    57,
    57,
    57,
    57,
    57,
    57,
    57,
    57,
    57,
    57,
    57,
    57,
    57,
    57,
    57,
    57,
    57,
    46,
    56,
    56,
    44,
    53,
    57,
    57,
    57,
    57,
    57,
    57,
    57,
    57,
    57,
    57,
    57,
    57,
    57,
    57,
    57,
    57,
    57,
    57,
    57,
    57,
    57,
    57,
    57,
    57,
    46,
    56,
    47,
    47,
    56,
    47,
    56,
    48,
    57,
    57,
    57,
    57,
    57,
    57,
    57,
    57,
    191,
    191,
    57,
    57,
    57,
    57,
    57,
    57,
    57,
    57,
    57,
    57,
    57,
    57,
    57,
    57,
    57,
    57,
    57,
    57,
    57,
    57,
    57,
    57,
    17,
    6,
    7,
    7,
    16,
    16,
    7,
    8,
    57,
    17,
    17,
    57,
    57,
    57,
    57,
    57,
    57,
    57,
    57,
    57,
    57,
    57,
    57,
    57,
    57,
    57,
    57,
    57,
    57,
    57,
    41,
    50,
    47,
    56,
    48,
    57,
    57,
    57,
    57,
    57,
    57,
    57,
    57,
    57,
    57,
    57,
    57,
    57,
    57,
    57,
    57,
    57,
    57,
    57,
    57,
    57,
    57,
    57,
    57,
    57,
    46,
    47,
    47,
    47,
    56,
    56,
    56,
    48,
    57,
    57,
    57,
    57,
    57,
    57,
    57,
    57,
    57,
    191,
    57,
    57,
    57,
    57,
    57,
    57,
    57,
    57,
    57,
    57,
    57,
    57,
    57,
    57,
    57,
    57,
    57,
    57,
    57,
    57,
    57,
    57,
    17,
    6,
    16,
    7,
    16,
    7,
    16,
    8,
    57,
    17,
    17,
    57,
    57,
    57,
    57,
    57,
    57,
    57,
    57,
    57,
    57,
    57,
    57,
    57,
    57,
    57,
    57,
    57,
    57,
    57,
    51,
    45,
    47,
    44,
    53,
    57,
    57,
    57,
    57,
    57,
    57,
    57,
    57,
    57,
    57,
    57,
    57,
    57,
    57,
    57,
    57,
    57,
    57,
    57,
    57,
    57,
    57,
    57,
    57,
    57,
    51,
    45,
    56,
    47,
    47,
    56,
    44,
    53,
    57,
    57,
    57,
    57,
    57,
    57,
    57,
    57,
    57,
    57,
    57,
    57,
    57,
    57,
    57,
    57,
    57,
    57,
    57,
    57,
    57,
    57,
    57,
    57,
    57,
    57,
    57,
    57,
    57,
    57,
    57,
    57,
    17,
    6,
    16,
    16,
    7,
    7,
    16,
    8,
    17,
    17,
    17,
    17,
    17,
    17,
    17,
    17,
    17,
    17,
    17,
    17,
    17,
    17,
    17,
    17,
    17,
    17,
    17,
    17,
    17,
    17,
    17,
    17,
    17,
    17,
    17,
    17,
    17,
    17,
    17,
    17,
    17,
    17,
    17,
    17,
    17,
    17,
    17,
    17,
    17,
    17,
    17,
    17,
    17,
    17,
    17,
    17,
    17,
    17,
    17,
    17,
    17,
    17,
    17,
    17,
    17,
    17,
    17,
    17,
    17,
    17,
    17,
    17,
    17,
    17,
    17,
    17,
    17,
    17,
    17,
    17,
    17,
    17,
    17,
    17,
    17,
    17,
    17,
    17,
    17,
    17,
    17,
    17,
    17,
    17,
    17,
    17,
    17,
    17,
    17,
    17,
    17,
    6,
    7,
    7,
    7,
    16,
    7,
    8,
    17,
    17,
    17,
    17,
    17,
    17,
    17,
    17,
    17,
    17,
    17,
    17,
    17,
    17,
    17,
    17,
    17,
    17,
    17,
    17,
    17,
    17,
    17,
    17,
    17,
    17,
    17,
    17,
    17,
    17,
    17,
    17,
    17,
    17,
    17,
    17,
    17,
    17,
    17,
    17,
    17,
    17,
    17,
    17,
    17,
    17,
    17,
    17,
    17,
    17,
    17,
    17,
    17,
    17,
    17,
    17,
    17,
    17,
    17,
    17,
    17,
    17,
    17,
    17,
    17,
    17,
    17,
    17,
    17,
    17,
    17,
    17,
    17,
    17,
    17,
    17,
    17,
    17,
    17,
    17,
    17,
    17,
    17,
    17,
    17,
    17,
    17,
    17,
    17,
    17,
    17,
    17,
    17,
    6,
    16,
    16,
    16,
    7,
    7,
    8,
    17,
    17,
    17,
    57,
    57,
    57,
    57,
    57,
    57,
    57,
    57,
    57,
    57,
    57,
    57,
    57,
    57,
    57,
    57,
    57,
    57,
    57,
    57,
    57,
    57,
    57,
    57,
    57,
    57,
    57,
    57,
    57,
    57,
    57,
    57,
    57,
    57,
    57,
    57,
    57,
    57,
    57,
    57,
    57,
    57,
    57,
    57,
    57,
    57,
    57,
    57,
    57,
    57,
    57,
    57,
    57,
    57,
    57,
    57,
    57,
    57,
    57,
    57,
    57,
    57,
    57,
    57,
    57,
    57,
    57,
    57,
    57,
    57,
    57,
    57,
    57,
    57,
    57,
    57,
    57,
    57,
    57,
    57,
    57,
    57,
    57,
    57,
    57,
    57,
    57,
    57,
    57,
    1,
    10,
    7,
    16,
    16,
    16,
    7,
    9,
    2,
    2,
    2,
    2,
    2,
    2,
    2,
    2,
    2,
    2,
    2,
    2,
    2,
    2,
    2,
    2,
    2,
    2,
    2,
    2,
    2,
    2,
    2,
    2,
    2,
    2,
    2,
    2,
    2,
    2,
    2,
    2,
    2,
    2,
    2,
    2,
    2,
    2,
    2,
    2,
    2,
    2,
    2,
    2,
    2,
    2,
    2,
    2,
    2,
    2,
    2,
    2,
    2,
    2,
    2,
    2,
    2,
    2,
    2,
    2,
    2,
    2,
    2,
    2,
    2,
    2,
    2,
    2,
    2,
    2,
    2,
    2,
    2,
    2,
    2,
    2,
    2,
    2,
    2,
    2,
    2,
    2,
    2,
    2,
    2,
    2,
    2,
    2,
    2,
    2,
    2,
    3,
    10,
    7,
    16,
    16,
    16,
    16,
    7,
    7,
    16,
    16,
    7,
    7,
    7,
    16,
    16,
    7,
    7,
    7,
    7,
    7,
    16,
    7,
    16,
    7,
    16,
    7,
    7,
    16,
    7,
    7,
    16,
    16,
    16,
    16,
    16,
    16,
    7,
    7,
    7,
    16,
    16,
    7,
    7,
    7,
    7,
    16,
    7,
    16,
    7,
    16,
    16,
    7,
    16,
    16,
    16,
    7,
    7,
    16,
    7,
    16,
    16,
    7,
    16,
    7,
    7,
    7,
    7,
    16,
    7,
    16,
    16,
    16,
    7,
    16,
    16,
    7,
    7,
    7,
    16,
    7,
    16,
    7,
    16,
    16,
    7,
    16,
    7,
    16,
    16,
    16,
    7,
    16,
    16,
    16,
    7,
    7,
    16,
    7,
    7,
    9,
    7,
    16,
    7,
    16,
    16,
    7,
    7,
    16,
    7,
    7,
    7,
    7,
    7,
    7,
    16,
    16,
    16,
    16,
    16,
    7,
    16,
    7,
    16,
    16,
    7,
    7,
    7,
    7,
    7,
    16,
    7,
    7,
    7,
    7,
    7,
    7,
    16,
    7,
    7,
    7,
    7,
    7,
    7,
    16,
    16,
    7,
    7,
    7,
    7,
    16,
    16,
    7,
    7,
    7,
    7,
    7,
    7,
    16,
    7,
    16,
    16,
    7,
    7,
    7,
    7,
    16,
    7,
    16,
    16,
    7,
    16,
    16,
    7,
    7,
    7,
    16,
    16,
    16,
    7,
    16,
    7,
    16,
    16,
    7,
    7,
    7,
    7,
    16,
    16,
    7,
    16,
    7,
    7,
    16,
    16,
    16,
    7,
    16,
    7,
    7,
    16,
    7,
    7,
    16,
    7,
    7,
    7,
    16,
    7,
    7,
    16,
    16,
    16,
    16,
    16,
    7,
    16,
    7,
    7,
    7,
    7,
    16,
    7,
    16,
    16,
    16,
    7,
    16,
    16,
    7,
    16,
    16,
    16,
    16,
    16,
    7,
    16,
    7,
    16,
    7,
    7,
    16,
    7,
    7,
    7,
    16,
    16,
    7,
    16,
    7,
    16,
    16,
    16,
    7,
    16,
    16,
    16,
    16,
    16,
    7,
    7,
    16,
    16,
    16,
    16,
    7,
    7,
    16,
    7,
    7,
    16,
    16,
    7,
    7,
    7,
    7,
    16,
    16,
    7,
    16,
    16,
    7,
    7,
    7,
    7,
    7,
    16,
    16,
    7,
    16,
    7,
    16,
    7,
    7,
    16,
    16,
    16,
    16,
    16,
    16,
    16,
    7,
    7,
    16,
    7,
    7,
    16,
    16,
    16,
    7,
    7,
    16,
    16,
    7,
    16,
    16,
    7,
    7,
    7,
    7,
    16,
    7,
    16,
    7,
    7,
    16,
    16,
    16,
    16,
    16,
    16,
    7,
    16,
    16,
    7,
    7,
    7,
    16,
    7,
    16,
    16,
    7,
    16,
    7,
    7,
    16,
    16,
    7,
    16,
    16,
    7,
    7,
    16,
    16,
    7,
    7,
    16,
    7,
    16,
    7,
    16,
    7,
    16,
    7,
    16,
    16,
    16,
    7,
    16,
    7,
    16,
    16,
    16,
    7,
    16,
    16,
    7,
    16,
    7,
    7,
    7,
    16,
    16,
    16,
    16,
    16,
    16,
    7,
    16,
    7,
    7,
    7,
    7,
    7,
    7,
    16,
    16,
    7,
    7,
    16,
    5,
    7,
    7,
    16,
    16,
    7,
    7,
    16,
    16,
    7,
    7,
    7,
    7,
    16,
    7,
    16,
    16,
    16,
    16,
    7,
    16,
    16,
    7,
    16,
    7,
    16,
    7,
    7,
    16,
    16,
    16,
    7,
    16,
    7,
    7,
    16,
    7,
    16,
    16,
    7,
    16,
    16,
    16,
    16,
    7,
    7,
    16,
    7,
    7,
    16,
    7,
    16,
    16,
    7,
    16,
    7,
    7,
    16,
    7,
    7,
    16,
    16,
    7,
    16,
    16,
    7,
    16,
    16,
    7,
    16,
    7,
    7,
    7,
    16,
    16,
    7,
    16,
    16,
    7,
    7,
    16,
    16,
    16,
    16,
    16,
    16,
    16,
    16,
    16,
    16,
    16,
    7,
    16,
    16,
    16,
    7,
    7,
    16,
    16,
    4,
    11,
    5,
    16,
    7,
    16,
    16,
    16,
    4,
    12,
    12,
    12,
    12,
    12,
    12,
    12,
    12,
    12,
    12,
    12,
    12,
    12,
    12,
    12,
    12,
    12,
    12,
    12,
    12,
    12,
    12,
    12,
    12,
    12,
    12,
    12,
    12,
    12,
    12,
    12,
    12,
    12,
    12,
    12,
    12,
    12,
    12,
    12,
    12,
    12,
    12,
    12,
    12,
    12,
    12,
    12,
    12,
    12,
    12,
    12,
    12,
    12,
    12,
    12,
    12,
    12,
    12,
    12,
    12,
    12,
    12,
    12,
    12,
    12,
    12,
    12,
    12,
    12,
    12,
    12,
    12,
    12,
    12,
    12,
    12,
    12,
    12,
    12,
    12,
    12,
    12,
    12,
    12,
    12,
    12,
    12,
    12,
    12,
    12,
    12,
    13,
    17,
    6,
    16,
    7,
    16,
    16,
    16,
    8,
    17,
    17,
    17,
    57,
    57,
    57,
    57,
    57,
    57,
    57,
    57,
    57,
    57,
    57,
    57,
    57,
    57,
    57,
    57,
    57,
    57,
    57,
    57,
    57,
    57,
    57,
    57,
    57,
    57,
    57,
    57,
    57,
    57,
    57,
    57,
    57,
    57,
    57,
    57,
    57,
    57,
    57,
    57,
    57,
    57,
    57,
    57,
    57,
    57,
    57,
    57,
    57,
    57,
    57,
    57,
    57,
    57,
    57,
    57,
    57,
    57,
    57,
    57,
    57,
    57,
    57,
    57,
    57,
    57,
    57,
    57,
    57,
    57,
    57,
    57,
    57,
    57,
    57,
    57,
    57,
    57,
    57,
    57,
    57,
    57,
    57,
    57,
    57,
    57,
    57,
    57,
    57,
    17,
    6,
    7,
    7,
    7,
    16,
    7,
    8,
    17,
    17,
    17,
    17,
    17,
    17,
    17,
    17,
    17,
    17,
    17,
    17,
    17,
    17,
    17,
    17,
    17,
    17,
    17,
    17,
    17,
    17,
    17,
    17,
    17,
    17,
    17,
    17,
    17,
    17,
    17,
    17,
    17,
    17,
    17,
    17,
    17,
    17,
    17,
    17,
    17,
    17,
    17,
    17,
    17,
    17,
    17,
    17,
    17,
    17,
    17,
    17,
    17,
    17,
    17,
    17,
    17,
    17,
    17,
    17,
    17,
    57,
    17,
    17,
    17,
    17,
    17,
    17,
    17,
    17,
    17,
    17,
    17,
    17,
    17,
    17,
    17,
    17,
    17,
    17,
    17,
    17,
    17,
    17,
    17,
    17,
    17,
    17,
    17,
    17,
    17,
    17,
    17,
    6,
    16,
    16,
    16,
    7,
    16,
    8,
    17,
    17,
    17,
    17,
    17,
    17,
    17,
    17,
    17,
    17,
    17,
    17,
    17,
    17,
    17,
    17,
    17,
    17,
    17,
    17,
    17,
    17,
    17,
    17,
    17,
    17,
    17,
    17,
    17,
    17,
    17,
    17,
    17,
    17,
    17,
    17,
    17,
    17,
    17,
    17,
    17,
    17,
    17,
    17,
    17,
    17,
    17,
    17,
    17,
    17,
    17,
    17,
    17,
    17,
    17,
    17,
    17,
    17,
    17,
    17,
    17,
    17,
    17,
    17,
    17,
    17,
    17,
    17,
    17,
    17,
    17,
    17,
    17,
    17,
    17,
    17,
    17,
    17,
    17,
    17,
    17,
    17,
    17,
    17,
    17,
    17,
    17,
    17,
    17,
    17,
    17,
    17,
    17,
    6,
    7,
    16,
    16,
    7,
    16,
    8,
    57,
    17,
    17,
    17,
    57,
    57,
    57,
    57,
    57,
    57,
    57,
    57,
    57,
    57,
    57,
    57,
    57,
    57,
    57,
    57,
    57,
    57,
    57,
    57,
    57,
    57,
    57,
    57,
    57,
    57,
    57,
    57,
    57,
    57,
    57,
    57,
    57,
    57,
    57,
    57,
    57,
    57,
    57,
    57,
    57,
    57,
    57,
    57,
    57,
    57,
    57,
    57,
    57,
    57,
    57,
    57,
    57,
    57,
    57,
    57,
    57,
    57,
    57,
    57,
    57,
    57,
    57,
    57,
    57,
    57,
    57,
    57,
    57,
    57,
    57,
    57,
    57,
    57,
    57,
    57,
    57,
    57,
    57,
    57,
    57,
    57,
    57,
    57,
    57,
    57,
    57,
    57,
    17,
    6,
    16,
    16,
    7,
    7,
    16,
    8,
    57,
    17,
    17,
    57,
    57,
    57,
    57,
    57,
    57,
    57,
    57,
    57,
    57,
    57,
    57,
    57,
    57,
    57,
    57,
    57,
    57,
    57,
    57,
    57,
    57,
    57,
    57,
    57,
    57,
    57,
    57,
    57,
    57,
    57,
    57,
    57,
    57,
    57,
    57,
    57,
    57,
    57,
    57,
    57,
    57,
    57,
    57,
    57,
    57,
    57,
    57,
    57,
    57,
    57,
    57,
    57,
    57,
    57,
    57,
    57,
    57,
    57,
    57,
    57,
    57,
    57,
    57,
    57,
    57,
    57,
    57,
    57,
    57,
    57,
    57,
    57,
    57,
    57,
    57,
    57,
    57,
    57,
    57,
    57,
    57,
    57,
    57,
    57,
    57,
    57,
    57,
    57,
    17,
    6,
    7,
    7,
    7,
    16,
    16,
    8,
    57,
    17,
    17,
    57,
    57,
    57,
    57,
    57,
    57,
    57,
    57,
    57,
    57,
    57,
    57,
    57,
    57,
    57,
    57,
    57,
    57,
    57,
    57,
    57,
    57,
    57,
    57,
    57,
    57,
    57,
    57,
    57,
    57,
    57,
    57,
    57,
    57,
    57,
    57,
    57,
    57,
    57,
    57,
    57,
    57,
    57,
    57,
    57,
    57,
    57,
    57,
    57,
    57,
    57,
    57,
    57,
    57,
    57,
    57,
    57,
    57,
    57,
    57,
    57,
    57,
    57,
    57,
    57,
    57,
    57,
    57,
    57,
    57,
    57,
    57,
    57,
    57,
    57,
    57,
    57,
    57,
    57,
    57,
    57,
    57,
    57,
    57,
    57,
    57,
    57,
    57,
    57,
    17,
    11,
    5,
    16,
    16,
    7,
    4,
    13,
    57,
    17,
    17,
    57,
    57,
    57,
    57,
    57,
    57,
    57,
    57,
    57,
    57,
    57,
    57,
    57,
    57,
    57,
    57,
    57,
    57,
    57,
    57,
    57,
    57,
    57,
    57,
    57,
    57,
    57,
    57,
    57,
    57,
    57,
    57,
    57,
    57,
    57,
    57,
    57,
    57,
    57,
    57,
    57,
    57,
    57,
    57,
    57,
    57,
    57,
    57,
    57,
    57,
    57,
    57,
    57,
    57,
    57,
    57,
    57,
    57,
    57,
    57,
    57,
    57,
    57,
    57,
    57,
    57,
    57,
    57,
    57,
    57,
    57,
    57,
    57,
    57,
    57,
    57,
    57,
    57,
    57,
    57,
    57,
    57,
    57,
    57,
    57,
    57,
    57,
    57,
    57
   ]
  },
  {
   "id": 2,
   "name": "walls",
   "type": "tilelayer",
   "width": 100,
   "height": 68,
   "x": 0,
   "y": 0,
   "opacity": 1,
   "visible": true,
   "data": [
    0,
    0,
    0,
    0,
    0,
    0,
    0,
    0,
    0,
    0,
    0,
    154,
    0,
    0,
    0,
    0,
    0,
    0,
    0,
    0,
    0,
    0,
    0,
    0,
    0,
    0,
    0,
    0,
    0,
    0,
    0,
    0,
    0,
    0,
    0,
    0,
    0,
    0,
    0,
    0,
    0,
    0,
    0,
    0,
    0,
    0,
    0,
    0,
    0,
    0,
    0,
    0,
    0,
    0,
    0,
    0,
    0,
    0,
    0,
    0,
    0,
    0,
    0,
    0,
    0,
    0,
    0,
    0,
    0,
    0,
    0,
    0,
    0,
    0,
    0,
    0,
    0,
    0,
    0,
    0,
    0,
    0,
    0,
    0,
    0,
    0,
    0,
    0,
    0,
    0,
    0,
    0,
    0,
    0,
    0,
    0,
    0,
    0,
    0,
    0,
    0,
    0,
    0,
    0,
    0,
    0,
    0,
    0,
    0,
    0,
    0,
    154,
    0,
    0,
    0,
    0,
    0,
    0,
    0,
    0,
    0,
    0,
    0,
    0,
    0,
    0,
    0,
    0,
    0,
    0,
    0,
    0,
    0,
    0,
    0,
    0,
    0,
    0,
    0,
    0,
    0,
    0,
    0,
    0,
    0,
    0,
    0,
    0,
    0,
    0,
    0,
    0,
    0,
    0,
    0,
    0,
    0,
    0,
    0,
    0,
    0,
    0,
    0,
    0,
    0,
    0,
    0,
    0,
    0,
    0,
    0,
    0,
    0,
    0,
    0,
    0,
    0,
    0,
    0,
    0,
    0,
    0,
    0,
    0,
    0,
    0,
    0,
    0,
    0,
    0,
    0,
    0,
    0,
    0,
    0,
    0,
    0,
    0,
    0,
    0,
    0,
    0,
    0,
    0,
    0,
    0,
    0,
    0,
    0,
    0,
    0,
    149,
    138,
    138,
    138,
    138,
    138,
    138,
    138,
    138,
    138,
    138,
    138,
    0,
    138,
    138,
    138,
    138,
    138,
    138,
    138,
    138,
    138,
    138,
    138,
    138,
    138,
    138,
    138,
    138,
    138,
    138,
    138,
    138,
    138,
    138,
    138,
    138,
    138,
    138,
    138,
    138,
    138,
    138,
    138,
    138,
    138,
    138,
    138,
    138,
    138,
    0,
    138,
    138,
    138,
    138,
    138,
    138,
    138,
    138,
    138,
    138,
    138,
    138,
    138,
    138,
    138,
    138,
    138,
    138,
    0,
    0,
    0,
    0,
    0,
    0,
    0,
    0,
    0,
    0,
    0,
    0,
    0,
    0,
    0,
    0,
    0,
    0,
    0,
    0,
    0,
    0,
    0,
    0,
    0,
    0,
    0,
    0,
    0,
    0,
    0,
    154,
    0,
    0,
    0,
    0,
    0,
    0,
    0,
    0,
    0,
    0,
    0,
    0,
    0,
    0,
    0,
    0,
    0,
    0,
    0,
    0,
    0,
    0,
    0,
    0,
    0,
    0,
    0,
    0,
    0,
    0,
    0,
    0,
    0,
    0,
    0,
    0,
    0,
    0,
    0,
    0,
    0,
    0,
    0,
    0,
    0,
    0,
    0,
    0,
    0,
    0,
    0,
    0,
    0,
    0,
    0,
    0,
    0,
    0,
    0,
    0,
    0,
    0,
    0,
    0,
    0,
    0,
    0,
    154,
    0,
    0,
    0,
    0,
    0,
    0,
    0,
    0,
    0,
    0,
    0,
    0,
    0,
    0,
    0,
    0,
    0,
    0,
    0,
    0,
    0,
    0,
    0,
    0,
    0,
    0,
    0,
    0,
    0,
    0,
    0,
    154,
    0,
    0,
    0,
    0,
    0,
    0,
    0,
    0,
    0,
    0,
    0,
    0,
    0,
    0,
    0,
    0,
    0,
    0,
    0,
    0,
    0,
    0,
    0,
    0,
    0,
    0,
    0,
    0,
    0,
    0,
    0,
    0,
    0,
    0,
    0,
    0,
    0,
    0,
    0,
    0,
    0,
    0,
    0,
    0,
    0,
    0,
    0,
    0,
    0,
    0,
    0,
    0,
    0,
    0,
    0,
    0,
    0,
    0,
    0,
    0,
    0,
    0,
    0,
    0,
    0,
    0,
    0,
    154,
    0,
    0,
    0,
    0,
    0,
    0,
    0,
    0,
    0,
    0,
    0,
    0,
    0,
    0,
    0,
    0,
    0,
    0,
    0,
    0,
    0,
    0,
    0,
    0,
    0,
    0,
    0,
    0,
    0,
    0,
    0,
    154,
    0,
    0,
    0,
    0,
    0,
    0,
    0,
    0,
    0,
    0,
    0,
    0,
    0,
    0,
    0,
    0,
    0,
    0,
    0,
    0,
    0,
    0,
    0,
    0,
    0,
    0,
    0,
    0,
    0,
    0,
    0,
    0,
    0,
    0,
    0,
    0,
    0,
    0,
    0,
    0,
    0,
    0,
    0,
    0,
    0,
    0,
    0,
    0,
    0,
    0,
    0,
    0,
    0,
    0,
    0,
    0,
    0,
    0,
    0,
    98,
    98,
    98,
    98,
    98,
    0,
    0,
    0,
    154,
    0,
    0,
    0,
    0,
    0,
    0,
    0,
    0,
    0,
    0,
    0,
    0,
    0,
    0,
    0,
    0,
    0,
    0,
    0,
    0,
    0,
    0,
    0,
    0,
    0,
    0,
    0,
    0,
    0,
    0,
    0,
    154,
    0,
    0,
    0,
    0,
    0,
    0,
    0,
    0,
    0,
    0,
    0,
    0,
    0,
    0,
    0,
    0,
    0,
    0,
    0,
    0,
    0,
    0,
    0,
    0,
    0,
    0,
    0,
    0,
    0,
    0,
    0,
    0,
    0,
    0,
    0,
    0,
    0,
    0,
    0,
    0,
    0,
    0,
    0,
    0,
    0,
    0,
    0,
    0,
    0,
    0,
    0,
    0,
    0,
    0,
    0,
    0,
    0,
    0,
    0,
    109,
    109,
    109,
    109,
    109,
    0,
    0,
    0,
    154,
    0,
    0,
    0,
    0,
    0,
    0,
    0,
    0,
    0,
    0,
    0,
    0,
    0,
    0,
    0,
    0,
    0,
    0,
    0,
    0,
    0,
    0,
    0,
    0,
    0,
    0,
    0,
    0,
    0,
    0,
    0,
    154,
    0,
    0,
    0,
    0,
    0,
    0,
    0,
    0,
    0,
    0,
    0,
    0,
    0,
    0,
    0,
    0,
    0,
    0,
    0,
    0,
    0,
    0,
    0,
    0,
    0,
    0,
    0,
    0,
    0,
    0,
    0,
    0,
    0,
    0,
    0,
    0,
    0,
    0,
    0,
    0,
    0,
    0,
    0,
    0,
    0,
    0,
    0,
    0,
    0,
    0,
    0,
    0,
    0,
    0,
    0,
    0,
    0,
    0,
    0,
    109,
    109,
    109,
    109,
    109,
    0,
    0,
    0,
    154,
    0,
    0,
    0,
    0,
    0,
    0,
    0,
    0,
    0,
    0,
    0,
    0,
    0,
    0,
    0,
    0,
    0,
    0,
    0,
    0,
    0,
    0,
    0,
    0,
    0,
    0,
    0,
    0,
    0,
    0,
    0,
    154,
    0,
    0,
    0,
    0,
    0,
    0,
    0,
    0,
    0,
    0,
    0,
    0,
    0,
    0,
    0,
    0,
    0,
    0,
    0,
    0,
    0,
    0,
    0,
    0,
    0,
    0,
    0,
    0,
    0,
    0,
    0,
    0,
    0,
    0,
    0,
    0,
    0,
    0,
    0,
    0,
    0,
    0,
    0,
    0,
    0,
    0,
    0,
    0,
    0,
    0,
    0,
    0,
    0,
    0,
    0,
    0,
    0,
    0,
    0,
    109,
    109,
    109,
    109,
    109,
    0,
    0,
    0,
    154,
    0,
    0,
    0,
    0,
    0,
    0,
    118,
    118,
    0,
    0,
    0,
    0,
    0,
    0,
    0,
    0,
    0,
    0,
    0,
    0,
    0,
    0,
    0,
    0,
    0,
    0,
    0,
    0,
    0,
    0,
    0,
    154,
    0,
    0,
    0,
    0,
    0,
    0,
    0,
    0,
    0,
    0,
    0,
    0,
    0,
    0,
    0,
    0,
    0,
    0,
    0,
    0,
    0,
    0,
    0,
    0,
    0,
    0,
    0,
    0,
    0,
    0,
    0,
    0,
    0,
    0,
    0,
    0,
    0,
    0,
    0,
    0,
    0,
    0,
    0,
    0,
    0,
    0,
    0,
    0,
    0,
    0,
    0,
    0,
    0,
    0,
    0,
    0,
    0,
    0,
    0,
    0,
    0,
    0,
    0,
    0,
    0,
    0,
    0,
    154,
    0,
    0,
    0,
    0,
    0,
    0,
    129,
    129,
    0,
    0,
    0,
    0,
    0,
    0,
    0,
    0,
    0,
    0,
    0,
    0,
    0,
    0,
    0,
    0,
    0,
    0,
    0,
    0,
    0,
    0,
    0,
    0,
    0,
    0,
    0,
    0,
    0,
    0,
    0,
    0,
    0,
    0,
    0,
    0,
    0,
    0,
    0,
    0,
    0,
    0,
    0,
    0,
    0,
    0,
    0,
    0,
    0,
    0,
    0,
    0,
    0,
    0,
    0,
    0,
    0,
    0,
    0,
    0,
    0,
    0,
    0,
    0,
    0,
    0,
    0,
    0,
    0,
    0,
    0,
    0,
    0,
    0,
    0,
    0,
    0,
    0,
    0,
    0,
    0,
    0,
    0,
    0,
    0,
    0,
    0,
    0,
    0,
    0,
    0,
    154,
    0,
    0,
    0,
    0,
    0,
    0,
    0,
    0,
    0,
    0,
    0,
    0,
    0,
    0,
    0,
    0,
    0,
    0,
    0,
    0,
    0,
    0,
    0,
    0,
    0,
    0,
    0,
    0,
    0,
    0,
    0,
    154,
    0,
    0,
    0,
    0,
    0,
    0,
    0,
    0,
    0,
    0,
    0,
    0,
    0,
    0,
    0,
    0,
    0,
    0,
    0,
    0,
    0,
    0,
    0,
    0,
    0,
    0,
    0,
    0,
    0,
    0,
    0,
    0,
    0,
    0,
    0,
    0,
    0,
    0,
    0,
    0,
    0,
    0,
    0,
    0,
    0,
    0,
    0,
    0,
    0,
    0,
    0,
    0,
    0,
    0,
    0,
    0,
    0,
    0,
    0,
    0,
    0,
    0,
    0,
    0,
    0,
    0,
    0,
    154,
    0,
    0,
    0,
    0,
    0,
    0,
    0,
    0,
    0,
    118,
    118,
    118,
    0,
    0,
    0,
    0,
    0,
    0,
    0,
    0,
    0,
    0,
    0,
    0,
    0,
    0,
    0,
    0,
    0,
    0,
    0,
    154,
    0,
    0,
    0,
    0,
    0,
    0,
    0,
    0,
    0,
    0,
    0,
    0,
    0,
    0,
    0,
    0,
    0,
    0,
    0,
    0,
    0,
    0,
    0,
    0,
    0,
    0,
    0,
    0,
    0,
    0,
    0,
    0,
    0,
    0,
    0,
    0,
    0,
    0,
    0,
    0,
    0,
    0,
    0,
    0,
    0,
    0,
    0,
    0,
    0,
    0,
    0,
    0,
    0,
    0,
    0,
    0,
    0,
    0,
    0,
    0,
    0,
    0,
    0,
    0,
    0,
    0,
    0,
    154,
    0,
    0,
    0,
    0,
    0,
    0,
    0,
    0,
    0,
    129,
    129,
    129,
    0,
    0,
    0,
    0,
    0,
    0,
    0,
    0,
    0,
    0,
    0,
    0,
    0,
    0,
    0,
    0,
    0,
    0,
    0,
    154,
    0,
    0,
    0,
    0,
    0,
    0,
    0,
    0,
    0,
    0,
    0,
    0,
    0,
    0,
    0,
    0,
    0,
    0,
    0,
    0,
    0,
    0,
    0,
    0,
    0,
    0,
    0,
    0,
    0,
    0,
    0,
    0,
    0,
    0,
    0,
    0,
    0,
    0,
    0,
    0,
    0,
    0,
    0,
    0,
    0,
    0,
    0,
    0,
    0,
    0,
    0,
    0,
    0,
    0,
    0,
    0,
    0,
    0,
    0,
    0,
    0,
    0,
    0,
    0,
    0,
    0,
    0,
    154,
    0,
    0,
    0,
    0,
    0,
    0,
    0,
    0,
    0,
    0,
    0,
    0,
    0,
    0,
    0,
    0,
    0,
    0,
    0,
    0,
    0,
    0,
    0,
    0,
    0,
    0,
    0,
    0,
    0,
    0,
    0,
    154,
    0,
    0,
    0,
    0,
    0,
    0,
    0,
    0,
    0,
    0,
    0,
    0,
    0,
    0,
    0,
    0,
    0,
    0,
    0,
    0,
    0,
    0,
    0,
    0,
    0,
    0,
    0,
    0,
    0,
    0,
    0,
    0,
    0,
    0,
    0,
    0,
    0,
    0,
    0,
    0,
    0,
    0,
    0,
    0,
    0,
    0,
    0,
    0,
    0,
    0,
    0,
    0,
    0,
    0,
    0,
    0,
    0,
    0,
    0,
    0,
    0,
    0,
    0,
    0,
    0,
    0,
    0,
    154,
    0,
    0,
    0,
    0,
    0,
    0,
    0,
    0,
    0,
    0,
    0,
    0,
    0,
    118,
    118,
    0,
    0,
    0,
    0,
    0,
    0,
    0,
    0,
    0,
    0,
    0,
    0,
    0,
    0,
    0,
    0,
    154,
    0,
    0,
    0,
    0,
    0,
    0,
    0,
    0,
    0,
    0,
    0,
    0,
    0,
    0,
    0,
    0,
    0,
    0,
    0,
    0,
    0,
    0,
    0,
    0,
    0,
    0,
    0,
    0,
    0,
    0,
    0,
    0,
    0,
    0,
    0,
    0,
    0,
    0,
    0,
    0,
    0,
    0,
    0,
    0,
    0,
    0,
    0,
    0,
    0,
    0,
    0,
    0,
    0,
    0,
    0,
    0,
    0,
    0,
    0,
    0,
    0,
    0,
    0,
    0,
    0,
    0,
    0,
    154,
    0,
    0,
    0,
    0,
    0,
    0,
    0,
    0,
    0,
    0,
    0,
    0,
    0,
    129,
    129,
    0,
    0,
    0,
    0,
    0,
    0,
    0,
    0,
    0,
    0,
    0,
    0,
    0,
    0,
    0,
    0,
    154,
    0,
    0,
    0,
    0,
    0,
    0,
    0,
    0,
    0,
    0,
    98,
    98,
    0,
    0,
    98,
    98,
    98,
    0,
    0,
    0,
    0,
    0,
    0,
    98,
    98,
    98,
    98,
    98,
    0,
    98,
    98,
    0,
    0,
    0,
    0,
    0,
    0,
    0,
    0,
    0,
    0,
    0,
    0,
    0,
    0,
    0,
    0,
    0,
    0,
    0,
    0,
    0,
    0,
    0,
    0,
    0,
    0,
    0,
    0,
    0,
    0,
    0,
    0,
    0,
    0,
    0,
    0,
    154,
    0,
    0,
    0,
    0,
    0,
    0,
    0,
    0,
    0,
    0,
    0,
    0,
    0,
    0,
    0,
    0,
    0,
    0,
    0,
    0,
    0,
    0,
    0,
    0,
    0,
    0,
    0,
    0,
    0,
    0,
    0,
    154,
    0,
    0,
    0,
    0,
    0,
    0,
    0,
    0,
    0,
    0,
    114,
    0,
    0,
    0,
    0,
    0,
    114,
    0,
    0,
    0,
    0,
    0,
    0,
    114,
    0,
    0,
    0,
    0,
    0,
    0,
    114,
    0,
    0,
    0,
    0,
    0,
    0,
    0,
    0,
    0,
    0,
    0,
    0,
    0,
    0,
    0,
    0,
    0,
    0,
    0,
    0,
    0,
    0,
    0,
    0,
    0,
    0,
    0,
    0,
    0,
    0,
    0,
    0,
    0,
    0,
    0,
    0,
    154,
    0,
    0,
    0,
    0,
    0,
    0,
    0,
    0,
    0,
    0,
    0,
    0,
    0,
    0,
    0,
    0,
    0,
    0,
    0,
    0,
    0,
    0,
    0,
    0,
    0,
    0,
    0,
    0,
    0,
    0,
    0,
    154,
    0,
    0,
    0,
    98,
    98,
    98,
    98,
    98,
    98,
    98,
    109,
    0,
    0,
    0,
    0,
    0,
    109,
    98,
    0,
    98,
    98,
    0,
    0,
    114,
    0,
    0,
    0,
    0,
    0,
    0,
    114,
    0,
    0,
    0,
    0,
    0,
    0,
    0,
    0,
    0,
    0,
    0,
    98,
    98,
    98,
    98,
    98,
    98,
    0,
    0,
    0,
    0,
    0,
    0,
    0,
    0,
    0,
    0,
    0,
    0,
    0,
    0,
    0,
    0,
    0,
    0,
    0,
    154,
    0,
    0,
    0,
    0,
    0,
    0,
    0,
    0,
    0,
    0,
    0,
    0,
    0,
    0,
    0,
    0,
    0,
    0,
    0,
    0,
    0,
    0,
    0,
    0,
    0,
    0,
    0,
    0,
    0,
    0,
    0,
    154,
    0,
    0,
    0,
    114,
    0,
    0,
    0,
    0,
    0,
    94,
    0,
    0,
    0,
    0,
    0,
    0,
    0,
    0,
    0,
    0,
    109,
    98,
    98,
    109,
    0,
    0,
    0,
    0,
    0,
    0,
    109,
    0,
    0,
    98,
    98,
    0,
    0,
    0,
    0,
    0,
    0,
    0,
    114,
    0,
    0,
    0,
    0,
    114,
    0,
    0,
    0,
    0,
    0,
    0,
    0,
    0,
    0,
    0,
    0,
    0,
    0,
    0,
    0,
    0,
    0,
    0,
    0,
    154,
    0,
    0,
    0,
    0,
    0,
    0,
    0,
    0,
    0,
    0,
    0,
    0,
    0,
    0,
    0,
    0,
    0,
    0,
    0,
    0,
    0,
    0,
    0,
    0,
    0,
    0,
    0,
    0,
    0,
    0,
    0,
    154,
    0,
    0,
    0,
    114,
    0,
    0,
    0,
    0,
    0,
    94,
    0,
    0,
    0,
    0,
    0,
    0,
    0,
    0,
    0,
    0,
    94,
    0,
    0,
    0,
    0,
    0,
    0,
    0,
    0,
    0,
    0,
    0,
    0,
    0,
    114,
    0,
    0,
    0,
    0,
    0,
    0,
    0,
    114,
    0,
    0,
    0,
    0,
    114,
    0,
    0,
    0,
    0,
    0,
    0,
    0,
    0,
    0,
    0,
    0,
    0,
    0,
    0,
    0,
    0,
    0,
    0,
    0,
    154,
    0,
    0,
    0,
    0,
    0,
    0,
    0,
    0,
    0,
    0,
    0,
    0,
    0,
    0,
    0,
    0,
    0,
    0,
    0,
    0,
    0,
    0,
    0,
    0,
    0,
    0,
    0,
    0,
    0,
    0,
    0,
    154,
    0,
    0,
    0,
    0,
    0,
    0,
    0,
    0,
    0,
    0,
    0,
    0,
    0,
    0,
    0,
    0,
    0,
    0,
    0,
    0,
    94,
    0,
    0,
    0,
    0,
    0,
    0,
    0,
    0,
    0,
    0,
    0,
    0,
    0,
    114,
    0,
    0,
    0,
    0,
    0,
    0,
    0,
    114,
    0,
    0,
    0,
    0,
    114,
    0,
    0,
    0,
    0,
    0,
    0,
    0,
    0,
    0,
    0,
    0,
    0,
    0,
    0,
    0,
    0,
    0,
    0,
    0,
    154,
    0,
    0,
    0,
    0,
    0,
    0,
    0,
    0,
    0,
    0,
    0,
    0,
    0,
    0,
    0,
    0,
    0,
    0,
    0,
    0,
    0,
    0,
    0,
    0,
    0,
    0,
    0,
    0,
    0,
    0,
    0,
    154,
    0,
    0,
    0,
    114,
    0,
    0,
    0,
    0,
    0,
    0,
    0,
    0,
    0,
    0,
    0,
    0,
    0,
    0,
    0,
    0,
    94,
    0,
    0,
    0,
    0,
    0,
    0,
    0,
    0,
    0,
    0,
    0,
    0,
    0,
    109,
    98,
    98,
    98,
    98,
    0,
    98,
    98,
    109,
    0,
    0,
    78,
    78,
    109,
    98,
    98,
    98,
    0,
    98,
    98,
    98,
    0,
    0,
    0,
    0,
    0,
    0,
    0,
    0,
    0,
    0,
    0,
    0,
    154,
    0,
    0,
    0,
    0,
    0,
    0,
    0,
    0,
    0,
    0,
    0,
    0,
    0,
    0,
    0,
    0,
    0,
    0,
    0,
    0,
    0,
    0,
    0,
    0,
    0,
    0,
    0,
    0,
    0,
    0,
    0,
    154,
    0,
    0,
    0,
    114,
    0,
    0,
    0,
    0,
    0,
    94,
    0,
    0,
    0,
    0,
    0,
    0,
    0,
    0,
    0,
    0,
    94,
    0,
    0,
    0,
    0,
    0,
    0,
    0,
    0,
    0,
    0,
    0,
    0,
    0,
    0,
    0,
    0,
    0,
    0,
    0,
    0,
    0,
    94,
    0,
    0,
    0,
    0,
    94,
    0,
    0,
    0,
    0,
    0,
    0,
    114,
    0,
    0,
    0,
    0,
    0,
    0,
    0,
    0,
    0,
    0,
    0,
    0,
    154,
    0,
    0,
    0,
    0,
    0,
    0,
    0,
    0,
    0,
    0,
    0,
    0,
    0,
    0,
    0,
    0,
    0,
    0,
    0,
    0,
    0,
    0,
    0,
    0,
    0,
    0,
    0,
    0,
    0,
    0,
    0,
    154,
    0,
    0,
    0,
    109,
    78,
    78,
    0,
    0,
    78,
    89,
    0,
    0,
    0,
    0,
    0,
    0,
    0,
    0,
    0,
    0,
    94,
    0,
    0,
    0,
    0,
    0,
    0,
    0,
    0,
    0,
    0,
    0,
    0,
    0,
    0,
    0,
    0,
    0,
    0,
    0,
    0,
    0,
    94,
    0,
    0,
    0,
    0,
    94,
    0,
    0,
    0,
    0,
    0,
    0,
    114,
    0,
    0,
    0,
    0,
    0,
    0,
    0,
    0,
    0,
    0,
    0,
    0,
    154,
    0,
    0,
    0,
    0,
    0,
    0,
    0,
    0,
    0,
    0,
    0,
    0,
    0,
    0,
    0,
    0,
    0,
    0,
    0,
    0,
    0,
    0,
    0,
    0,
    0,
    0,
    0,
    0,
    0,
    0,
    0,
    154,
    0,
    0,
    0,
    114,
    0,
    0,
    0,
    0,
    0,
    94,
    0,
    0,
    0,
    0,
    0,
    0,
    0,
    0,
    0,
    0,
    0,
    0,
    0,
    0,
    0,
    0,
    0,
    0,
    0,
    0,
    0,
    0,
    0,
    0,
    0,
    0,
    0,
    0,
    0,
    0,
    0,
    0,
    0,
    0,
    0,
    0,
    0,
    94,
    0,
    0,
    0,
    0,
    0,
    0,
    114,
    0,
    0,
    0,
    0,
    0,
    0,
    0,
    0,
    0,
    0,
    0,
    0,
    154,
    0,
    0,
    118,
    118,
    118,
    118,
    118,
    0,
    118,
    118,
    118,
    118,
    118,
    118,
    118,
    118,
    118,
    118,
    118,
    118,
    0,
    0,
    0,
    0,
    0,
    0,
    0,
    0,
    0,
    0,
    0,
    154,
    0,
    0,
    0,
    114,
    0,
    0,
    0,
    0,
    0,
    0,
    0,
    0,
    0,
    0,
    0,
    0,
    0,
    0,
    0,
    0,
    0,
    0,
    0,
    0,
    0,
    0,
    0,
    0,
    0,
    0,
    0,
    0,
    0,
    0,
    0,
    0,
    0,
    0,
    0,
    0,
    0,
    0,
    0,
    0,
    0,
    0,
    0,
    94,
    0,
    0,
    0,
    0,
    0,
    0,
    114,
    0,
    0,
    0,
    0,
    0,
    0,
    0,
    0,
    0,
    0,
    0,
    0,
    154,
    0,
    0,
    134,
    0,
    0,
    0,
    0,
    0,
    0,
    0,
    0,
    0,
    0,
    134,
    0,
    0,
    0,
    0,
    0,
    134,
    0,
    0,
    0,
    0,
    0,
    0,
    0,
    0,
    0,
    0,
    0,
    154,
    0,
    0,
    0,
    114,
    0,
    0,
    0,
    0,
    0,
    0,
    0,
    0,
    0,
    0,
    0,
    0,
    0,
    0,
    0,
    0,
    94,
    0,
    0,
    0,
    0,
    0,
    0,
    0,
    0,
    0,
    0,
    0,
    0,
    0,
    0,
    0,
    0,
    0,
    0,
    0,
    0,
    0,
    94,
    0,
    0,
    0,
    0,
    0,
    0,
    0,
    0,
    0,
    0,
    0,
    114,
    0,
    0,
    0,
    0,
    0,
    0,
    0,
    0,
    0,
    0,
    0,
    0,
    154,
    0,
    0,
    134,
    0,
    0,
    0,
    0,
    0,
    0,
    0,
    0,
    0,
    0,
    0,
    0,
    0,
    0,
    0,
    0,
    134,
    0,
    0,
    0,
    0,
    0,
    0,
    0,
    0,
    0,
    0,
    0,
    154,
    0,
    0,
    0,
    114,
    0,
    0,
    0,
    0,
    0,
    94,
    0,
    0,
    0,
    0,
    0,
    0,
    0,
    0,
    0,
    0,
    94,
    0,
    0,
    0,
    0,
    0,
    0,
    0,
    0,
    0,
    0,
    0,
    0,
    0,
    0,
    0,
    0,
    0,
    0,
    0,
    0,
    0,
    94,
    0,
    0,
    0,
    0,
    0,
    0,
    0,
    0,
    0,
    0,
    0,
    114,
    0,
    0,
    0,
    0,
    0,
    0,
    0,
    0,
    0,
    0,
    0,
    0,
    154,
    0,
    0,
    134,
    0,
    0,
    0,
    0,
    0,
    0,
    0,
    0,
    0,
    0,
    0,
    0,
    0,
    0,
    0,
    0,
    134,
    0,
    0,
    0,
    0,
    0,
    0,
    0,
    0,
    0,
    0,
    0,
    154,
    0,
    0,
    0,
    109,
    78,
    0,
    0,
    78,
    78,
    89,
    78,
    78,
    78,
    78,
    78,
    78,
    78,
    78,
    78,
    78,
    89,
    78,
    78,
    78,
    78,
    78,
    78,
    78,
    78,
    78,
    78,
    78,
    78,
    78,
    78,
    78,
    78,
    0,
    0,
    78,
    78,
    78,
    89,
    78,
    78,
    78,
    78,
    89,
    0,
    0,
    0,
    0,
    0,
    0,
    114,
    0,
    0,
    0,
    0,
    0,
    0,
    0,
    0,
    0,
    0,
    0,
    0,
    154,
    0,
    0,
    134,
    0,
    0,
    0,
    0,
    0,
    0,
    0,
    0,
    0,
    0,
    134,
    0,
    0,
    0,
    0,
    0,
    134,
    0,
    0,
    0,
    0,
    0,
    0,
    0,
    0,
    0,
    0,
    0,
    154,
    0,
    0,
    0,
    114,
    0,
    0,
    0,
    0,
    0,
    0,
    0,
    0,
    0,
    0,
    0,
    0,
    0,
    0,
    0,
    0,
    94,
    0,
    0,
    0,
    0,
    0,
    0,
    0,
    0,
    0,
    0,
    0,
    0,
    0,
    0,
    0,
    0,
    0,
    0,
    0,
    0,
    0,
    0,
    0,
    0,
    0,
    0,
    94,
    0,
    0,
    0,
    0,
    0,
    0,
    114,
    0,
    0,
    0,
    0,
    0,
    0,
    0,
    0,
    0,
    0,
    0,
    0,
    154,
    0,
    0,
    134,
    0,
    0,
    0,
    0,
    0,
    0,
    0,
    0,
    0,
    0,
    134,
    0,
    0,
    0,
    0,
    0,
    134,
    0,
    0,
    0,
    0,
    0,
    0,
    0,
    0,
    0,
    0,
    0,
    154,
    0,
    0,
    0,
    0,
    0,
    0,
    0,
    0,
    0,
    0,
    0,
    0,
    0,
    0,
    0,
    0,
    0,
    0,
    0,
    0,
    94,
    0,
    0,
    0,
    0,
    0,
    0,
    0,
    0,
    0,
    0,
    0,
    0,
    0,
    0,
    0,
    0,
    0,
    0,
    0,
    0,
    0,
    0,
    0,
    0,
    0,
    0,
    94,
    0,
    0,
    0,
    0,
    0,
    0,
    114,
    0,
    0,
    0,
    0,
    0,
    0,
    0,
    0,
    0,
    0,
    0,
    0,
    154,
    0,
    0,
    134,
    0,
    0,
    0,
    0,
    0,
    0,
    0,
    0,
    0,
    0,
    129,
    118,
    118,
    0,
    0,
    118,
    129,
    0,
    0,
    0,
    0,
    0,
    0,
    0,
    0,
    0,
    0,
    0,
    154,
    0,
    0,
    98,
    109,
    0,
    0,
    0,
    0,
    0,
    0,
    0,
    0,
    0,
    0,
    0,
    0,
    0,
    0,
    0,
    0,
    94,
    0,
    0,
    0,
    0,
    0,
    0,
    0,
    0,
    0,
    0,
    0,
    0,
    0,
    0,
    94,
    0,
    0,
    0,
    0,
    0,
    0,
    0,
    0,
    0,
    0,
    0,
    94,
    0,
    0,
    0,
    0,
    0,
    0,
    114,
    0,
    0,
    0,
    0,
    0,
    0,
    0,
    0,
    0,
    0,
    0,
    0,
    154,
    0,
    0,
    134,
    0,
    0,
    0,
    0,
    0,
    0,
    0,
    0,
    0,
    0,
    134,
    0,
    0,
    0,
    0,
    0,
    134,
    0,
    0,
    0,
    0,
    0,
    0,
    0,
    0,
    0,
    0,
    0,
    154,
    0,
    0,
    109,
    109,
    78,
    0,
    0,
    0,
    0,
    0,
    0,
    0,
    78,
    78,
    0,
    0,
    0,
    0,
    0,
    0,
    89,
    78,
    78,
    0,
    0,
    78,
    78,
    78,
    0,
    0,
    78,
    78,
    78,
    78,
    78,
    89,
    0,
    0,
    0,
    0,
    0,
    0,
    0,
    0,
    0,
    0,
    0,
    89,
    78,
    0,
    0,
    78,
    78,
    78,
    109,
    98,
    98,
    98,
    98,
    98,
    98,
    138,
    138,
    138,
    138,
    138,
    138,
    149,
    0,
    0,
    134,
    0,
    0,
    0,
    0,
    0,
    0,
    0,
    0,
    0,
    0,
    0,
    0,
    0,
    0,
    0,
    0,
    134,
    0,
    0,
    0,
    0,
    0,
    0,
    0,
    0,
    0,
    0,
    0,
    154,
    0,
    0,
    109,
    109,
    89,
    0,
    0,
    0,
    0,
    0,
    0,
    0,
    89,
    89,
    0,
    0,
    0,
    0,
    0,
    0,
    94,
    0,
    0,
    0,
    0,
    0,
    0,
    0,
    0,
    0,
    0,
    0,
    0,
    0,
    0,
    94,
    0,
    0,
    0,
    0,
    0,
    0,
    0,
    0,
    0,
    0,
    0,
    94,
    0,
    0,
    0,
    0,
    0,
    0,
    0,
    0,
    0,
    0,
    0,
    0,
    114,
    0,
    0,
    0,
    0,
    0,
    0,
    154,
    0,
    0,
    134,
    0,
    0,
    0,
    0,
    0,
    0,
    0,
    0,
    0,
    0,
    0,
    0,
    0,
    0,
    0,
    0,
    134,
    0,
    0,
    0,
    0,
    0,
    0,
    0,
    0,
    0,
    0,
    0,
    154,
    0,
    0,
    109,
    109,
    0,
    0,
    0,
    0,
    0,
    0,
    0,
    0,
    0,
    0,
    0,
    0,
    0,
    0,
    0,
    0,
    94,
    0,
    0,
    0,
    0,
    0,
    0,
    0,
    0,
    0,
    0,
    0,
    0,
    0,
    0,
    94,
    0,
    0,
    0,
    0,
    0,
    0,
    0,
    0,
    0,
    0,
    0,
    94,
    0,
    0,
    0,
    0,
    0,
    0,
    0,
    0,
    0,
    0,
    0,
    0,
    114,
    0,
    0,
    0,
    0,
    0,
    0,
    154,
    0,
    0,
    134,
    0,
    0,
    0,
    0,
    0,
    0,
    0,
    0,
    0,
    0,
    134,
    0,
    0,
    0,
    0,
    0,
    134,
    0,
    0,
    0,
    0,
    0,
    0,
    0,
    0,
    0,
    0,
    0,
    154,
    0,
    0,
    0,
    0,
    0,
    0,
    0,
    0,
    0,
    0,
    0,
    0,
    0,
    0,
    0,
    0,
    0,
    0,
    0,
    0,
    94,
    0,
    0,
    0,
    0,
    0,
    0,
    0,
    0,
    0,
    78,
    78,
    78,
    78,
    78,
    89,
    0,
    0,
    0,
    0,
    0,
    0,
    0,
    0,
    0,
    0,
    0,
    94,
    0,
    0,
    0,
    0,
    0,
    0,
    0,
    0,
    0,
    0,
    0,
    0,
    114,
    0,
    0,
    0,
    0,
    0,
    0,
    154,
    0,
    0,
    134,
    0,
    0,
    0,
    0,
    0,
    0,
    118,
    118,
    118,
    118,
    129,
    0,
    0,
    0,
    0,
    0,
    134,
    0,
    0,
    0,
    0,
    0,
    0,
    0,
    0,
    0,
    0,
    0,
    154,
    0,
    0,
    0,
    114,
    0,
    0,
    0,
    0,
    0,
    0,
    0,
    0,
    0,
    0,
    0,
    0,
    0,
    0,
    0,
    0,
    94,
    0,
    0,
    0,
    0,
    0,
    0,
    0,
    0,
    0,
    0,
    0,
    0,
    0,
    0,
    94,
    0,
    0,
    0,
    0,
    0,
    0,
    0,
    0,
    0,
    0,
    0,
    94,
    0,
    0,
    0,
    0,
    0,
    0,
    0,
    0,
    0,
    0,
    0,
    0,
    114,
    0,
    0,
    0,
    0,
    0,
    0,
    154,
    0,
    0,
    134,
    0,
    0,
    0,
    0,
    0,
    0,
    129,
    129,
    129,
    129,
    129,
    118,
    0,
    0,
    118,
    118,
    129,
    0,
    0,
    0,
    0,
    0,
    0,
    0,
    0,
    0,
    0,
    0,
    149,
    138,
    138,
    138,
    109,
    98,
    98,
    98,
    98,
    0,
    0,
    0,
    0,
    0,
    0,
    0,
    0,
    0,
    0,
    0,
    0,
    0,
    0,
    0,
    0,
    0,
    0,
    0,
    0,
    0,
    0,
    0,
    0,
    0,
    0,
    0,
    94,
    0,
    0,
    0,
    0,
    0,
    0,
    0,
    0,
    0,
    0,
    0,
    94,
    0,
    0,
    0,
    0,
    0,
    0,
    0,
    0,
    0,
    0,
    0,
    0,
    0,
    0,
    0,
    0,
    0,
    0,
    0,
    154,
    0,
    0,
    134,
    0,
    0,
    0,
    0,
    0,
    0,
    134,
    0,
    0,
    0,
    0,
    0,
    0,
    0,
    0,
    0,
    134,
    0,
    0,
    0,
    0,
    0,
    0,
    0,
    0,
    0,
    0,
    0,
    0,
    0,
    0,
    0,
    0,
    0,
    0,
    0,
    114,
    0,
    0,
    0,
    0,
    0,
    0,
    0,
    0,
    0,
    0,
    0,
    0,
    0,
    0,
    0,
    0,
    0,
    0,
    0,
    0,
    0,
    0,
    94,
    0,
    0,
    0,
    0,
    94,
    0,
    0,
    0,
    0,
    0,
    0,
    0,
    0,
    0,
    0,
    0,
    94,
    0,
    0,
    0,
    0,
    0,
    0,
    0,
    0,
    0,
    0,
    0,
    0,
    114,
    0,
    0,
    0,
    0,
    0,
    0,
    154,
    0,
    0,
    134,
    0,
    0,
    0,
    0,
    0,
    0,
    0,
    0,
    0,
    0,
    0,
    0,
    0,
    0,
    0,
    0,
    134,
    0,
    0,
    0,
    0,
    0,
    0,
    0,
    0,
    0,
    0,
    0,
    0,
    0,
    0,
    0,
    0,
    0,
    0,
    0,
    114,
    0,
    0,
    0,
    0,
    0,
    0,
    0,
    0,
    0,
    0,
    0,
    0,
    94,
    0,
    0,
    0,
    0,
    0,
    0,
    0,
    0,
    0,
    109,
    98,
    0,
    98,
    98,
    109,
    98,
    98,
    98,
    0,
    0,
    0,
    0,
    0,
    98,
    0,
    98,
    109,
    0,
    0,
    0,
    0,
    0,
    0,
    0,
    0,
    0,
    0,
    0,
    0,
    114,
    0,
    0,
    0,
    0,
    0,
    0,
    154,
    0,
    0,
    134,
    0,
    0,
    0,
    0,
    0,
    0,
    0,
    0,
    0,
    0,
    0,
    0,
    0,
    0,
    0,
    0,
    134,
    0,
    0,
    0,
    0,
    0,
    0,
    0,
    0,
    0,
    0,
    0,
    0,
    0,
    0,
    0,
    0,
    0,
    0,
    0,
    114,
    0,
    0,
    0,
    0,
    0,
    0,
    0,
    0,
    0,
    0,
    0,
    0,
    109,
    98,
    0,
    0,
    98,
    98,
    98,
    0,
    98,
    98,
    109,
    0,
    0,
    0,
    0,
    0,
    0,
    0,
    114,
    0,
    0,
    0,
    0,
    0,
    114,
    0,
    0,
    114,
    0,
    0,
    0,
    0,
    0,
    0,
    0,
    0,
    0,
    0,
    0,
    0,
    114,
    0,
    0,
    0,
    0,
    0,
    0,
    154,
    0,
    0,
    134,
    0,
    0,
    0,
    0,
    0,
    0,
    134,
    0,
    0,
    0,
    0,
    0,
    0,
    0,
    0,
    0,
    134,
    0,
    0,
    0,
    0,
    0,
    0,
    0,
    0,
    0,
    0,
    0,
    0,
    0,
    0,
    0,
    0,
    0,
    0,
    0,
    109,
    98,
    98,
    98,
    98,
    98,
    98,
    98,
    98,
    0,
    98,
    98,
    98,
    0,
    0,
    0,
    0,
    0,
    0,
    0,
    0,
    0,
    0,
    0,
    0,
    0,
    0,
    0,
    0,
    0,
    0,
    109,
    98,
    98,
    0,
    98,
    98,
    109,
    0,
    0,
    114,
    0,
    0,
    0,
    0,
    0,
    0,
    0,
    0,
    0,
    0,
    0,
    0,
    114,
    0,
    0,
    0,
    0,
    0,
    0,
    154,
    0,
    0,
    134,
    0,
    0,
    0,
    0,
    0,
    0,
    134,
    0,
    0,
    0,
    0,
    0,
    0,
    0,
    0,
    0,
    134,
    0,
    0,
    0,
    0,
    0,
    0,
    0,
    0,
    0,
    0,
    0,
    0,
    0,
    0,
    0,
    0,
    0,
    0,
    0,
    0,
    0,
    0,
    0,
    0,
    0,
    0,
    0,
    0,
    0,
    0,
    0,
    0,
    103,
    0,
    0,
    0,
    0,
    0,
    0,
    0,
    0,
    0,
    103,
    0,
    0,
    0,
    0,
    0,
    0,
    0,
    0,
    0,
    0,
    0,
    0,
    0,
    0,
    0,
    0,
    114,
    0,
    0,
    0,
    0,
    0,
    0,
    0,
    0,
    0,
    0,
    0,
    0,
    114,
    0,
    0,
    0,
    0,
    0,
    0,
    154,
    0,
    0,
    134,
    0,
    0,
    0,
    0,
    0,
    0,
    134,
    0,
    0,
    0,
    0,
    0,
    0,
    0,
    0,
    0,
    134,
    0,
    0,
    0,
    0,
    0,
    0,
    0,
    0,
    0,
    0,
    0,
    0,
    0,
    0,
    0,
    0,
    0,
    0,
    0,
    0,
    0,
    0,
    0,
    0,
    0,
    0,
    0,
    0,
    0,
    0,
    0,
    0,
    0,
    0,
    0,
    0,
    0,
    0,
    0,
    0,
    0,
    0,
    0,
    0,
    0,
    0,
    0,
    0,
    0,
    0,
    0,
    0,
    0,
    0,
    0,
    0,
    0,
    0,
    0,
    109,
    98,
    98,
    0,
    0,
    98,
    98,
    98,
    98,
    98,
    98,
    98,
    98,
    109,
    0,
    0,
    0,
    0,
    0,
    0,
    154,
    0,
    0,
    129,
    118,
    118,
    118,
    118,
    118,
    118,
    129,
    118,
    118,
    118,
    118,
    118,
    0,
    118,
    118,
    118,
    129,
    0,
    0,
    0,
    0,
    0,
    0,
    0,
    0,
    0,
    0,
    0,
    0,
    0,
    0,
    0,
    0,
    0,
    0,
    0,
    0,
    0,
    0,
    0,
    0,
    0,
    0,
    0,
    0,
    0,
    0,
    0,
    0,
    0,
    0,
    0,
    0,
    0,
    0,
    0,
    0,
    0,
    0,
    0,
    0,
    0,
    0,
    0,
    0,
    0,
    0,
    0,
    0,
    0,
    0,
    0,
    0,
    0,
    0,
    0,
    0,
    0,
    0,
    0,
    0,
    0,
    0,
    0,
    0,
    0,
    0,
    0,
    0,
    0,
    0,
    0,
    0,
    0,
    0,
    0,
    154,
    0,
    0,
    0,
    0,
    0,
    0,
    0,
    0,
    0,
    0,
    0,
    0,
    0,
    0,
    0,
    0,
    0,
    0,
    0,
    0,
    0,
    0,
    0,
    0,
    0,
    0,
    0,
    0,
    0,
    0,
    0,
    0,
    0,
    0,
    0,
    0,
    0,
    0,
    0,
    0,
    0,
    0,
    0,
    0,
    0,
    0,
    0,
    0,
    0,
    0,
    0,
    0,
    0,
    0,
    0,
    0,
    0,
    0,
    0,
    0,
    0,
    0,
    0,
    0,
    0,
    0,
    0,
    0,
    0,
    0,
    0,
    0,
    0,
    0,
    0,
    0,
    0,
    0,
    0,
    0,
    0,
    0,
    0,
    0,
    0,
    0,
    0,
    0,
    0,
    0,
    0,
    0,
    0,
    0,
    0,
    0,
    0,
    0,
    0,
    154,
    0,
    0,
    0,
    0,
    0,
    0,
    0,
    0,
    0,
    0,
    0,
    0,
    0,
    0,
    0,
    0,
    0,
    0,
    0,
    0,
    0,
    0,
    0,
    0,
    0,
    0,
    0,
    0,
    0,
    0,
    0,
    0,
    0,
    0,
    0,
    0,
    0,
    0,
    0,
    0,
    0,
    0,
    0,
    0,
    0,
    0,
    0,
    0,
    0,
    0,
    0,
    0,
    0,
    0,
    0,
    0,
    0,
    0,
    0,
    0,
    0,
    0,
    0,
    0,
    0,
    0,
    0,
    0,
    0,
    0,
    0,
    0,
    0,
    0,
    0,
    0,
    0,
    0,
    0,
    0,
    0,
    0,
    0,
    0,
    0,
    0,
    0,
    0,
    0,
    0,
    0,
    0,
    0,
    0,
    0,
    0,
    0,
    0,
    0,
    154,
    0,
    0,
    0,
    0,
    0,
    0,
    0,
    0,
    0,
    0,
    0,
    0,
    0,
    0,
    0,
    0,
    0,
    0,
    0,
    0,
    0,
    0,
    0,
    0,
    0,
    0,
    0,
    0,
    0,
    0,
    0,
    0,
    0,
    0,
    0,
    0,
    0,
    0,
    0,
    0,
    0,
    0,
    0,
    0,
    0,
    0,
    0,
    0,
    0,
    0,
    0,
    0,
    0,
    0,
    0,
    0,
    0,
    0,
    0,
    0,
    0,
    0,
    0,
    0,
    0,
    0,
    0,
    0,
    0,
    0,
    0,
    0,
    0,
    0,
    0,
    0,
    0,
    0,
    0,
    0,
    0,
    0,
    0,
    0,
    0,
    0,
    0,
    0,
    0,
    0,
    0,
    0,
    0,
    0,
    0,
    0,
    0,
    0,
    0,
    154,
    0,
    0,
    0,
    0,
    0,
    0,
    0,
    0,
    0,
    0,
    0,
    0,
    0,
    0,
    0,
    0,
    0,
    0,
    0,
    0,
    0,
    0,
    0,
    0,
    0,
    0,
    0,
    0,
    0,
    0,
    0,
    0,
    0,
    0,
    0,
    0,
    0,
    0,
    0,
    0,
    0,
    0,
    0,
    0,
    0,
    0,
    0,
    0,
    0,
    0,
    0,
    0,
    0,
    0,
    0,
    0,
    0,
    0,
    0,
    0,
    0,
    0,
    0,
    0,
    0,
    0,
    0,
    0,
    0,
    0,
    0,
    0,
    0,
    0,
    0,
    0,
    0,
    0,
    0,
    0,
    0,
    0,
    0,
    0,
    0,
    0,
    0,
    0,
    0,
    0,
    0,
    0,
    0,
    0,
    0,
    0,
    0,
    0,
    0,
    154,
    0,
    0,
    0,
    0,
    0,
    0,
    0,
    0,
    0,
    0,
    0,
    0,
    0,
    0,
    0,
    0,
    0,
    0,
    0,
    0,
    0,
    0,
    0,
    0,
    0,
    0,
    0,
    0,
    0,
    0,
    0,
    0,
    0,
    0,
    0,
    0,
    0,
    0,
    0,
    0,
    0,
    0,
    0,
    0,
    0,
    0,
    0,
    0,
    0,
    0,
    0,
    0,
    0,
    0,
    0,
    0,
    0,
    0,
    0,
    0,
    0,
    0,
    0,
    0,
    0,
    0,
    0,
    0,
    0,
    0,
    0,
    0,
    0,
    0,
    0,
    0,
    0,
    0,
    0,
    0,
    0,
    0,
    0,
    0,
    0,
    0,
    0,
    0,
    0,
    0,
    0,
    0,
    0,
    0,
    0,
    0,
    0,
    0,
    0,
    149,
    138,
    138,
    138,
    138,
    138,
    138,
    138,
    138,
    138,
    138,
    138,
    138,
    138,
    138,
    138,
    138,
    138,
    138,
    138,
    138,
    0,
    0,
    0,
    0,
    0,
    0,
    0,
    0,
    0,
    0,
    0,
    0,
    0,
    0,
    0,
    0,
    0,
    0,
    0,
    0,
    0,
    0,
    0,
    0,
    0,
    0,
    0,
    0,
    0,
    0,
    0,
    0,
    0,
    0,
    0,
    0,
    0,
    0,
    0,
    0,
    0,
    0,
    0,
    0,
    0,
    0,
    0,
    0,
    0,
    0,
    0,
    0,
    0,
    0,
    0,
    0,
    0,
    0,
    0,
    0,
    0,
    0,
    0,
    0,
    0,
    0,
    0,
    0,
    0,
    0,
    0,
    0,
    0,
    0,
    0,
    0,
    0,
    0,
    0,
    0,
    0,
    0,
    0,
    0,
    0,
    0,
    0,
    0,
    0,
    0,
    0,
    0,
    0,
    0,
    0,
    0,
    0,
    0,
    0,
    0,
    0,
    0,
    0,
    0,
    0,
    0,
    0,
    0,
    0,
    0,
    0,
    0,
    0,
    0,
    0,
    0,
    0,
    0,
    0,
    0,
    0,
    0,
    0,
    0,
    0,
    0,
    0,
    0,
    0,
    0,
    0,
    0,
    0,
    0,
    0,
    0,
    0,
    0,
    0,
    0,
    0,
    0,
    0,
    0,
    0,
    0,
    0,
    0,
    0,
    0,
    0,
    0,
    0,
    0,
    0,
    0,
    0,
    0,
    0,
    0,
    0,
    0,
    0,
    0,
    0,
    0,
    0,
    0,
    0,
    0,
    0,
    0,
    0,
    0,
    0,
    0,
    0,
    0,
    0,
    0,
    0,
    0,
    0,
    0,
    0,
    0,
    0,
    0,
    0,
    0,
    0,
    0,
    0,
    0,
    0,
    0,
    0,
    0,
    0,
    0,
    0,
    0,
    0,
    0,
    0,
    0,
    0,
    0,
    0,
    0,
    0,
    0,
    0,
    0,
    0,
    0,
    0,
    0,
    0,
    0,
    0,
    0,
    0,
    0,
    0,
    0,
    0,
    0,
    0,
    0,
    0,
    0,
    0,
    0,
    0,
    0,
    0,
    0,
    0,
    0,
    0,
    0,
    0,
    0,
    0,
    0,
    0,
    0,
    0,
    0,
    0,
    0,
    0,
    0,
    0,
    0,
    0,
    0,
    0,
    0,
    0,
    0,
    0,
    0,
    0,
    0,
    0,
    0,
    0,
    0,
    0,
    0,
    0,
    0,
    0,
    0,
    0,
    0,
    0,
    0,
    0,
    0,
    0,
    0,
    0,
    0,
    0,
    0,
    0,
    0,
    0,
    0,
    0,
    0,
    0,
    0,
    0,
    0,
    0,
    0,
    0,
    0,
    0,
    0,
    0,
    0,
    0,
    0,
    0,
    0,
    0,
    0,
    0,
    0,
    0,
    0,
    0,
    0,
    0,
    0,
    0,
    0,
    0,
    0,
    0,
    0,
    0,
    0,
    0,
    0,
    0,
    0,
    0,
    0,
    0,
    0,
    0,
    0,
    0,
    0,
    0,
    0,
    0,
    0,
    0,
    0,
    0,
    0,
    0,
    0,
    0,
    0,
    0,
    0,
    0,
    0,
    0,
    0,
    0,
    0,
    0,
    0,
    0,
    0,
    0,
    0,
    0,
    0,
    0,
    0,
    0,
    0,
    0,
    0,
    0,
    0,
    0,
    0,
    0,
    0,
    0,
    0,
    0,
    0,
    0,
    0,
    0,
    0,
    0,
    0,
    0,
    0,
    0,
    0,
    0,
    0,
    0,
    0,
    0,
    0,
    0,
    0,
    0,
    0,
    0,
    0,
    0,
    0,
    0,
    0,
    0,
    0,
    0,
    0,
    0,
    0,
    0,
    0,
    0,
    0,
    0,
    0,
    0,
    0,
    0,
    0,
    0,
    0,
    0,
    0,
    0,
    0,
    0,
    0,
    0,
    0,
    0,
    0,
    0,
    0,
    0,
    0,
    0,
    0,
    0,
    0,
    0,
    0,
    0,
    0,
    0,
    0,
    0,
    0,
    0,
    0,
    0,
    0,
    0,
    0,
    0,
    0,
    0,
    0,
    0,
    0,
    0,
    0,
    0,
    0,
    0,
    0,
    0,
    0,
    0,
    0,
    0,
    0,
    0,
    0,
    0,
    0,
    0,
    0,
    0,
    0,
    0,
    0,
    0,
    0,
    0,
    0,
    0,
    0,
    0,
    0,
    0,
    0,
    0,
    0,
    0,
    0,
    0,
    0,
    0,
    0,
    0,
    0,
    0,
    0,
    0,
    0,
    0,
    0,
    0,
    0,
    0,
    0,
    0,
    0,
    0,
    0,
    0,
    0,
    0,
    0,
    0,
    0,
    0,
    0,
    0,
    0,
    0,
    0,
    0,
    0,
    0,
    0,
    0,
    0,
    0,
    0,
    0,
    0,
    0,
    0,
    0,
    0,
    0,
    0,
    0,
    0,
    0,
    0,
    0,
    0,
    0,
    0,
    0,
    0,
    0,
    0,
    0,
    0,
    0,
    0,
    0,
    0,
    0,
    0,
    0,
    0,
    0,
    0,
    0,
    0,
    0,
    0,
    0,
    0,
    0,
    0,
    0,
    0,
    0,
    0,
    0,
    0,
    0,
    0,
    0,
    0,
    0,
    0,
    0,
    0,
    0,
    0,
    0,
    0,
    0,
    0,
    0,
    0,
    0,
    0,
    0,
    0,
    0,
    0,
    0,
    0,
    0,
    0,
    0,
    0,
    0,
    0,
    0,
    0,
    0,
    0,
    0,
    0,
    0,
    0,
    0,
    0,
    0,
    0,
    0,
    0,
    0,
    0,
    0,
    0,
    0,
    0,
    0,
    0,
    0,
    0,
    0,
    0,
    0,
    0,
    0,
    0,
    0,
    0,
    0,
    0,
    0,
    0,
    0,
    0,
    0,
    0,
    0,
    0,
    0,
    0,
    0,
    0,
    0,
    0,
    0,
    0,
    0,
    0,
    0,
    0,
    0,
    0,
    0,
    0,
    0,
    0,
    0,
    0,
    0,
    0,
    0,
    0,
    0,
    0,
    0,
    0,
    0,
    0,
    0,
    0,
    0,
    0,
    0,
    0,
    0,
    0,
    0,
    0,
    0,
    0,
    0,
    0,
    0,
    0,
    0,
    0,
    0,
    0,
    0,
    0,
    0,
    0,
    0,
    0,
    0,
    0,
    0,
    0,
    0,
    0,
    0,
    0,
    0,
    0,
    0,
    0,
    0,
    0,
    0,
    0,
    0,
    0,
    0,
    0,
    0,
    0,
    0,
    0,
    0,
    0,
    0,
    0,
    0,
    0,
    0,
    0,
    0,
    0,
    0,
    0,
    0,
    0,
    0,
    0,
    0,
    0,
    0,
    0,
    0,
    0,
    0,
    0,
    0,
    0,
    0,
    0,
    0,
    0,
    0,
    0,
    0,
    0,
    0,
    0,
    0,
    0,
    0,
    0,
    0,
    0,
    0,
    0,
    0,
    0,
    0,
    0,
    0,
    0,
    0,
    0,
    0,
    0,
    0,
    0,
    0,
    0,
    0,
    0,
    0,
    0,
    0,
    0,
    0,
    0,
    0,
    0,
    0,
    0,
    0,
    0,
    0,
    0,
    0,
    0,
    0,
    0,
    0,
    0,
    0,
    0,
    0,
    0,
    0,
    0,
    0,
    0,
    0,
    0,
    0,
    0,
    0,
    0,
    0,
    0,
    0,
    0,
    0,
    0,
    0,
    0,
    0,
    0,
    0,
    0,
    0,
    0,
    0,
    0,
    0,
    0,
    0,
    0,
    0,
    0,
    0,
    0,
    0,
    0,
    0,
    0,
    0,
    0,
    0,
    0,
    0,
    0,
    0,
    0,
    0,
    0,
    0,
    0,
    0,
    0,
    0,
    0,
    0,
    0,
    0,
    0,
    0,
    0,
    0,
    0,
    0,
    0,
    0,
    0,
    0,
    0,
    0,
    0,
    0,
    0,
    0,
    0,
    0,
    0,
    0,
    0,
    0,
    0,
    0,
    0,
    0,
    0,
    0,
    0,
    0,
    0,
    0,
    0,
    0,
    0,
    0,
    0,
    0,
    0,
    0,
    0,
    0,
    0,
    0,
    0,
    0,
    0,
    0,
    0,
    0,
    0,
    0,
    0,
    0,
    0,
    0,
    0,
    0,
    0,
    0,
    0,
    0,
    0,
    0,
    0,
    0,
    0,
    0,
    0,
    0,
    0,
    0,
    0,
    0,
    0,
    0,
    0,
    0,
    0,
    0,
    0,
    0,
    0,
    0,
    0,
    0,
    0,
    0,
    0,
    0,
    0,
    0,
    0,
    0,
    0,
    0,
    0,
    0,
    0,
    0,
    0,
    0,
    0,
    0,
    0,
    0,
    0,
    0,
    0,
    0,
    0,
    0,
    0,
    0,
    0,
    0,
    0,
    0,
    0,
    0,
    0,
    0,
    0,
    0,
    0,
    0,
    0,
    0,
    0,
    0,
    0,
    0,
    0,
    0,
    0,
    0,
    0,
    0,
    0,
    0,
    0,
    0,
    0,
    0,
    0,
    0,
    0,
    0,
    0,
    0,
    0,
    0,
    0,
    0,
    0,
    0,
    0,
    0,
    0,
    0,
    0,
    0,
    0,
    0,
    0,
    0,
    0,
    0,
    0,
    0,
    0,
    0,
    0,
    0,
    0,
    0,
    0,
    0,
    0,
    0,
    0,
    0,
    0,
    0,
    0,
    0,
    0,
    0,
    0,
    0,
    0,
    0,
    0,
    0,
    0,
    0,
    0,
    0,
    0,
    0,
    0,
    0,
    0,
    0,
    0,
    0,
    0,
    0,
    0,
    0,
    0,
    0,
    0,
    0,
    0,
    0,
    0,
    0,
    0,
    0,
    0,
    0,
    0,
    0,
    0,
    0,
    0,
    0,
    0,
    0,
    0,
    0,
    0,
    0,
    0,
    0,
    0,
    0,
    0,
    0,
    0,
    0,
    0,
    0,
    0,
    0,
    0,
    0,
    0,
    0,
    0,
    0,
    0,
    0,
    0,
    0,
    0,
    0,
    0,
    0,
    0,
    0,
    0,
    0,
    0,
    0,
    0,
    0,
    0,
    0,
    0,
    0,
    0,
    0,
    0,
    0,
    0,
    0,
    0,
    0,
    0,
    0,
    0,
    0,
    0,
    0,
    0,
    0,
    0,
    0,
    0,
    0,
    0,
    0,
    0,
    0,
    0,
    0,
    0,
    0,
    0,
    0,
    0,
    0,
    0,
    0,
    0,
    0,
    0,
    0,
    0,
    0,
    0,
    0,
    0,
    0,
    0,
    0,
    0,
    0,
    0,
    0,
    0,
    0,
    0,
    0,
    0,
    0,
    0,
    0,
    0,
    0,
    0,
    0,
    0,
    0,
    0,
    0,
    0,
    0,
    0,
    0,
    0,
    0,
    0,
    0,
    0,
    0,
    0,
    0,
    0,
    0,
    0,
    0,
    0,
    0,
    0,
    0,
    0,
    0,
    0,
    0,
    0,
    0,
    0,
    0,
    0,
    0,
    0,
    0,
    0,
    0,
    0,
    0,
    0,
    0,
    0,
    0,
    0,
    0,
    0,
    0,
    0,
    0,
    0,
    0,
    0,
    0,
    0,
    0,
    0,
    0,
    0,
    0,
    0,
    0,
    0,
    0,
    0,
    0,
    0,
    0,
    0,
    0,
    0,
    0,
    0,
    0,
    0,
    0,
    0,
    0,
    0,
    0,
    0,
    0,
    0,
    0,
    0,
    0,
    0,
    0,
    0,
    0,
    0,
    0,
    0,
    0,
    0,
    0,
    138,
    138,
    138,
    138,
    138,
    138,
    138,
    138,
    138,
    138,
    138,
    138,
    138,
    138,
    138,
    138,
    138,
    138,
    138,
    138,
    138,
    138,
    138,
    138,
    138,
    138,
    138,
    138,
    138,
    138,
    138,
    138,
    138,
    138,
    138,
    138,
    138,
    138,
    138,
    138,
    138,
    138,
    138,
    138,
    138,
    138,
    138,
    138,
    138,
    138,
    138,
    138,
    138,
    138,
    138,
    138,
    138,
    138,
    138,
    138,
    138,
    138,
    138,
    138,
    138,
    138,
    138,
    138,
    138,
    138,
    138,
    138,
    138,
    138,
    138,
    138,
    138,
    138,
    138,
    138,
    138,
    138,
    138,
    138,
    138,
    138,
    138,
    138,
    138,
    0,
    0,
    0,
    0,
    0,
    0,
    0,
    0,
    0,
    0,
    0,
    154,
    0,
    0,
    0,
    0,
    0,
    0,
    0,
    0,
    0,
    0,
    0,
    0,
    0,
    0,
    0,
    0,
    0,
    0,
    0,
    0,
    0,
    0,
    0,
    0,
    0,
    0,
    0,
    0,
    0,
    0,
    0,
    0,
    0,
    0,
    0,
    0,
    0,
    0,
    0,
    0,
    0,
    0,
    0,
    0,
    0,
    0,
    0,
    0,
    0,
    0,
    0,
    0,
    0,
    0,
    0,
    0,
    0,
    0,
    0,
    0,
    0,
    0,
    0,
    0,
    0,
    0,
    0,
    0,
    0,
    0,
    0,
    0,
    0,
    0,
    0,
    0,
    0,
    0,
    0,
    0,
    0,
    0,
    0,
    0,
    0,
    0,
    0,
    0,
    0,
    0,
    0,
    0,
    0,
    0,
    0,
    0,
    0,
    0,
    0,
    154,
    0,
    0,
    0,
    0,
    0,
    0,
    0,
    0,
    0,
    0,
    0,
    0,
    0,
    0,
    0,
    0,
    0,
    0,
    0,
    0,
    0,
    0,
    0,
    0,
    0,
    0,
    0,
    0,
    0,
    0,
    0,
    0,
    0,
    0,
    0,
    0,
    0,
    0,
    0,
    0,
    0,
    0,
    0,
    0,
    0,
    0,
    0,
    0,
    0,
    0,
    0,
    0,
    0,
    0,
    0,
    0,
    0,
    0,
    0,
    0,
    0,
    0,
    0,
    0,
    0,
    0,
    0,
    0,
    0,
    0,
    0,
    0,
    0,
    0,
    0,
    0,
    0,
    0,
    0,
    0,
    0,
    0,
    0,
    0,
    0,
    0,
    0,
    0,
    0,
    0,
    0,
    0,
    0,
    0,
    0,
    0,
    0,
    0,
    0,
    154,
    0,
    0,
    0,
    0,
    0,
    0,
    0,
    0,
    0,
    0,
    0,
    0,
    0,
    0,
    0,
    0,
    0,
    0,
    0,
    0,
    0,
    0,
    0,
    0,
    0,
    0,
    0,
    0,
    0,
    0,
    0,
    0,
    0,
    0,
    0,
    0,
    0,
    0,
    0,
    0,
    0,
    0,
    0,
    0,
    0,
    0,
    0,
    0,
    0,
    0,
    0,
    0,
    0,
    0,
    0,
    0,
    0,
    0,
    0,
    0,
    0,
    0,
    0,
    0,
    0,
    0,
    0,
    0,
    0,
    0,
    0,
    0,
    0,
    0,
    0,
    0,
    0,
    0,
    0,
    0,
    0,
    0,
    0,
    0,
    0,
    0,
    0,
    0
   ]
  },
  {
   "id": 3,
   "name": "decor",
   "type": "tilelayer",
   "width": 100,
   "height": 68,
   "x": 0,
   "y": 0,
   "opacity": 1,
   "visible": true,
   "data": [
    0,
    0,
    0,
    0,
    0,
    0,
    0,
    0,
    0,
    0,
    0,
    0,
    0,
    0,
    0,
    0,
    0,
    0,
    0,
    0,
    0,
    0,
    0,
    0,
    0,
    0,
    0,
    0,
    0,
    0,
    0,
    0,
    0,
    0,
    0,
    0,
    0,
    0,
    0,
    0,
    0,
    0,
    0,
    0,
    0,
    0,
    0,
    0,
    0,
    0,
    0,
    0,
    0,
    0,
    0,
    0,
    0,
    0,
    0,
    0,
    0,
    0,
    0,
    0,
    0,
    0,
    0,
    0,
    0,
    0,
    0,
    0,
    0,
    0,
    0,
    0,
    0,
    0,
    0,
    0,
    0,
    0,
    0,
    0,
    0,
    0,
    0,
    0,
    0,
    0,
    0,
    0,
    0,
    0,
    0,
    0,
    0,
    0,
    0,
    0,
    0,
    0,
    0,
    0,
    0,
    0,
    0,
    0,
    0,
    0,
    0,
    0,
    0,
    0,
    0,
    0,
    0,
    0,
    0,
    0,
    0,
    0,
    0,
    0,
    0,
    0,
    0,
    0,
    0,
    0,
    0,
    0,
    0,
    0,
    0,
    0,
    0,
    0,
    0,
    0,
    0,
    0,
    0,
    0,
    0,
    0,
    0,
    0,
    0,
    0,
    0,
    0,
    0,
    0,
    0,
    0,
    0,
    0,
    0,
    0,
    0,
    0,
    0,
    0,
    0,
    0,
    0,
    0,
    0,
    0,
    0,
    0,
    0,
    0,
    0,
    0,
    0,
    0,
    0,
    0,
    0,
    0,
    0,
    0,
    0,
    0,
    0,
    0,
    0,
    0,
    0,
    0,
    0,
    0,
    0,
    0,
    0,
    0,
    0,
    0,
    0,
    0,
    0,
    0,
    0,
    0,
    0,
    0,
    0,
    0,
    0,
    0,
    0,
    0,
    0,
    0,
    0,
    0,
    0,
    0,
    0,
    0,
    0,
    0,
    0,
    0,
    0,
    0,
    0,
    0,
    0,
    0,
    0,
    0,
    0,
    0,
    0,
    0,
    0,
    0,
    0,
    0,
    0,
    0,
    0,
    0,
    0,
    0,
    0,
    0,
    0,
    0,
    0,
    0,
    0,
    0,
    0,
    0,
    0,
    0,
    0,
    0,
    0,
    0,
    0,
    0,
    0,
    0,
    0,
    0,
    0,
    0,
    0,
    0,
    0,
    0,
    0,
    0,
    0,
    0,
    0,
    0,
    0,
    0,
    0,
    0,
    0,
    0,
    0,
    0,
    0,
    0,
    0,
    0,
    0,
    0,
    0,
    0,
    0,
    0,
    0,
    0,
    0,
    0,
    0,
    0,
    0,
    0,
    0,
    0,
    0,
    0,
    0,
    0,
    0,
    0,
    0,
    0,
    0,
    0,
    0,
    0,
    0,
    0,
    0,
    0,
    0,
    0,
    0,
    0,
    0,
    0,
    0,
    0,
    0,
    0,
    0,
    0,
    0,
    0,
    0,
    0,
    0,
    0,
    0,
    0,
    0,
    0,
    0,
    0,
    0,
    0,
    0,
    0,
    0,
    0,
    0,
    0,
    0,
    0,
    0,
    0,
    0,
    0,
    0,
    0,
    0,
    0,
    0,
    0,
    0,
    0,
    0,
    0,
    0,
    0,
    0,
    0,
    0,
    0,
    0,
    0,
    0,
    0,
    0,
    0,
    0,
    0,
    0,
    0,
    0,
    0,
    0,
    0,
    0,
    0,
    0,
    0,
    0,
    0,
    0,
    0,
    0,
    0,
    0,
    0,
    0,
    0,
    0,
    0,
    0,
    0,
    0,
    0,
    0,
    0,
    0,
    0,
    0,
    0,
    0,
    0,
    0,
    0,
    0,
    0,
    0,
    0,
    0,
    0,
    0,
    0,
    0,
    0,
    0,
    0,
    0,
    0,
    0,
    0,
    0,
    0,
    0,
    0,
    0,
    0,
    0,
    0,
    0,
    0,
    0,
    0,
    0,
    0,
    0,
    0,
    0,
    0,
    0,
    0,
    0,
    0,
    0,
    0,
    0,
    0,
    0,
    0,
    0,
    0,
    0,
    0,
    0,
    0,
    0,
    0,
    0,
    0,
    0,
    0,
    0,
    0,
    0,
    0,
    0,
    0,
    0,
    0,
    0,
    0,
    0,
    0,
    0,
    0,
    0,
    0,
    0,
    0,
    0,
    0,
    0,
    0,
    0,
    0,
    0,
    0,
    0,
    0,
    0,
    0,
    0,
    0,
    0,
    0,
    0,
    0,
    0,
    0,
    0,
    0,
    0,
    0,
    0,
    0,
    0,
    0,
    0,
    0,
    0,
    0,
    0,
    0,
    0,
    0,
    0,
    0,
    0,
    0,
    0,
    0,
    0,
    0,
    0,
    0,
    0,
    0,
    0,
    0,
    0,
    0,
    0,
    0,
    0,
    0,
    0,
    0,
    0,
    0,
    0,
    0,
    0,
    0,
    0,
    0,
    0,
    0,
    0,
    0,
    0,
    0,
    0,
    0,
    0,
    0,
    0,
    0,
    0,
    0,
    0,
    0,
    0,
    0,
    0,
    0,
    0,
    0,
    0,
    0,
    0,
    0,
    0,
    0,
    0,
    0,
    0,
    0,
    0,
    0,
    0,
    0,
    0,
    0,
    0,
    0,
    0,
    0,
    0,
    0,
    0,
    0,
    0,
    0,
    0,
    0,
    0,
    0,
    0,
    0,
    0,
    0,
    0,
    0,
    0,
    0,
    0,
    0,
    0,
    0,
    0,
    0,
    0,
    0,
    0,
    0,
    0,
    0,
    0,
    0,
    0,
    0,
    0,
    0,
    0,
    0,
    0,
    0,
    0,
    0,
    0,
    0,
    0,
    0,
    0,
    0,
    0,
    0,
    0,
    0,
    0,
    0,
    0,
    0,
    0,
    0,
    0,
    0,
    0,
    0,
    0,
    0,
    0,
    0,
    0,
    0,
    0,
    0,
    0,
    0,
    0,
    0,
    0,
    0,
    0,
    0,
    0,
    0,
    0,
    0,
    0,
    0,
    0,
    0,
    0,
    0,
    0,
    0,
    0,
    0,
    0,
    0,
    0,
    0,
    0,
    0,
    0,
    0,
    0,
    0,
    0,
    0,
    0,
    0,
    0,
    0,
    0,
    0,
    0,
    0,
    0,
    0,
    0,
    0,
    0,
    0,
    0,
    0,
    0,
    0,
    0,
    0,
    0,
    0,
    0,
    0,
    0,
    0,
    0,
    0,
    0,
    0,
    0,
    0,
    0,
    0,
    0,
    0,
    0,
    0,
    0,
    0,
    0,
    0,
    0,
    0,
    0,
    0,
    0,
    0,
    0,
    0,
    0,
    0,
    0,
    0,
    0,
    0,
    0,
    0,
    0,
    0,
    0,
    0,
    0,
    0,
    0,
    0,
    0,
    0,
    0,
    0,
    0,
    0,
    0,
    0,
    0,
    0,
    0,
    0,
    0,
    0,
    0,
    0,
    0,
    0,
    0,
    0,
    0,
    0,
    0,
    0,
    0,
    0,
    0,
    0,
    0,
    0,
    0,
    0,
    0,
    0,
    0,
    0,
    0,
    0,
    0,
    0,
    0,
    0,
    0,
    0,
    0,
    0,
    0,
    0,
    0,
    0,
    0,
    0,
    0,
    0,
    0,
    0,
    0,
    0,
    0,
    0,
    0,
    0,
    0,
    0,
    0,
    0,
    0,
    0,
    0,
    0,
    0,
    0,
    0,
    0,
    0,
    0,
    0,
    0,
    0,
    0,
    0,
    0,
    0,
    0,
    0,
    0,
    0,
    0,
    0,
    0,
    0,
    0,
    0,
    0,
    0,
    0,
    0,
    0,
    0,
    0,
    0,
    0,
    0,
    0,
    0,
    0,
    0,
    0,
    0,
    0,
    0,
    0,
    0,
    0,
    0,
    0,
    0,
    0,
    0,
    0,
    0,
    0,
    0,
    0,
    0,
    0,
    0,
    0,
    0,
    0,
    0,
    0,
    0,
    0,
    0,
    0,
    0,
    0,
    0,
    0,
    0,
    0,
    0,
    0,
    0,
    0,
    0,
    0,
    0,
    0,
    0,
    0,
    0,
    0,
    0,
    0,
    0,
    0,
    0,
    0,
    0,
    0,
    0,
    0,
    0,
    0,
    0,
    0,
    0,
    0,
    0,
    0,
    0,
    0,
    0,
    0,
    0,
    0,
    0,
    0,
    0,
    0,
    0,
    0,
    0,
    0,
    0,
    0,
    0,
    0,
    0,
    0,
    0,
    0,
    0,
    0,
    0,
    0,
    0,
    0,
    0,
    0,
    0,
    0,
    0,
    0,
    0,
    0,
    0,
    0,
    0,
    0,
    0,
    0,
    0,
    0,
    0,
    0,
    0,
    0,
    0,
    0,
    0,
    0,
    0,
    0,
    0,
    0,
    0,
    0,
    0,
    0,
    0,
    0,
    0,
    0,
    0,
    0,
    0,
    0,
    0,
    0,
    0,
    0,
    0,
    0,
    0,
    0,
    0,
    0,
    0,
    0,
    0,
    0,
    0,
    0,
    0,
    0,
    0,
    0,
    0,
    0,
    0,
    0,
    0,
    0,
    0,
    0,
    0,
    0,
    0,
    0,
    0,
    0,
    0,
    0,
    0,
    0,
    0,
    0,
    0,
    0,
    0,
    0,
    0,
    0,
    0,
    0,
    0,
    0,
    0,
    0,
    0,
    0,
    0,
    0,
    0,
    0,
    0,
    0,
    0,
    0,
    0,
    0,
    0,
    0,
    0,
    0,
    0,
    0,
    0,
    0,
    0,
    0,
    0,
    0,
    0,
    0,
    0,
    0,
    0,
    0,
    0,
    0,
    0,
    0,
    0,
    0,
    0,
    0,
    0,
    0,
    0,
    0,
    0,
    0,
    0,
    0,
    0,
    0,
    0,
    0,
    0,
    0,
    0,
    0,
    0,
    0,
    0,
    0,
    0,
    0,
    0,
    0,
    0,
    0,
    0,
    0,
    0,
    0,
    0,
    0,
    0,
    0,
    0,
    0,
    0,
    0,
    0,
    0,
    0,
    0,
    0,
    0,
    0,
    0,
    0,
    0,
    0,
    0,
    0,
    0,
    0,
    0,
    0,
    0,
    0,
    0,
    0,
    0,
    0,
    0,
    0,
    0,
    0,
    0,
    0,
    0,
    0,
    0,
    0,
    0,
    0,
    0,
    0,
    0,
    0,
    0,
    0,
    0,
    0,
    0,
    0,
    0,
    0,
    0,
    0,
    0,
    0,
    0,
    0,
    0,
    0,
    0,
    0,
    0,
    0,
    0,
    0,
    0,
    0,
    0,
    0,
    0,
    0,
    0,
    0,
    0,
    0,
    0,
    0,
    0,
    0,
    0,
    0,
    0,
    0,
    0,
    0,
    0,
    0,
    0,
    0,
    0,
    0,
    0,
    0,
    0,
    0,
    0,
    0,
    0,
    0,
    0,
    0,
    0,
    0,
    0,
    0,
    0,
    0,
    0,
    0,
    0,
    0,
    0,
    0,
    0,
    0,
    0,
    0,
    0,
    0,
    0,
    0,
    0,
    0,
    0,
    0,
    0,
    0,
    0,
    0,
    0,
    0,
    0,
    0,
    0,
    0,
    0,
    0,
    0,
    0,
    0,
    0,
    0,
    0,
    0,
    0,
    0,
    0,
    0,
    0,
    0,
    0,
    0,
    0,
    0,
    0,
    0,
    0,
    0,
    0,
    0,
    0,
    0,
    0,
    0,
    0,
    0,
    0,
    0,
    0,
    0,
    0,
    0,
    0,
    0,
    0,
    0,
    0,
    0,
    0,
    0,
    0,
    0,
    0,
    0,
    0,
    0,
    0,
    0,
    0,
    0,
    0,
    0,
    0,
    0,
    0,
    0,
    0,
    0,
    0,
    0,
    0,
    0,
    0,
    0,
    0,
    0,
    0,
    0,
    0,
    0,
    0,
    0,
    0,
    0,
    0,
    0,
    0,
    0,
    0,
    0,
    0,
    0,
    0,
    0,
    0,
    0,
    0,
    0,
    0,
    0,
    0,
    0,
    0,
    0,
    0,
    0,
    0,
    0,
    0,
    0,
    0,
    0,
    0,
    0,
    0,
    0,
    0,
    0,
    0,
    0,
    0,
    0,
    0,
    0,
    0,
    0,
    0,
    0,
    0,
    0,
    0,
    0,
    0,
    0,
    0,
    0,
    0,
    0,
    0,
    0,
    0,
    0,
    0,
    0,
    0,
    0,
    0,
    0,
    0,
    0,
    0,
    0,
    0,
    0,
    0,
    0,
    0,
    0,
    0,
    0,
    0,
    0,
    0,
    0,
    0,
    0,
    0,
    0,
    0,
    0,
    0,
    0,
    0,
    0,
    0,
    0,
    0,
    0,
    0,
    0,
    0,
    0,
    0,
    0,
    0,
    0,
    0,
    0,
    0,
    0,
    0,
    0,
    0,
    0,
    0,
    0,
    0,
    0,
    0,
    0,
    0,
    0,
    0,
    0,
    0,
    0,
    0,
    0,
    0,
    0,
    0,
    0,
    0,
    0,
    0,
    0,
    0,
    0,
    0,
    0,
    0,
    0,
    0,
    0,
    0,
    0,
    0,
    0,
    0,
    0,
    0,
    0,
    0,
    0,
    0,
    0,
    0,
    0,
    0,
    0,
    0,
    0,
    0,
    0,
    0,
    0,
    0,
    0,
    0,
    0,
    0,
    0,
    0,
    0,
    0,
    0,
    0,
    0,
    0,
    0,
    0,
    0,
    0,
    0,
    0,
    0,
    0,
    0,
    0,
    0,
    0,
    0,
    0,
    0,
    0,
    0,
    0,
    0,
    0,
    0,
    0,
    0,
    0,
    0,
    0,
    0,
    0,
    0,
    0,
    0,
    0,
    0,
    0,
    0,
    0,
    0,
    0,
    0,
    0,
    0,
    0,
    0,
    0,
    0,
    0,
    0,
    0,
    0,
    0,
    0,
    0,
    0,
    0,
    0,
    0,
    0,
    0,
    0,
    0,
    0,
    0,
    0,
    0,
    0,
    0,
    0,
    0,
    0,
    0,
    0,
    0,
    0,
    0,
    0,
    0,
    0,
    0,
    0,
    0,
    0,
    0,
    0,
    0,
    0,
    0,
    0,
    0,
    0,
    0,
    0,
    0,
    0,
    0,
    0,
    0,
    0,
    0,
    0,
    0,
    0,
    0,
    0,
    0,
    0,
    0,
    0,
    0,
    0,
    0,
    0,
    0,
    0,
    0,
    0,
    0,
    0,
    0,
    0,
    0,
    0,
    0,
    0,
    0,
    0,
    0,
    0,
    0,
    0,
    0,
    0,
    0,
    0,
    0,
    0,
    0,
    0,
    0,
    0,
    0,
    0,
    0,
    0,
    0,
    0,
    0,
    0,
    0,
    0,
    0,
    0,
    0,
    0,
    0,
    0,
    0,
    0,
    0,
    0,
    0,
    0,
    0,
    0,
    0,
    0,
    0,
    0,
    0,
    0,
    0,
    0,
    0,
    0,
    0,
    0,
    0,
    0,
    0,
    0,
    0,
    0,
    0,
    0,
    0,
    0,
    0,
    0,
    0,
    0,
    0,
    0,
    0,
    0,
    0,
    0,
    0,
    0,
    0,
    0,
    0,
    0,
    0,
    0,
    0,
    0,
    0,
    0,
    0,
    0,
    0,
    0,
    0,
    0,
    0,
    0,
    0,
    0,
    0,
    0,
    0,
    0,
    0,
    0,
    0,
    0,
    0,
    0,
    0,
    0,
    0,
    0,
    0,
    0,
    0,
    0,
    0,
    0,
    0,
    0,
    0,
    0,
    0,
    0,
    0,
    0,
    0,
    0,
    0,
    0,
    0,
    0,
    0,
    0,
    0,
    0,
    0,
    0,
    0,
    0,
    0,
    0,
    0,
    0,
    0,
    0,
    0,
    0,
    0,
    0,
    0,
    0,
    0,
    0,
    0,
    0,
    0,
    0,
    0,
    0,
    0,
    0,
    0,
    0,
    0,
    0,
    0,
    0,
    0,
    0,
    0,
    0,
    0,
    0,
    0,
    0,
    0,
    0,
    0,
    0,
    0,
    0,
    0,
    0,
    0,
    0,
    0,
    0,
    0,
    0,
    0,
    0,
    0,
    0,
    0,
    0,
    0,
    0,
    0,
    0,
    0,
    0,
    0,
    0,
    0,
    0,
    0,
    0,
    0,
    0,
    0,
    0,
    0,
    0,
    0,
    0,
    0,
    0,
    0,
    0,
    0,
    0,
    0,
    0,
    0,
    0,
    0,
    0,
    0,
    0,
    0,
    0,
    0,
    0,
    0,
    0,
    0,
    0,
    0,
    0,
    0,
    0,
    0,
    0,
    0,
    0,
    0,
    0,
    0,
    0,
    0,
    0,
    0,
    0,
    0,
    0,
    0,
    0,
    0,
    0,
    0,
    0,
    0,
    0,
    0,
    0,
    0,
    0,
    0,
    0,
    0,
    0,
    0,
    0,
    0,
    0,
    0,
    0,
    0,
    0,
    0,
    0,
    0,
    0,
    0,
    0,
    0,
    0,
    0,
    0,
    0,
    0,
    0,
    0,
    0,
    0,
    0,
    0,
    0,
    0,
    0,
    0,
    0,
    0,
    0,
    0,
    0,
    0,
    0,
    0,
    0,
    0,
    0,
    0,
    0,
    0,
    0,
    0,
    0,
    0,
    0,
    0,
    0,
    0,
    0,
    0,
    0,
    0,
    0,
    0,
    0,
    0,
    0,
    0,
    0,
    0,
    0,
    0,
    0,
    0,
    0,
    0,
    0,
    0,
    0,
    0,
    0,
    0,
    0,
    0,
    0,
    0,
    0,
    0,
    0,
    0,
    0,
    0,
    0,
    0,
    0,
    0,
    0,
    0,
    0,
    0,
    0,
    0,
    0,
    0,
    0,
    0,
    0,
    0,
    0,
    0,
    0,
    0,
    0,
    0,
    0,
    0,
    0,
    0,
    0,
    0,
    0,
    0,
    0,
    0,
    0,
    0,
    0,
    0,
    0,
    0,
    0,
    0,
    0,
    0,
    0,
    0,
    0,
    0,
    0,
    0,
    0,
    0,
    0,
    0,
    0,
    0,
    0,
    0,
    0,
    0,
    0,
    0,
    0,
    0,
    0,
    0,
    0,
    0,
    0,
    0,
    0,
    0,
    0,
    0,
    0,
    0,
    0,
    0,
    0,
    0,
    0,
    0,
    0,
    0,
    0,
    0,
    0,
    0,
    0,
    0,
    0,
    0,
    0,
    0,
    0,
    0,
    0,
    0,
    0,
    0,
    0,
    0,
    0,
    0,
    0,
    0,
    0,
    0,
    0,
    0,
    0,
    0,
    0,
    0,
    0,
    0,
    0,
    0,
    0,
    0,
    0,
    0,
    0,
    0,
    0,
    0,
    0,
    0,
    0,
    0,
    0,
    0,
    0,
    0,
    0,
    0,
    0,
    0,
    0,
    0,
    0,
    0,
    0,
    0,
    0,
    0,
    0,
    0,
    0,
    0,
    0,
    0,
    0,
    0,
    0,
    0,
    0,
    0,
    0,
    0,
    0,
    0,
    0,
    0,
    0,
    0,
    0,
    0,
    0,
    0,
    0,
    0,
    0,
    0,
    0,
    0,
    0,
    0,
    0,
    0,
    0,
    0,
    0,
    0,
    0,
    0,
    0,
    0,
    0,
    0,
    0,
    0,
    0,
    0,
    0,
    0,
    0,
    0,
    0,
    0,
    0,
    0,
    0,
    0,
    0,
    0,
    0,
    0,
    0,
    0,
    0,
    0,
    0,
    0,
    0,
    0,
    0,
    0,
    0,
    0,
    0,
    0,
    0,
    0,
    0,
    0,
    0,
    0,
    0,
    0,
    0,
    0,
    0,
    0,
    0,
    0,
    0,
    0,
    0,
    0,
    0,
    0,
    0,
    0,
    0,
    0,
    0,
    0,
    0,
    0,
    0,
    0,
    0,
    0,
    0,
    0,
    0,
    0,
    0,
    0,
    0,
    0,
    0,
    0,
    0,
    0,
    0,
    0,
    0,
    0,
    0,
    0,
    0,
    0,
    0,
    0,
    0,
    0,
    0,
    0,
    0,
    0,
    0,
    0,
    0,
    0,
    0,
    0,
    0,
    0,
    0,
    0,
    0,
    0,
    0,
    0,
    0,
    0,
    0,
    0,
    0,
    0,
    0,
    0,
    0,
    0,
    0,
    0,
    0,
    0,
    0,
    0,
    0,
    0,
    0,
    0,
    0,
    0,
    0,
    0,
    0,
    0,
    0,
    0,
    0,
    0,
    0,
    0,
    0,
    0,
    0,
    0,
    0,
    0,
    0,
    0,
    0,
    0,
    0,
    0,
    0,
    0,
    0,
    0,
    0,
    0,
    0,
    0,
    0,
    0,
    0,
    0,
    0,
    0,
    0,
    0,
    0,
    0,
    0,
    0,
    0,
    0,
    0,
    0,
    0,
    0,
    0,
    0,
    0,
    0,
    0,
    0,
    0,
    0,
    0,
    0,
    0,
    0,
    0,
    0,
    0,
    0,
    0,
    0,
    0,
    0,
    0,
    0,
    0,
    0,
    0,
    0,
    0,
    0,
    0,
    0,
    0,
    0,
    0,
    0,
    0,
    0,
    0,
    0,
    0,
    0,
    0,
    0,
    0,
    0,
    0,
    0,
    0,
    0,
    0,
    0,
    0,
    0,
    0,
    0,
    0,
    0,
    0,
    0,
    0,
    0,
    0,
    0,
    0,
    0,
    0,
    0,
    0,
    0,
    0,
    0,
    0,
    0,
    0,
    0,
    0,
    0,
    0,
    0,
    0,
    0,
    0,
    0,
    0,
    0,
    0,
    0,
    0,
    0,
    0,
    0,
    0,
    0,
    0,
    0,
    0,
    0,
    0,
    0,
    0,
    0,
    0,
    0,
    0,
    0,
    0,
    0,
    0,
    0,
    0,
    0,
    0,
    0,
    0,
    0,
    0,
    0,
    0,
    0,
    0,
    0,
    0,
    0,
    0,
    0,
    0,
    0,
    0,
    0,
    0,
    0,
    0,
    0,
    0,
    0,
    0,
    0,
    0,
    0,
    0,
    0,
    0,
    0,
    0,
    0,
    0,
    0,
    0,
    0,
    0,
    0,
    0,
    0,
    0,
    0,
    0,
    0,
    0,
    0,
    0,
    0,
    0,
    0,
    0,
    0,
    0,
    0,
    0,
    0,
    0,
    0,
    0,
    0,
    0,
    0,
    0,
    0,
    0,
    0,
    0,
    0,
    0,
    0,
    0,
    0,
    0,
    0,
    0,
    0,
    0,
    0,
    0,
    0,
    0,
    0,
    0,
    0,
    0,
    0,
    0,
    0,
    0,
    0,
    0,
    0,
    0,
    0,
    0,
    0,
    0,
    0,
    0,
    0,
    0,
    0,
    0,
    0,
    0,
    0,
    0,
    0,
    0,
    0,
    0,
    0,
    0,
    0,
    0,
    0,
    0,
    0,
    0,
    0,
    0,
    0,
    0,
    0,
    0,
    0,
    0,
    0,
    0,
    0,
    0,
    0,
    0,
    0,
    0,
    0,
    0,
    0,
    0,
    0,
    0,
    0,
    0,
    0,
    0,
    0,
    0,
    0,
    0,
    0,
    0,
    0,
    0,
    0,
    0,
    0,
    0,
    0,
    0,
    0,
    0,
    0,
    0,
    0,
    0,
    0,
    0,
    0,
    0,
    0,
    0,
    0,
    0,
    0,
    0,
    0,
    0,
    0,
    0,
    0,
    0,
    0,
    0,
    0,
    0,
    0,
    0,
    0,
    0,
    0,
    0,
    0,
    0,
    0,
    0,
    0,
    0,
    0,
    0,
    0,
    0,
    0,
    0,
    0,
    0,
    0,
    0,
    0,
    0,
    0,
    0,
    0,
    0,
    0,
    0,
    0,
    0,
    0,
    0,
    0,
    0,
    0,
    0,
    0,
    0,
    0,
    0,
    0,
    0,
    0,
    0,
    0,
    0,
    0,
    0,
    0,
    0,
    0,
    0,
    0,
    0,
    0,
    0,
    0,
    0,
    0,
    0,
    0,
    0,
    0,
    0,
    0,
    0,
    0,
    0,
    0,
    0,
    0,
    0,
    0,
    0,
    0,
    0,
    0,
    0,
    0,
    0,
    0,
    0,
    0,
    0,
    0,
    0,
    0,
    0,
    0,
    0,
    0,
    0,
    0,
    0,
    0,
    0,
    0,
    0,
    0,
    0,
    0,
    0,
    0,
    0,
    0,
    0,
    0,
    0,
    0,
    0,
    0,
    0,
    0,
    0,
    0,
    0,
    0,
    0,
    0,
    0,
    0,
    0,
    0,
    0,
    0,
    0,
    0,
    0,
    0,
    0,
    0,
    0,
    0,
    0,
    0,
    0,
    0,
    0,
    0,
    0,
    0,
    0,
    0,
    0,
    0,
    0,
    0,
    0,
    0,
    0,
    0,
    0,
    0,
    0,
    0,
    0,
    0,
    0,
    0,
    0,
    0,
    0,
    0,
    0,
    0,
    0,
    0,
    0,
    0,
    0,
    0,
    0,
    0,
    0,
    0,
    0,
    0,
    0,
    0,
    0,
    0,
    0,
    0,
    0,
    0,
    0,
    0,
    0,
    0,
    0,
    0,
    0,
    0,
    0,
    0,
    0,
    0,
    0,
    0,
    0,
    0,
    0,
    0,
    0,
    0,
    0,
    0,
    0,
    0,
    0,
    0,
    0,
    0,
    0,
    0,
    0,
    0,
    0,
    0,
    0,
    0,
    0,
    0,
    0,
    0,
    0,
    0,
    0,
    0,
    0,
    0,
    0,
    0,
    0,
    0,
    0,
    0,
    0,
    0,
    0,
    0,
    0,
    0,
    0,
    0,
    0,
    0,
    0,
    0,
    0,
    0,
    0,
    0,
    0,
    0,
    0,
    0,
    0,
    0,
    0,
    0,
    0,
    0,
    0,
    0,
    0,
    0,
    0,
    0,
    0,
    0,
    0,
    0,
    0,
    0,
    0,
    0,
    0,
    0,
    0,
    0,
    0,
    0,
    0,
    0,
    0,
    0,
    0,
    0,
    0,
    0,
    0,
    0,
    0,
    0,
    0,
    0,
    0,
    0,
    0,
    0,
    0,
    0,
    0,
    0,
    0,
    0,
    0,
    0,
    0,
    0,
    0,
    0,
    0,
    0,
    0,
    0,
    0,
    0,
    0,
    0,
    0,
    0,
    0,
    0,
    0,
    0,
    0,
    0,
    0,
    0,
    0,
    0,
    0,
    0,
    0,
    0,
    0,
    0,
    0,
    0,
    0,
    0,
    0,
    0,
    0,
    0,
    0,
    0,
    0,
    0,
    0,
    0,
    0,
    0,
    0,
    0,
    0,
    0,
    0,
    0,
    0,
    0,
    0,
    0,
    0,
    0,
    0,
    0,
    0,
    0,
    0,
    0,
    0,
    0,
    0,
    0,
    0,
    0,
    0,
    0,
    0,
    0,
    0,
    0,
    0,
    0,
    0,
    0,
    0,
    0,
    0,
    0,
    0,
    0,
    0,
    0,
    0,
    0,
    0,
    0,
    0,
    0,
    0,
    0,
    0,
    0,
    0,
    0,
    0,
    0,
    0,
    0,
    0,
    0,
    0,
    0,
    0,
    0,
    0,
    0,
    0,
    0,
    0,
    0,
    0,
    0,
    0,
    0,
    0,
    0,
    0,
    0,
    0,
    0,
    0,
    0,
    0,
    0,
    0,
    0,
    0,
    0,
    0,
    0,
    0,
    0,
    0,
    0,
    0,
    0,
    0,
    0,
    0,
    0,
    0,
    0,
    0,
    0,
    0,
    0,
    0,
    0,
    0,
    0,
    0,
    0,
    0,
    0,
    0,
    0,
    0,
    0,
    0,
    0,
    0,
    0,
    0,
    0,
    0,
    0,
    0,
    0,
    0,
    0,
    0,
    0,
    0,
    0,
    0,
    0,
    0,
    0,
    0,
    0,
    0,
    0,
    0,
    0,
    0,
    0,
    0,
    0,
    0,
    0,
    0,
    0,
    0,
    0,
    0,
    0,
    0,
    0,
    0,
    0,
    0,
    0,
    0,
    0,
    0,
    0,
    0,
    0,
    0,
    0,
    0,
    0,
    0,
    0,
    0,
    0,
    0,
    0,
    0,
    0,
    0,
    0,
    0,
    0,
    0,
    0,
    0,
    0,
    0,
    0,
    0,
    0,
    0,
    0,
    0,
    0,
    0,
    0,
    0,
    0,
    0,
    0,
    0,
    0,
    0,
    0,
    0,
    0,
    0,
    0,
    0,
    0,
    0,
    0,
    0,
    0,
    0,
    0,
    0,
    0,
    0,
    0,
    0,
    0,
    0,
    0,
    0,
    0,
    0,
    0,
    0,
    0,
    0,
    0,
    0,
    0,
    0,
    0,
    0,
    0,
    0,
    0,
    0,
    0,
    0,
    0,
    0,
    0,
    0,
    0,
    0,
    0,
    0,
    0,
    0,
    0,
    0,
    0,
    0,
    0,
    0,
    0,
    0,
    0,
    0,
    0,
    0,
    0,
    0,
    0,
    0,
    0,
    0,
    0,
    0,
    0,
    0,
    0,
    0,
    0,
    0,
    0,
    0,
    0,
    0,
    0,
    0,
    0,
    0,
    0,
    0,
    0,
    0,
    0,
    0,
    0,
    0,
    0,
    0,
    0,
    0,
    0,
    0,
    0,
    0,
    0,
    0,
    0,
    0,
    0,
    0,
    0,
    0,
    0,
    0,
    0,
    0,
    0,
    0,
    0,
    0,
    0,
    0,
    0,
    0,
    0,
    0,
    0,
    0,
    0,
    0,
    0,
    0,
    0,
    0,
    0,
    0,
    0,
    0,
    0,
    0,
    0,
    0,
    0,
    0,
    0,
    0,
    0,
    0,
    0,
    0,
    0,
    0,
    0,
    0,
    0,
    0,
    0,
    0,
    0,
    0,
    0,
    0,
    0,
    0,
    0,
    0,
    0,
    0,
    0,
    0,
    0,
    0,
    0,
    0,
    0,
    0,
    0,
    0,
    0,
    0,
    0,
    0,
    0,
    0,
    0,
    0,
    0,
    0,
    0,
    0,
    0,
    0,
    0,
    0,
    0,
    0,
    0,
    0,
    0,
    0,
    0,
    0,
    0,
    0,
    0,
    0,
    0,
    0,
    0,
    0,
    0,
    0,
    0,
    0,
    0,
    0,
    0,
    0,
    0,
    0,
    0,
    0,
    0,
    0,
    0,
    0,
    0,
    0,
    0,
    0,
    0,
    0,
    0,
    0,
    0,
    0,
    0,
    0,
    0,
    0,
    0,
    0,
    0,
    0,
    0,
    0,
    0,
    0,
    0,
    0,
    0,
    0,
    0,
    0,
    0,
    0,
    0,
    0,
    0,
    0,
    0,
    0,
    0,
    0,
    0,
    0,
    0,
    0,
    0,
    0,
    0,
    0,
    0,
    0,
    0,
    0,
    0,
    0,
    0,
    0,
    0,
    0,
    0,
    0,
    0,
    0,
    0,
    0,
    0,
    0,
    0,
    0,
    0,
    0,
    0,
    0,
    0,
    0,
    0,
    0,
    0,
    0,
    0,
    0,
    0,
    0,
    0,
    0,
    0,
    0,
    0,
    0,
    0,
    0,
    0,
    0,
    0,
    0,
    0,
    0,
    0,
    0,
    0,
    0,
    0,
    0,
    0,
    0,
    0,
    0,
    0,
    0,
    0,
    0,
    0,
    0,
    0,
    0,
    0,
    0,
    0,
    0,
    0,
    0,
    0,
    0,
    0,
    0,
    0,
    0,
    0,
    0,
    0,
    0,
    0,
    0,
    0,
    0,
    0,
    0,
    0,
    0,
    0,
    0,
    0,
    0,
    0,
    0,
    0,
    0,
    0,
    0,
    0,
    0,
    0,
    0,
    0,
    0,
    0,
    0,
    0,
    0,
    0,
    0,
    0,
    0,
    0,
    0,
    0,
    0,
    0,
    0,
    0,
    0,
    0,
    0,
    0,
    0,
    0,
    0,
    0,
    0,
    0,
    0,
    0,
    0,
    0,
    0,
    0,
    0,
    0,
    0,
    0,
    0,
    0,
    0,
    0,
    0,
    0,
    0,
    0,
    0,
    0,
    0,
    0,
    0,
    0,
    0,
    0,
    0,
    0,
    0,
    0,
    0,
    0,
    0,
    0,
    0,
    0,
    0,
    0,
    0,
    0,
    0,
    0,
    0,
    0,
    0,
    0,
    0,
    0,
    0,
    0,
    0,
    0,
    0,
    0,
    0,
    0,
    0,
    0,
    0,
    0,
    0,
    0,
    0,
    0,
    0,
    0,
    0,
    0,
    0,
    0,
    0,
    0,
    0,
    0,
    0,
    0,
    0,
    0,
    0,
    0,
    0,
    0,
    0,
    0,
    0,
    0,
    0,
    0,
    0,
    0,
    0,
    0,
    0,
    0,
    0,
    0,
    0,
    0,
    0,
    0,
    0,
    0,
    0,
    0,
    0,
    0,
    0,
    0,
    0,
    0,
    0,
    0,
    0,
    0,
    0,
    0,
    0,
    0,
    0,
    0,
    0,
    0,
    0,
    0,
    0,
    0,
    0,
    0,
    0,
    0,
    0,
    0,
    0,
    0,
    0,
    0,
    0,
    0,
    0,
    0,
    0,
    0,
    0,
    0,
    0,
    0,
    0,
    0,
    0,
    0,
    0,
    0,
    0,
    0,
    0,
    0,
    0,
    0,
    0,
    0,
    0,
    0,
    0,
    0,
    0,
    0,
    0,
    0,
    0,
    0,
    0,
    0,
    0,
    0,
    0,
    0,
    0,
    0,
    0,
    0,
    0,
    0,
    0,
    0,
    0,
    0,
    0,
    0,
    0,
    0,
    0,
    0,
    0,
    0,
    0,
    0,
    0,
    0,
    0,
    0,
    0,
    0,
    0,
    0,
    0,
    0,
    0,
    0,
    0,
    0,
    0,
    0,
    0,
    0,
    0,
    0,
    0,
    0,
    0,
    0,
    0,
    0,
    0,
    0,
    0,
    0,
    0,
    0,
    0,
    0,
    0,
    0,
    0,
    0,
    0,
    0,
    0,
    0,
    0,
    0,
    0,
    0,
    0,
    0,
    0,
    0,
    0,
    0,
    0,
    0,
    0,
    0,
    0,
    0,
    0,
    0,
    0,
    0,
    0,
    0,
    0,
    0,
    0,
    0,
    0,
    0,
    0,
    0,
    0,
    0,
    0,
    0,
    0,
    0,
    0,
    0,
    0,
    0,
    0,
    0,
    0,
    0,
    0,
    0,
    0,
    0,
    0,
    0,
    0,
    0,
    0,
    0,
    0,
    0,
    0,
    0,
    0,
    0,
    0,
    0,
    0,
    0,
    0,
    0,
    0,
    0,
    0,
    0,
    0,
    0,
    0,
    0,
    0,
    0,
    0,
    0,
    0,
    0,
    0,
    0,
    0,
    0,
    0,
    0,
    0,
    0,
    0,
    0,
    0,
    0,
    0,
    0,
    0,
    0,
    0,
    0,
    0,
    0,
    0,
    0,
    0,
    0,
    0,
    0,
    0,
    0,
    0,
    0,
    0,
    0,
    0,
    0,
    0,
    0,
    0,
    0,
    0,
    0,
    0,
    0,
    0,
    0,
    0,
    0,
    0,
    0,
    0,
    0,
    0,
    0,
    0,
    0,
    0,
    0,
    0,
    0,
    0,
    0,
    0,
    0,
    0,
    0,
    0,
    0,
    0,
    0,
    0,
    0,
    0,
    0,
    0,
    0,
    0,
    0,
    0,
    0,
    0,
    0,
    0,
    0,
    0,
    0,
    0,
    0,
    0,
    0,
    0,
    0,
    0,
    0,
    0,
    0,
    0,
    0,
    0,
    0,
    0,
    0,
    0,
    0,
    0,
    0,
    0,
    0,
    0,
    0,
    0,
    0,
    0,
    0,
    0,
    0,
    0,
    0,
    0,
    0,
    0,
    0,
    0,
    0,
    0,
    0,
    0,
    0,
    0,
    0,
    0,
    0,
    0,
    0,
    0,
    0,
    0,
    0,
    0,
    0,
    0,
    0,
    0,
    0,
    0,
    0,
    0,
    0,
    0,
    0,
    0,
    0,
    0,
    0,
    0,
    0,
    0,
    0,
    0,
    0,
    0,
    0,
    0,
    0,
    0,
    0,
    0,
    0,
    0,
    0,
    0,
    0,
    0,
    0,
    0,
    0,
    0,
    0,
    0,
    0,
    0,
    0,
    0,
    0,
    0,
    0,
    0,
    0,
    0,
    0,
    0,
    0,
    0,
    0,
    0,
    0,
    0,
    0,
    0,
    0,
    0,
    0,
    0,
    0,
    0,
    0,
    0,
    0,
    0,
    0,
    0,
    0,
    0,
    0,
    0,
    0,
    0,
    0,
    0,
    0,
    0,
    0,
    0,
    0,
    0,
    0,
    0,
    0,
    0,
    0,
    0,
    0,
    0,
    0,
    0,
    0,
    0,
    0,
    0,
    0,
    0,
    0,
    0,
    0,
    0,
    0,
    0,
    0,
    0,
    0,
    0,
    0,
    0,
    0,
    0,
    0,
    0,
    0,
    0,
    0,
    0,
    0,
    0,
    0,
    0,
    0,
    0,
    0,
    0,
    0,
    0,
    0,
    0,
    0,
    0,
    0,
    0,
    0,
    0,
    0,
    0,
    0,
    0,
    0,
    0,
    0,
    0,
    0,
    0,
    0,
    0,
    0,
    0,
    0,
    0,
    0,
    0,
    0,
    0,
    0,
    0,
    0,
    0,
    0,
    0,
    0,
    0,
    0,
    0,
    0,
    0,
    0,
    0,
    0,
    0,
    0,
    0,
    0,
    0,
    0,
    0,
    0,
    0,
    0,
    0,
    0,
    0,
    0,
    0,
    0,
    0,
    0,
    0,
    0,
    0,
    0,
    0,
    0,
    0,
    0,
    0,
    0,
    0,
    0,
    0,
    0,
    0,
    0,
    0,
    0,
    0,
    0,
    0,
    0,
    0,
    0,
    0,
    0,
    0,
    0,
    0,
    0,
    0,
    0,
    0,
    0,
    0,
    0,
    0,
    0,
    0,
    0,
    0,
    0,
    0,
    0,
    0,
    0,
    0,
    0,
    0,
    0,
    0,
    0,
    0,
    0,
    0,
    0,
    0,
    0,
    0,
    0,
    0,
    0,
    0,
    0,
    0,
    0,
    0,
    0,
    0,
    0,
    0,
    0,
    0,
    0,
    0,
    0,
    0,
    0,
    0,
    0,
    0,
    0,
    0,
    0,
    0,
    0,
    0,
    0,
    0,
    0,
    0,
    0,
    0,
    0,
    0,
    0,
    0,
    0,
    0,
    0,
    0,
    0,
    0,
    0,
    0,
    0,
    0,
    0,
    0,
    0,
    0,
    0,
    0,
    0,
    0,
    0,
    0,
    0,
    0,
    0,
    0,
    0,
    0,
    0,
    0,
    0,
    0,
    0,
    0,
    0,
    0,
    0,
    0,
    0,
    0,
    0,
    0,
    0,
    0,
    0,
    0,
    0,
    0,
    0,
    0,
    0,
    0,
    0,
    0,
    0,
    0,
    0,
    0,
    0,
    0,
    0,
    0,
    0,
    0,
    0,
    0,
    0,
    0,
    0,
    0,
    0,
    0,
    0,
    0,
    0,
    0,
    0,
    0,
    0,
    0,
    0,
    0,
    0,
    0,
    0,
    0,
    0,
    0,
    0,
    0,
    0,
    0,
    0,
    0,
    0,
    0,
    0,
    0,
    0,
    0,
    0,
    0,
    0,
    0,
    0,
    0,
    0,
    0,
    0,
    0,
    0,
    0,
    0,
    0,
    0,
    0,
    0,
    0,
    0,
    0,
    0,
    0,
    0,
    0,
    0,
    0,
    0,
    0,
    0,
    0,
    0,
    0,
    0,
    0,
    0,
    0,
    0,
    0,
    0,
    0,
    0,
    0,
    0,
    0,
    0,
    0,
    0,
    0,
    0,
    0,
    0,
    0,
    0,
    0,
    0,
    0,
    0,
    0,
    0,
    0,
    0,
    0,
    0,
    0,
    0,
    0,
    0,
    0,
    0,
    0,
    0,
    0,
    0,
    0,
    0,
    0,
    0,
    0,
    0,
    0,
    0,
    0,
    0,
    0,
    0,
    0,
    0,
    0,
    0,
    0,
    0,
    0,
    0,
    0,
    0,
    0,
    0,
    0,
    0,
    0,
    0,
    0,
    0,
    0,
    0,
    0,
    0,
    0,
    0,
    0,
    0,
    0,
    0,
    0,
    0,
    0,
    0,
    0,
    0,
    0,
    0,
    0,
    0,
    0,
    0,
    0,
    0,
    0,
    0,
    0,
    0,
    0,
    0,
    0,
    0,
    0,
    0,
    0,
    0,
    0,
    0,
    0,
    0,
    0,
    0,
    0,
    0,
    0,
    0,
    0,
    0,
    0,
    0,
    0,
    0,
    0,
    0,
    0,
    0,
    0,
    0,
    0,
    0,
    0,
    0,
    0,
    0,
    0,
    0,
    0,
    0,
    0,
    0,
    0,
    0,
    0,
    0,
    0,
    0,
    0,
    0,
    0,
    0,
    0,
    0,
    0,
    0,
    0,
    0,
    0,
    0,
    0,
    0,
    0,
    0,
    0,
    0,
    0,
    0,
    0,
    0,
    0,
    0,
    0,
    0,
    0,
    0,
    0,
    0,
    0,
    0,
    0,
    0,
    0,
    0,
    0,
    0,
    0,
    0,
    0,
    0,
    0,
    0,
    0,
    0,
    0,
    0,
    0,
    0,
    0,
    0,
    0,
    0,
    0,
    0,
    0,
    0,
    0,
    0,
    0,
    0,
    0,
    0,
    0,
    0,
    0,
    0,
    0,
    0,
    0,
    0,
    0,
    0,
    0,
    0,
    0,
    0,
    0,
    0,
    0,
    0,
    0,
    0,
    0,
    0,
    0,
    0,
    0,
    0,
    0,
    0,
    0,
    0,
    0,
    0,
    0,
    0,
    0,
    0,
    0,
    0,
    0,
    0,
    0,
    0,
    0,
    0,
    0,
    0,
    0,
    0,
    0,
    0,
    0,
    0,
    0,
    0,
    0,
    0,
    0,
    0,
    0,
    0,
    0,
    0,
    0,
    0,
    0,
    0,
    0,
    0,
    0,
    0,
    0,
    0,
    0,
    0,
    0,
    0,
    0,
    0,
    0,
    0,
    0,
    0,
    0,
    0,
    0,
    0,
    0,
    0,
    0,
    0,
    0,
    0,
    0,
    0,
    0,
    0,
    0,
    0,
    0,
    0,
    0,
    0,
    0,
    0,
    0,
    0,
    0,
    0,
    0,
    0,
    0,
    0,
    0,
    0,
    0,
    0,
    0,
    0,
    0,
    0,
    0,
    0,
    0,
    0,
    0,
    0,
    0,
    0,
    0,
    0,
    0,
    0,
    0,
    0,
    0,
    0,
    0,
    0,
    0,
    0,
    0,
    0,
    0,
    0,
    0,
    0,
    0,
    0,
    0,
    0,
    0,
    0,
    0,
    0,
    0,
    0,
    0,
    0,
    0,
    0,
    0,
    0,
    0,
    0,
    0,
    0,
    0,
    0,
    0,
    0,
    0,
    0,
    0,
    0,
    0,
    0,
    0,
    0,
    0,
    0,
    0,
    0,
    0,
    0,
    0,
    0,
    0,
    0,
    0,
    0,
    0,
    0,
    0,
    0,
    0,
    0,
    0,
    0,
    0,
    0,
    0,
    0,
    0,
    0,
    0,
    0,
    0,
    0,
    0,
    0,
    0,
    0,
    0,
    0,
    0,
    0,
    0,
    0,
    0,
    0,
    0,
    0,
    0,
    0,
    0,
    0,
    0,
    0,
    0,
    0,
    0,
    0,
    0,
    0,
    0,
    0,
    0,
    0,
    0,
    0,
    0,
    0,
    0,
    0,
    0,
    0,
    0,
    0,
    0,
    0,
    0,
    0,
    0,
    0,
    0,
    0,
    0,
    0,
    0,
    0,
    0,
    0,
    0,
    0,
    0,
    0,
    0,
    0,
    0,
    0,
    0,
    0,
    0,
    0,
    0,
    0,
    0,
    0,
    0,
    0,
    0,
    0,
    0,
    0,
    0,
    0,
    0,
    0,
    0,
    0,
    0,
    0,
    0,
    0,
    0,
    0,
    0,
    0,
    0,
    0,
    0,
    0,
    0,
    0,
    0,
    0,
    0,
    0,
    0,
    0,
    0,
    0,
    0,
    0,
    0,
    0,
    0,
    0,
    0,
    0,
    0,
    0,
    0,
    0,
    0,
    0,
    0,
    0,
    0,
    0,
    0,
    0,
    0,
    0,
    0,
    0,
    0,
    0,
    0,
    0,
    0,
    0,
    0,
    0,
    0,
    0,
    0,
    0,
    0,
    0,
    0,
    0,
    0,
    0,
    0,
    0,
    0,
    0,
    0,
    0,
    0,
    0,
    0,
    0,
    0,
    0,
    0,
    0,
    0,
    0,
    0,
    0,
    0,
    0,
    0,
    0,
    0,
    0,
    0,
    0,
    0,
    0,
    0,
    0,
    0,
    0,
    0,
    0,
    0,
    0,
    0,
    0,
    0,
    0,
    0,
    0,
    0,
    0,
    0,
    0,
    0,
    0,
    0,
    0,
    0,
    0,
    0,
    0,
    0,
    0,
    0,
    0,
    0,
    0,
    0,
    0,
    0,
    0,
    0,
    0,
    0,
    0,
    0,
    0,
    0,
    0,
    0,
    0,
    0,
    0,
    0,
    0,
    0,
    0,
    0,
    0,
    0,
    0,
    0,
    0,
    0,
    0,
    0,
    0,
    0,
    0,
    0,
    0,
    0,
    0,
    0,
    0,
    0,
    0,
    0,
    0,
    0,
    0,
    0,
    0,
    0,
    0,
    0,
    0,
    0,
    0,
    0,
    0,
    0,
    0,
    0,
    0,
    0,
    0,
    0,
    0,
    0,
    0,
    0,
    0,
    0,
    0,
    0,
    0,
    0,
    0,
    0,
    0,
    0,
    0,
    0,
    0,
    0,
    0,
    0,
    0,
    0,
    0,
    0,
    0,
    0,
    0,
    0,
    0,
    0,
    0,
    0,
    0,
    0,
    0,
    0,
    0,
    0,
    0,
    0,
    0,
    0,
    0,
    0,
    0,
    0,
    0,
    0,
    0,
    0,
    0,
    0,
    0,
    0,
    0,
    0,
    0,
    0,
    0,
    0,
    0,
    0,
    0,
    0,
    0,
    0,
    0,
    0,
    0,
    0,
    0,
    0,
    0,
    0,
    0,
    0,
    0,
    0,
    0,
    0,
    0,
    0,
    0,
    0,
    0,
    0,
    0,
    0,
    0,
    0,
    0,
    0,
    0,
    0,
    0,
    0,
    0,
    0,
    0,
    0,
    0,
    0,
    0,
    0,
    0,
    0,
    0,
    0,
    0,
    0,
    0,
    0,
    0,
    0,
    0,
    0,
    0,
    0,
    0,
    0,
    0,
    0,
    0,
    0,
    0,
    0,
    0,
    0,
    0,
    0,
    0,
    0,
    0,
    0,
    0,
    0,
    0,
    0,
    0,
    0,
    0,
    0,
    0,
    0,
    0,
    0,
    0,
    0,
    0,
    0,
    0,
    0,
    0,
    0,
    0,
    0,
    0,
    0,
    0,
    0,
    0,
    0,
    0,
    0,
    0,
    0,
    0,
    0,
    0,
    0,
    0,
    0,
    0,
    0,
    0,
    0,
    0,
    0,
    0,
    0,
    0,
    0,
    0,
    0,
    0,
    0,
    0,
    0,
    0,
    0,
    0,
    0,
    0,
    0,
    0,
    0,
    0,
    0,
    0,
    0,
    0,
    0,
    0,
    0,
    0,
    0,
    0,
    0,
    0,
    0,
    0,
    0,
    0,
    0,
    0,
    0,
    0,
    0,
    0,
    0,
    0,
    0,
    0,
    0,
    0,
    0,
    0,
    0,
    0,
    0,
    0,
    0,
    0,
    0,
    0,
    0,
    0,
    0,
    0,
    0,
    0,
    0,
    0,
    0,
    0,
    0,
    0,
    0,
    0,
    0,
    0,
    0,
    0,
    0,
    0,
    0,
    0,
    0,
    0,
    0,
    0,
    0,
    0,
    0,
    0,
    0,
    0,
    0,
    0,
    0,
    0,
    0,
    0,
    0,
    0,
    0,
    0,
    0,
    0,
    0,
    0,
    0,
    0,
    0,
    0,
    0,
    0,
    0,
    0,
    0,
    0,
    0,
    0,
    0,
    0,
    0,
    0,
    0,
    0,
    0,
    0,
    0,
    0,
    0,
    0,
    0,
    0,
    0,
    0,
    0,
    0,
    0,
    0,
    0,
    0,
    0,
    0,
    0,
    0,
    0,
    0,
    0,
    0,
    0,
    0,
    0,
    0,
    0,
    0,
    0,
    0,
    0,
    0,
    0,
    0,
    0,
    0,
    0,
    0,
    0,
    0,
    0,
    0,
    0,
    0,
    0,
    0,
    0,
    0,
    0,
    0,
    0,
    0,
    0,
    0,
    0,
    0,
    0,
    0,
    0,
    0,
    0,
    0,
    0,
    0,
    0,
    0,
    0,
    0,
    0,
    0,
    0,
    0,
    0,
    0,
    0,
    0,
    0,
    0,
    0,
    0,
    0,
    0,
    0,
    0,
    0,
    0,
    0,
    0,
    0,
    0,
    0,
    0,
    0,
    0,
    0,
    0,
    0,
    0,
    0,
    0,
    0,
    0,
    0,
    0,
    0,
    0,
    0,
    0,
    0,
    0,
    0,
    0,
    0,
    0,
    0,
    0,
    0,
    0,
    0,
    0,
    0,
    0,
    0,
    0,
    0,
    0,
    0,
    0,
    0,
    0,
    0,
    0,
    0,
    0,
    0,
    0,
    0,
    0,
    0,
    0,
    0,
    0,
    0,
    0,
    0,
    0,
    0,
    0,
    0,
    0,
    0,
    0,
    0,
    0,
    0,
    0,
    0,
    0,
    0,
    0,
    0,
    0,
    0,
    0,
    0,
    0,
    0,
    0,
    0,
    0,
    0,
    0,
    0,
    0,
    0,
    0,
    0,
    0,
    0,
    0,
    0,
    0,
    0,
    0,
    0,
    0,
    0,
    0,
    0,
    0,
    0,
    0,
    0,
    0,
    0,
    0,
    0,
    0,
    0,
    0,
    0,
    0,
    0,
    0,
    0,
    0,
    0,
    0,
    0,
    0,
    0,
    0,
    0,
    0,
    0,
    0,
    0,
    0,
    0,
    0,
    0,
    0,
    0,
    0,
    0,
    0,
    0,
    0,
    0,
    0,
    0,
    0,
    0,
    0,
    0,
    0,
    0,
    0,
    0,
    0,
    0,
    0,
    0,
    0,
    0,
    0,
    0,
    0,
    0,
    0,
    0,
    0,
    0,
    0,
    0,
    0,
    0,
    0,
    0,
    0,
    0,
    0,
    0,
    0,
    0,
    0,
    0,
    0,
    0,
    0,
    0,
    0,
    0,
    0,
    0,
    0,
    0,
    0,
    0,
    0,
    0,
    0,
    0,
    0,
    0,
    0,
    0,
    0,
    0,
    0,
    0,
    0,
    0,
    0,
    0,
    0,
    0,
    0,
    0,
    0,
    0,
    0,
    0,
    0,
    0,
    0,
    0,
    0,
    0,
    0,
    0,
    0,
    0,
    0,
    0,
    0,
    0,
    0,
    0,
    0,
    0,
    0,
    0,
    0,
    0,
    0,
    0,
    0,
    0,
    0,
    0,
    0,
    0,
    0,
    0,
    0,
    0,
    0,
    0,
    0,
    0,
    0,
    0,
    0,
    0,
    0,
    0,
    0,
    0,
    0,
    0,
    0,
    0,
    0,
    0,
    0,
    0,
    0,
    0,
    0,
    0,
    0,
    0,
    0,
    0,
    0,
    0,
    0,
    0,
    0,
    0,
    0,
    0,
    0,
    0,
    0,
    0,
    0,
    0,
    0,
    0,
    0,
    0,
    0,
    0,
    0,
    0,
    0,
    0,
    0,
    0,
    0,
    0,
    0,
    0,
    0,
    0,
    0,
    0,
    0,
    0,
    0,
    0,
    0,
    0,
    0,
    0,
    0,
    0,
    0,
    0,
    0,
    0,
    0,
    0,
    0,
    0,
    0,
    0,
    0,
    0,
    0,
    0,
    0,
    0,
    0,
    0,
    0,
    0,
    0,
    0,
    0,
    0,
    0,
    0,
    0,
    0,
    0,
    0,
    0,
    0,
    0,
    0,
    0,
    0,
    0,
    0,
    0,
    0,
    0,
    0,
    0,
    0,
    0,
    0,
    0,
    0,
    0,
    0,
    0,
    0,
    0,
    0,
    0,
    0,
    0,
    0,
    0,
    0,
    0,
    0,
    0,
    0,
    0,
    0,
    0,
    0,
    0,
    0,
    0,
    0,
    0,
    0,
    0,
    0,
    0,
    0,
    0,
    0,
    0,
    0,
    0,
    0,
    0,
    0,
    0,
    0,
    0,
    0,
    0,
    0,
    0,
    0,
    0,
    0,
    0,
    0,
    0,
    0,
    0,
    0,
    0,
    0,
    0,
    0,
    0,
    0,
    0,
    0,
    0,
    0,
    0,
    0,
    0,
    0,
    0,
    0,
    0,
    0,
    0,
    0,
    0,
    0,
    0,
    0,
    0,
    0,
    0,
    0,
    0,
    0,
    0,
    0,
    0,
    0,
    0,
    0,
    0,
    0,
    0,
    0,
    0,
    0,
    0,
    0,
    0,
    0,
    0,
    0,
    0,
    0,
    0,
    0,
    0,
    0,
    0,
    0,
    0,
    0,
    0,
    0,
    0,
    0,
    0,
    0,
    0,
    0,
    0,
    0,
    0,
    0,
    0,
    0,
    0,
    0,
    0,
    0,
    0,
    0,
    0,
    0,
    0,
    0,
    0,
    0,
    0,
    0,
    0,
    0,
    0,
    0,
    0,
    0,
    0,
    0,
    0,
    0,
    0,
    0,
    0,
    0,
    0,
    0,
    0,
    0,
    0,
    0,
    0,
    0,
    0,
    0,
    0,
    0,
    0,
    0,
    0,
    0,
    0,
    0,
    0,
    0,
    0,
    0,
    0,
    0,
    0,
    0,
    0,
    0,
    0,
    0,
    0,
    0,
    0,
    0,
    0,
    0,
    0,
    0,
    0,
    0,
    0,
    0,
    0,
    0,
    0,
    0,
    0,
    0,
    0,
    0,
    0,
    0,
    0,
    0,
    0,
    0,
    0,
    0,
    0,
    0,
    0,
    0,
    0,
    0,
    0,
    0,
    0,
    0,
    0,
    0,
    0,
    0,
    0,
    0,
    0,
    0,
    0,
    0,
    0,
    0,
    0,
    0,
    0,
    0,
    0,
    0,
    0,
    0,
    0,
    0,
    0,
    0,
    0,
    0,
    0,
    0,
    0,
    0,
    0,
    0,
    0,
    0,
    0,
    0,
    0,
    0,
    0,
    0,
    0,
    0,
    0,
    0,
    0,
    0,
    0,
    0,
    0,
    0,
    0,
    0,
    0,
    0,
    0,
    0,
    0,
    0,
    0,
    0,
    0,
    0,
    0,
    0,
    0,
    0,
    0,
    0,
    0,
    0,
    0,
    0,
    0,
    0,
    0,
    0,
    0,
    0,
    0,
    0,
    0,
    0,
    0,
    0,
    0,
    0,
    0,
    0,
    0,
    0,
    0,
    0,
    0,
    0,
    0,
    0,
    0,
    0,
    0,
    0,
    0,
    0,
    0,
    0,
    0,
    0,
    0,
    0,
    0,
    0,
    0,
    0,
    0,
    0,
    0,
    0,
    0,
    0,
    0,
    0,
    0,
    0,
    0,
    0,
    0,
    0,
    0,
    0,
    0,
    0,
    0,
    0,
    0,
    0,
    0,
    0,
    0,
    0,
    0,
    0,
    0,
    0,
    0,
    0,
    0,
    0,
    0,
    0,
    0,
    0,
    0,
    0,
    0,
    0,
    0,
    0,
    0,
    0,
    0,
    0,
    0,
    0,
    0,
    0,
    0,
    0,
    0,
    0,
    0,
    0,
    0,
    0,
    0,
    0,
    0,
    0,
    0,
    0,
    0,
    0,
    0,
    0,
    0,
    0,
    0,
    0,
    0,
    0,
    0,
    0,
    0,
    0,
    0,
    0,
    0,
    0,
    0,
    0,
    0,
    0,
    0,
    0,
    0,
    0,
    0,
    0,
    0,
    0,
    0,
    0,
    0,
    0,
    0,
    0,
    0,
    0,
    0,
    0,
    0,
    0,
    0,
    0,
    0,
    0,
    0,
    0,
    0,
    0,
    0,
    0,
    0,
    0,
    0,
    0,
    0,
    0,
    0,
    0,
    0,
    0,
    0,
    0,
    0,
    0,
    0,
    0,
    0,
    0,
    0,
    0,
    0,
    0,
    0,
    0,
    0,
    0,
    0,
    0,
    0,
    0,
    0,
    0,
    0,
    0,
    0,
    0,
    0,
    0,
    0,
    0,
    0,
    0,
    0,
    0,
    0,
    0,
    0,
    0,
    0,
    0,
    0,
    0,
    0,
    0,
    0,
    0,
    0,
    0,
    0,
    0,
    0,
    0,
    0,
    0,
    0,
    0,
    0,
    0,
    0,
    0,
    0,
    0,
    0,
    0,
    0,
    0,
    0,
    0,
    0,
    0,
    0,
    0,
    0,
    0,
    0,
    0,
    0,
    0,
    0,
    0,
    0,
    0,
    0,
    0,
    0,
    0,
    0,
    0,
    0,
    0,
    0,
    0,
    0,
    0,
    0,
    0,
    0,
    0,
    0,
    0,
    0,
    0,
    0,
    0,
    0,
    0,
    0,
    0,
    0,
    0,
    0,
    0,
    0,
    0,
    0,
    0,
    0,
    0,
    0,
    0,
    0,
    0,
    0,
    0,
    0,
    0,
    0,
    0,
    0,
    0,
    0,
    0,
    0,
    0,
    0,
    0,
    0,
    0,
    0,
    0,
    0,
    0,
    0,
    0,
    0,
    0,
    0,
    0,
    0,
    0,
    0,
    0,
    0,
    0,
    0,
    0,
    0,
    0,
    0,
    0,
    0,
    0,
    0,
    0,
    0,
    0,
    0,
    0,
    0,
    0,
    0,
    0,
    0,
    0,
    0,
    0,
    0,
    0,
    0,
    0,
    0,
    0,
    0,
    0,
    0,
    0,
    0,
    0,
    0,
    0,
    0,
    0,
    0,
    0,
    0,
    0,
    0,
    0,
    0,
    0,
    0,
    0,
    0,
    0,
    0,
    0,
    0,
    0,
    0,
    0,
    0,
    0,
    0,
    0,
    0,
    0,
    0,
    0,
    0,
    0,
    0,
    0,
    0,
    0,
    0,
    0,
    0,
    0,
    0,
    0,
    0,
    0,
    0,
    0,
    0,
    0,
    0,
    0,
    0,
    0,
    0,
    0,
    0,
    0,
    0,
    0,
    0,
    0,
    0,
    0,
    0,
    0,
    0,
    0,
    0,
    0,
    0,
    0,
    0,
    0,
    0,
    0,
    0,
    0,
    0,
    0,
    0,
    0,
    0,
    0,
    0,
    0,
    0,
    0,
    0,
    0,
    0,
    0,
    0,
    0,
    0,
    0,
    0,
    0,
    0,
    0,
    0,
    0,
    0,
    0,
    0,
    0,
    0,
    0,
    0,
    0,
    0,
    0,
    0,
    0,
    0,
    0,
    0,
    0,
    0,
    0,
    0,
    0,
    0,
    0,
    0,
    0,
    0,
    0,
    0,
    0,
    0,
    0,
    0,
    0,
    0,
    0,
    0,
    0,
    0,
    0,
    0,
    0,
    0,
    0,
    0,
    0,
    0,
    0,
    0,
    0,
    0,
    0,
    0,
    0,
    0,
    0,
    0,
    0,
    0,
    0,
    0,
    0,
    0,
    0,
    0,
    0,
    0,
    0,
    0,
    0,
    0,
    0,
    0,
    0,
    0,
    0,
    0,
    0,
    0,
    0,
    0,
    0,
    0,
    0,
    0,
    0,
    0,
    0,
    0,
    0,
    0,
    0,
    0,
    0,
    0,
    0,
    0,
    0,
    0,
    0,
    0,
    0,
    0,
    0,
    0
   ]
  },
  {
   "id": 4,
   "name": "decals",
   "type": "objectgroup",
   "draworder": "topdown",
   "x": 0,
   "y": 0,
   "opacity": 1,
   "visible": true,
   "objects": []
  },
  {
   "id": 5,
   "name": "objects",
   "type": "objectgroup",
   "draworder": "topdown",
   "x": 0,
   "y": 0,
   "opacity": 1,
   "visible": true,
   "objects": [
    {
     "id": 1,
     "rotation": 0,
     "visible": true,
     "name": "recibidor",
     "type": "zone",
     "x": 1056,
     "y": 960,
     "width": 448,
     "height": 96,
     "properties": [
      {
       "name": "id",
       "type": "string",
       "value": "recibidor"
      },
      {
       "name": "name",
       "type": "string",
       "value": "Recibidor"
      },
      {
       "name": "startsUnlocked",
       "type": "bool",
       "value": true
      },
      {
       "name": "interior",
       "type": "bool",
       "value": true
      },
      {
       "name": "openSpawns",
       "type": "bool",
       "value": false
      }
     ]
    },
    {
     "id": 2,
     "rotation": 0,
     "visible": true,
     "name": "recibidor",
     "type": "zone",
     "x": 1120,
     "y": 1056,
     "width": 64,
     "height": 256,
     "properties": [
      {
       "name": "id",
       "type": "string",
       "value": "recibidor"
      },
      {
       "name": "name",
       "type": "string",
       "value": "Recibidor"
      },
      {
       "name": "startsUnlocked",
       "type": "bool",
       "value": true
      },
      {
       "name": "interior",
       "type": "bool",
       "value": true
      },
      {
       "name": "openSpawns",
       "type": "bool",
       "value": false
      }
     ]
    },
    {
     "id": 3,
     "rotation": 0,
     "visible": true,
     "name": "recibidor",
     "type": "zone",
     "x": 1280,
     "y": 1056,
     "width": 64,
     "height": 256,
     "properties": [
      {
       "name": "id",
       "type": "string",
       "value": "recibidor"
      },
      {
       "name": "name",
       "type": "string",
       "value": "Recibidor"
      },
      {
       "name": "startsUnlocked",
       "type": "bool",
       "value": true
      },
      {
       "name": "interior",
       "type": "bool",
       "value": true
      },
      {
       "name": "openSpawns",
       "type": "bool",
       "value": false
      }
     ]
    },
    {
     "id": 4,
     "rotation": 0,
     "visible": true,
     "name": "recibidor",
     "type": "zone",
     "x": 1056,
     "y": 1088,
     "width": 64,
     "height": 224,
     "properties": [
      {
       "name": "id",
       "type": "string",
       "value": "recibidor"
      },
      {
       "name": "name",
       "type": "string",
       "value": "Recibidor"
      },
      {
       "name": "startsUnlocked",
       "type": "bool",
       "value": true
      },
      {
       "name": "interior",
       "type": "bool",
       "value": true
      },
      {
       "name": "openSpawns",
       "type": "bool",
       "value": false
      }
     ]
    },
    {
     "id": 5,
     "rotation": 0,
     "visible": true,
     "name": "recibidor",
     "type": "zone",
     "x": 1184,
     "y": 1088,
     "width": 96,
     "height": 224,
     "properties": [
      {
       "name": "id",
       "type": "string",
       "value": "recibidor"
      },
      {
       "name": "name",
       "type": "string",
       "value": "Recibidor"
      },
      {
       "name": "startsUnlocked",
       "type": "bool",
       "value": true
      },
      {
       "name": "interior",
       "type": "bool",
       "value": true
      },
      {
       "name": "openSpawns",
       "type": "bool",
       "value": false
      }
     ]
    },
    {
     "id": 6,
     "rotation": 0,
     "visible": true,
     "name": "recibidor",
     "type": "zone",
     "x": 1344,
     "y": 1088,
     "width": 160,
     "height": 64,
     "properties": [
      {
       "name": "id",
       "type": "string",
       "value": "recibidor"
      },
      {
       "name": "name",
       "type": "string",
       "value": "Recibidor"
      },
      {
       "name": "startsUnlocked",
       "type": "bool",
       "value": true
      },
      {
       "name": "interior",
       "type": "bool",
       "value": true
      },
      {
       "name": "openSpawns",
       "type": "bool",
       "value": false
      }
     ]
    },
    {
     "id": 7,
     "rotation": 0,
     "visible": true,
     "name": "recibidor",
     "type": "zone",
     "x": 1344,
     "y": 1184,
     "width": 160,
     "height": 64,
     "properties": [
      {
       "name": "id",
       "type": "string",
       "value": "recibidor"
      },
      {
       "name": "name",
       "type": "string",
       "value": "Recibidor"
      },
      {
       "name": "startsUnlocked",
       "type": "bool",
       "value": true
      },
      {
       "name": "interior",
       "type": "bool",
       "value": true
      },
      {
       "name": "openSpawns",
       "type": "bool",
       "value": false
      }
     ]
    },
    {
     "id": 8,
     "rotation": 0,
     "visible": true,
     "name": "recibidor",
     "type": "zone",
     "x": 1376,
     "y": 1248,
     "width": 128,
     "height": 32,
     "properties": [
      {
       "name": "id",
       "type": "string",
       "value": "recibidor"
      },
      {
       "name": "name",
       "type": "string",
       "value": "Recibidor"
      },
      {
       "name": "startsUnlocked",
       "type": "bool",
       "value": true
      },
      {
       "name": "interior",
       "type": "bool",
       "value": true
      },
      {
       "name": "openSpawns",
       "type": "bool",
       "value": false
      }
     ]
    },
    {
     "id": 9,
     "rotation": 0,
     "visible": true,
     "name": "salon",
     "type": "zone",
     "x": 512,
     "y": 960,
     "width": 512,
     "height": 96,
     "properties": [
      {
       "name": "id",
       "type": "string",
       "value": "salon"
      },
      {
       "name": "name",
       "type": "string",
       "value": "Salón"
      },
      {
       "name": "startsUnlocked",
       "type": "bool",
       "value": false
      },
      {
       "name": "interior",
       "type": "bool",
       "value": true
      },
      {
       "name": "openSpawns",
       "type": "bool",
       "value": false
      }
     ]
    },
    {
     "id": 10,
     "rotation": 0,
     "visible": true,
     "name": "salon",
     "type": "zone",
     "x": 544,
     "y": 1056,
     "width": 224,
     "height": 160,
     "properties": [
      {
       "name": "id",
       "type": "string",
       "value": "salon"
      },
      {
       "name": "name",
       "type": "string",
       "value": "Salón"
      },
      {
       "name": "startsUnlocked",
       "type": "bool",
       "value": false
      },
      {
       "name": "interior",
       "type": "bool",
       "value": true
      },
      {
       "name": "openSpawns",
       "type": "bool",
       "value": false
      }
     ]
    },
    {
     "id": 11,
     "rotation": 0,
     "visible": true,
     "name": "salon",
     "type": "zone",
     "x": 832,
     "y": 1056,
     "width": 192,
     "height": 288,
     "properties": [
      {
       "name": "id",
       "type": "string",
       "value": "salon"
      },
      {
       "name": "name",
       "type": "string",
       "value": "Salón"
      },
      {
       "name": "startsUnlocked",
       "type": "bool",
       "value": false
      },
      {
       "name": "interior",
       "type": "bool",
       "value": true
      },
      {
       "name": "openSpawns",
       "type": "bool",
       "value": false
      }
     ]
    },
    {
     "id": 12,
     "rotation": 0,
     "visible": true,
     "name": "salon",
     "type": "zone",
     "x": 512,
     "y": 1120,
     "width": 32,
     "height": 96,
     "properties": [
      {
       "name": "id",
       "type": "string",
       "value": "salon"
      },
      {
       "name": "name",
       "type": "string",
       "value": "Salón"
      },
      {
       "name": "startsUnlocked",
       "type": "bool",
       "value": false
      },
      {
       "name": "interior",
       "type": "bool",
       "value": true
      },
      {
       "name": "openSpawns",
       "type": "bool",
       "value": false
      }
     ]
    },
    {
     "id": 13,
     "rotation": 0,
     "visible": true,
     "name": "salon",
     "type": "zone",
     "x": 768,
     "y": 1120,
     "width": 64,
     "height": 224,
     "properties": [
      {
       "name": "id",
       "type": "string",
       "value": "salon"
      },
      {
       "name": "name",
       "type": "string",
       "value": "Salón"
      },
      {
       "name": "startsUnlocked",
       "type": "bool",
       "value": false
      },
      {
       "name": "interior",
       "type": "bool",
       "value": true
      },
      {
       "name": "openSpawns",
       "type": "bool",
       "value": false
      }
     ]
    },
    {
     "id": 14,
     "rotation": 0,
     "visible": true,
     "name": "salon",
     "type": "zone",
     "x": 640,
     "y": 1216,
     "width": 128,
     "height": 128,
     "properties": [
      {
       "name": "id",
       "type": "string",
       "value": "salon"
      },
      {
       "name": "name",
       "type": "string",
       "value": "Salón"
      },
      {
       "name": "startsUnlocked",
       "type": "bool",
       "value": false
      },
      {
       "name": "interior",
       "type": "bool",
       "value": true
      },
      {
       "name": "openSpawns",
       "type": "bool",
       "value": false
      }
     ]
    },
    {
     "id": 15,
     "rotation": 0,
     "visible": true,
     "name": "comedor",
     "type": "zone",
     "x": 1536,
     "y": 960,
     "width": 352,
     "height": 320,
     "properties": [
      {
       "name": "id",
       "type": "string",
       "value": "comedor"
      },
      {
       "name": "name",
       "type": "string",
       "value": "Comedor"
      },
      {
       "name": "startsUnlocked",
       "type": "bool",
       "value": false
      },
      {
       "name": "interior",
       "type": "bool",
       "value": true
      },
      {
       "name": "openSpawns",
       "type": "bool",
       "value": false
      }
     ]
    },
    {
     "id": 16,
     "rotation": 0,
     "visible": true,
     "name": "comedor",
     "type": "zone",
     "x": 1632,
     "y": 1280,
     "width": 160,
     "height": 64,
     "properties": [
      {
       "name": "id",
       "type": "string",
       "value": "comedor"
      },
      {
       "name": "name",
       "type": "string",
       "value": "Comedor"
      },
      {
       "name": "startsUnlocked",
       "type": "bool",
       "value": false
      },
      {
       "name": "interior",
       "type": "bool",
       "value": true
      },
      {
       "name": "openSpawns",
       "type": "bool",
       "value": false
      }
     ]
    },
    {
     "id": 17,
     "rotation": 0,
     "visible": true,
     "name": "biblioteca",
     "type": "zone",
     "x": 736,
     "y": 544,
     "width": 160,
     "height": 384,
     "properties": [
      {
       "name": "id",
       "type": "string",
       "value": "biblioteca"
      },
      {
       "name": "name",
       "type": "string",
       "value": "Biblioteca"
      },
      {
       "name": "startsUnlocked",
       "type": "bool",
       "value": false
      },
      {
       "name": "interior",
       "type": "bool",
       "value": true
      },
      {
       "name": "openSpawns",
       "type": "bool",
       "value": false
      }
     ]
    },
    {
     "id": 18,
     "rotation": 0,
     "visible": true,
     "name": "biblioteca",
     "type": "zone",
     "x": 512,
     "y": 608,
     "width": 160,
     "height": 160,
     "properties": [
      {
       "name": "id",
       "type": "string",
       "value": "biblioteca"
      },
      {
       "name": "name",
       "type": "string",
       "value": "Biblioteca"
      },
      {
       "name": "startsUnlocked",
       "type": "bool",
       "value": false
      },
      {
       "name": "interior",
       "type": "bool",
       "value": true
      },
      {
       "name": "openSpawns",
       "type": "bool",
       "value": false
      }
     ]
    },
    {
     "id": 19,
     "rotation": 0,
     "visible": true,
     "name": "biblioteca",
     "type": "zone",
     "x": 704,
     "y": 608,
     "width": 32,
     "height": 320,
     "properties": [
      {
       "name": "id",
       "type": "string",
       "value": "biblioteca"
      },
      {
       "name": "name",
       "type": "string",
       "value": "Biblioteca"
      },
      {
       "name": "startsUnlocked",
       "type": "bool",
       "value": false
      },
      {
       "name": "interior",
       "type": "bool",
       "value": true
      },
      {
       "name": "openSpawns",
       "type": "bool",
       "value": false
      }
     ]
    },
    {
     "id": 20,
     "rotation": 0,
     "visible": true,
     "name": "biblioteca",
     "type": "zone",
     "x": 896,
     "y": 608,
     "width": 128,
     "height": 320,
     "properties": [
      {
       "name": "id",
       "type": "string",
       "value": "biblioteca"
      },
      {
       "name": "name",
       "type": "string",
       "value": "Biblioteca"
      },
      {
       "name": "startsUnlocked",
       "type": "bool",
       "value": false
      },
      {
       "name": "interior",
       "type": "bool",
       "value": true
      },
      {
       "name": "openSpawns",
       "type": "bool",
       "value": false
      }
     ]
    },
    {
     "id": 21,
     "rotation": 0,
     "visible": true,
     "name": "biblioteca",
     "type": "zone",
     "x": 672,
     "y": 672,
     "width": 32,
     "height": 64,
     "properties": [
      {
       "name": "id",
       "type": "string",
       "value": "biblioteca"
      },
      {
       "name": "name",
       "type": "string",
       "value": "Biblioteca"
      },
      {
       "name": "startsUnlocked",
       "type": "bool",
       "value": false
      },
      {
       "name": "interior",
       "type": "bool",
       "value": true
      },
      {
       "name": "openSpawns",
       "type": "bool",
       "value": false
      }
     ]
    },
    {
     "id": 22,
     "rotation": 0,
     "visible": true,
     "name": "biblioteca",
     "type": "zone",
     "x": 576,
     "y": 768,
     "width": 64,
     "height": 160,
     "properties": [
      {
       "name": "id",
       "type": "string",
       "value": "biblioteca"
      },
      {
       "name": "name",
       "type": "string",
       "value": "Biblioteca"
      },
      {
       "name": "startsUnlocked",
       "type": "bool",
       "value": false
      },
      {
       "name": "interior",
       "type": "bool",
       "value": true
      },
      {
       "name": "openSpawns",
       "type": "bool",
       "value": false
      }
     ]
    },
    {
     "id": 23,
     "rotation": 0,
     "visible": true,
     "name": "biblioteca",
     "type": "zone",
     "x": 512,
     "y": 800,
     "width": 64,
     "height": 128,
     "properties": [
      {
       "name": "id",
       "type": "string",
       "value": "biblioteca"
      },
      {
       "name": "name",
       "type": "string",
       "value": "Biblioteca"
      },
      {
       "name": "startsUnlocked",
       "type": "bool",
       "value": false
      },
      {
       "name": "interior",
       "type": "bool",
       "value": true
      },
      {
       "name": "openSpawns",
       "type": "bool",
       "value": false
      }
     ]
    },
    {
     "id": 24,
     "rotation": 0,
     "visible": true,
     "name": "biblioteca",
     "type": "zone",
     "x": 640,
     "y": 800,
     "width": 32,
     "height": 128,
     "properties": [
      {
       "name": "id",
       "type": "string",
       "value": "biblioteca"
      },
      {
       "name": "name",
       "type": "string",
       "value": "Biblioteca"
      },
      {
       "name": "startsUnlocked",
       "type": "bool",
       "value": false
      },
      {
       "name": "interior",
       "type": "bool",
       "value": true
      },
      {
       "name": "openSpawns",
       "type": "bool",
       "value": false
      }
     ]
    },
    {
     "id": 25,
     "rotation": 0,
     "visible": true,
     "name": "biblioteca",
     "type": "zone",
     "x": 672,
     "y": 832,
     "width": 32,
     "height": 64,
     "properties": [
      {
       "name": "id",
       "type": "string",
       "value": "biblioteca"
      },
      {
       "name": "name",
       "type": "string",
       "value": "Biblioteca"
      },
      {
       "name": "startsUnlocked",
       "type": "bool",
       "value": false
      },
      {
       "name": "interior",
       "type": "bool",
       "value": true
      },
      {
       "name": "openSpawns",
       "type": "bool",
       "value": false
      }
     ]
    },
    {
     "id": 26,
     "rotation": 0,
     "visible": true,
     "name": "cocina",
     "type": "zone",
     "x": 1152,
     "y": 544,
     "width": 192,
     "height": 384,
     "properties": [
      {
       "name": "id",
       "type": "string",
       "value": "cocina"
      },
      {
       "name": "name",
       "type": "string",
       "value": "Cocina"
      },
      {
       "name": "startsUnlocked",
       "type": "bool",
       "value": false
      },
      {
       "name": "interior",
       "type": "bool",
       "value": true
      },
      {
       "name": "openSpawns",
       "type": "bool",
       "value": false
      }
     ]
    },
    {
     "id": 27,
     "rotation": 0,
     "visible": true,
     "name": "cocina",
     "type": "zone",
     "x": 1760,
     "y": 608,
     "width": 128,
     "height": 96,
     "properties": [
      {
       "name": "id",
       "type": "string",
       "value": "cocina"
      },
      {
       "name": "name",
       "type": "string",
       "value": "Cocina"
      },
      {
       "name": "startsUnlocked",
       "type": "bool",
       "value": false
      },
      {
       "name": "interior",
       "type": "bool",
       "value": true
      },
      {
       "name": "openSpawns",
       "type": "bool",
       "value": false
      }
     ]
    },
    {
     "id": 28,
     "rotation": 0,
     "visible": true,
     "name": "cocina",
     "type": "zone",
     "x": 1056,
     "y": 640,
     "width": 96,
     "height": 288,
     "properties": [
      {
       "name": "id",
       "type": "string",
       "value": "cocina"
      },
      {
       "name": "name",
       "type": "string",
       "value": "Cocina"
      },
      {
       "name": "startsUnlocked",
       "type": "bool",
       "value": false
      },
      {
       "name": "interior",
       "type": "bool",
       "value": true
      },
      {
       "name": "openSpawns",
       "type": "bool",
       "value": false
      }
     ]
    },
    {
     "id": 29,
     "rotation": 0,
     "visible": true,
     "name": "cocina",
     "type": "zone",
     "x": 1344,
     "y": 640,
     "width": 128,
     "height": 288,
     "properties": [
      {
       "name": "id",
       "type": "string",
       "value": "cocina"
      },
      {
       "name": "name",
       "type": "string",
       "value": "Cocina"
      },
      {
       "name": "startsUnlocked",
       "type": "bool",
       "value": false
      },
      {
       "name": "interior",
       "type": "bool",
       "value": true
      },
      {
       "name": "openSpawns",
       "type": "bool",
       "value": false
      }
     ]
    },
    {
     "id": 30,
     "rotation": 0,
     "visible": true,
     "name": "cocina",
     "type": "zone",
     "x": 1760,
     "y": 704,
     "width": 64,
     "height": 224,
     "properties": [
      {
       "name": "id",
       "type": "string",
       "value": "cocina"
      },
      {
       "name": "name",
       "type": "string",
       "value": "Cocina"
      },
      {
       "name": "startsUnlocked",
       "type": "bool",
       "value": false
      },
      {
       "name": "interior",
       "type": "bool",
       "value": true
      },
      {
       "name": "openSpawns",
       "type": "bool",
       "value": false
      }
     ]
    },
    {
     "id": 31,
     "rotation": 0,
     "visible": true,
     "name": "cocina",
     "type": "zone",
     "x": 1472,
     "y": 736,
     "width": 256,
     "height": 192,
     "properties": [
      {
       "name": "id",
       "type": "string",
       "value": "cocina"
      },
      {
       "name": "name",
       "type": "string",
       "value": "Cocina"
      },
      {
       "name": "startsUnlocked",
       "type": "bool",
       "value": false
      },
      {
       "name": "interior",
       "type": "bool",
       "value": true
      },
      {
       "name": "openSpawns",
       "type": "bool",
       "value": false
      }
     ]
    },
    {
     "id": 32,
     "rotation": 0,
     "visible": true,
     "name": "cocina",
     "type": "zone",
     "x": 1824,
     "y": 736,
     "width": 64,
     "height": 192,
     "properties": [
      {
       "name": "id",
       "type": "string",
       "value": "cocina"
      },
      {
       "name": "name",
       "type": "string",
       "value": "Cocina"
      },
      {
       "name": "startsUnlocked",
       "type": "bool",
       "value": false
      },
      {
       "name": "interior",
       "type": "bool",
       "value": true
      },
      {
       "name": "openSpawns",
       "type": "bool",
       "value": false
      }
     ]
    },
    {
     "id": 33,
     "rotation": 0,
     "visible": true,
     "name": "cocina",
     "type": "zone",
     "x": 1728,
     "y": 800,
     "width": 32,
     "height": 64,
     "properties": [
      {
       "name": "id",
       "type": "string",
       "value": "cocina"
      },
      {
       "name": "name",
       "type": "string",
       "value": "Cocina"
      },
      {
       "name": "startsUnlocked",
       "type": "bool",
       "value": false
      },
      {
       "name": "interior",
       "type": "bool",
       "value": true
      },
      {
       "name": "openSpawns",
       "type": "bool",
       "value": false
      }
     ]
    },
    {
     "id": 34,
     "rotation": 0,
     "visible": true,
     "name": "garaje",
     "type": "zone",
     "x": 1920,
     "y": 736,
     "width": 192,
     "height": 320,
     "properties": [
      {
       "name": "id",
       "type": "string",
       "value": "garaje"
      },
      {
       "name": "name",
       "type": "string",
       "value": "Garaje"
      },
      {
       "name": "startsUnlocked",
       "type": "bool",
       "value": false
      },
      {
       "name": "interior",
       "type": "bool",
       "value": true
      },
      {
       "name": "openSpawns",
       "type": "bool",
       "value": false
      }
     ]
    },
    {
     "id": 35,
     "rotation": 0,
     "visible": true,
     "name": "garaje",
     "type": "zone",
     "x": 1952,
     "y": 1056,
     "width": 64,
     "height": 352,
     "properties": [
      {
       "name": "id",
       "type": "string",
       "value": "garaje"
      },
      {
       "name": "name",
       "type": "string",
       "value": "Garaje"
      },
      {
       "name": "startsUnlocked",
       "type": "bool",
       "value": false
      },
      {
       "name": "interior",
       "type": "bool",
       "value": true
      },
      {
       "name": "openSpawns",
       "type": "bool",
       "value": false
      }
     ]
    },
    {
     "id": 36,
     "rotation": 0,
     "visible": true,
     "name": "garaje",
     "type": "zone",
     "x": 1920,
     "y": 1088,
     "width": 32,
     "height": 320,
     "properties": [
      {
       "name": "id",
       "type": "string",
       "value": "garaje"
      },
      {
       "name": "name",
       "type": "string",
       "value": "Garaje"
      },
      {
       "name": "startsUnlocked",
       "type": "bool",
       "value": false
      },
      {
       "name": "interior",
       "type": "bool",
       "value": true
      },
      {
       "name": "openSpawns",
       "type": "bool",
       "value": false
      }
     ]
    },
    {
     "id": 37,
     "rotation": 0,
     "visible": true,
     "name": "garaje",
     "type": "zone",
     "x": 2016,
     "y": 1088,
     "width": 288,
     "height": 320,
     "properties": [
      {
       "name": "id",
       "type": "string",
       "value": "garaje"
      },
      {
       "name": "name",
       "type": "string",
       "value": "Garaje"
      },
      {
       "name": "startsUnlocked",
       "type": "bool",
       "value": false
      },
      {
       "name": "interior",
       "type": "bool",
       "value": true
      },
      {
       "name": "openSpawns",
       "type": "bool",
       "value": false
      }
     ]
    },
    {
     "id": 38,
     "rotation": 0,
     "visible": true,
     "name": "jardin",
     "type": "zone",
     "x": 384,
     "y": 96,
     "width": 2144,
     "height": 64,
     "properties": [
      {
       "name": "id",
       "type": "string",
       "value": "jardin"
      },
      {
       "name": "name",
       "type": "string",
       "value": "Jardín trasero"
      },
      {
       "name": "startsUnlocked",
       "type": "bool",
       "value": false
      },
      {
       "name": "interior",
       "type": "bool",
       "value": false
      },
      {
       "name": "openSpawns",
       "type": "bool",
       "value": false
      }
     ]
    },
    {
     "id": 39,
     "rotation": 0,
     "visible": true,
     "name": "jardin",
     "type": "zone",
     "x": 384,
     "y": 160,
     "width": 1888,
     "height": 352,
     "properties": [
      {
       "name": "id",
       "type": "string",
       "value": "jardin"
      },
      {
       "name": "name",
       "type": "string",
       "value": "Jardín trasero"
      },
      {
       "name": "startsUnlocked",
       "type": "bool",
       "value": false
      },
      {
       "name": "interior",
       "type": "bool",
       "value": false
      },
      {
       "name": "openSpawns",
       "type": "bool",
       "value": false
      }
     ]
    },
    {
     "id": 40,
     "rotation": 0,
     "visible": true,
     "name": "jardin",
     "type": "zone",
     "x": 2432,
     "y": 160,
     "width": 96,
     "height": 896,
     "properties": [
      {
       "name": "id",
       "type": "string",
       "value": "jardin"
      },
      {
       "name": "name",
       "type": "string",
       "value": "Jardín trasero"
      },
      {
       "name": "startsUnlocked",
       "type": "bool",
       "value": false
      },
      {
       "name": "interior",
       "type": "bool",
       "value": false
      },
      {
       "name": "openSpawns",
       "type": "bool",
       "value": false
      }
     ]
    },
    {
     "id": 41,
     "rotation": 0,
     "visible": true,
     "name": "jardin",
     "type": "zone",
     "x": 2272,
     "y": 288,
     "width": 160,
     "height": 768,
     "properties": [
      {
       "name": "id",
       "type": "string",
       "value": "jardin"
      },
      {
       "name": "name",
       "type": "string",
       "value": "Jardín trasero"
      },
      {
       "name": "startsUnlocked",
       "type": "bool",
       "value": false
      },
      {
       "name": "interior",
       "type": "bool",
       "value": false
      },
      {
       "name": "openSpawns",
       "type": "bool",
       "value": false
      }
     ]
    },
    {
     "id": 42,
     "rotation": 0,
     "visible": true,
     "name": "jardin",
     "type": "zone",
     "x": 384,
     "y": 512,
     "width": 320,
     "height": 64,
     "properties": [
      {
       "name": "id",
       "type": "string",
       "value": "jardin"
      },
      {
       "name": "name",
       "type": "string",
       "value": "Jardín trasero"
      },
      {
       "name": "startsUnlocked",
       "type": "bool",
       "value": false
      },
      {
       "name": "interior",
       "type": "bool",
       "value": false
      },
      {
       "name": "openSpawns",
       "type": "bool",
       "value": false
      }
     ]
    },
    {
     "id": 43,
     "rotation": 0,
     "visible": true,
     "name": "jardin",
     "type": "zone",
     "x": 928,
     "y": 512,
     "width": 192,
     "height": 64,
     "properties": [
      {
       "name": "id",
       "type": "string",
       "value": "jardin"
      },
      {
       "name": "name",
       "type": "string",
       "value": "Jardín trasero"
      },
      {
       "name": "startsUnlocked",
       "type": "bool",
       "value": false
      },
      {
       "name": "interior",
       "type": "bool",
       "value": false
      },
      {
       "name": "openSpawns",
       "type": "bool",
       "value": false
      }
     ]
    },
    {
     "id": 44,
     "rotation": 0,
     "visible": true,
     "name": "jardin",
     "type": "zone",
     "x": 1376,
     "y": 512,
     "width": 896,
     "height": 64,
     "properties": [
      {
       "name": "id",
       "type": "string",
       "value": "jardin"
      },
      {
       "name": "name",
       "type": "string",
       "value": "Jardín trasero"
      },
      {
       "name": "startsUnlocked",
       "type": "bool",
       "value": false
      },
      {
       "name": "interior",
       "type": "bool",
       "value": false
      },
      {
       "name": "openSpawns",
       "type": "bool",
       "value": false
      }
     ]
    },
    {
     "id": 45,
     "rotation": 0,
     "visible": true,
     "name": "jardin",
     "type": "zone",
     "x": 384,
     "y": 576,
     "width": 96,
     "height": 448,
     "properties": [
      {
       "name": "id",
       "type": "string",
       "value": "jardin"
      },
      {
       "name": "name",
       "type": "string",
       "value": "Jardín trasero"
      },
      {
       "name": "startsUnlocked",
       "type": "bool",
       "value": false
      },
      {
       "name": "interior",
       "type": "bool",
       "value": false
      },
      {
       "name": "openSpawns",
       "type": "bool",
       "value": false
      }
     ]
    },
    {
     "id": 46,
     "rotation": 0,
     "visible": true,
     "name": "jardin",
     "type": "zone",
     "x": 1056,
     "y": 576,
     "width": 64,
     "height": 32,
     "properties": [
      {
       "name": "id",
       "type": "string",
       "value": "jardin"
      },
      {
       "name": "name",
       "type": "string",
       "value": "Jardín trasero"
      },
      {
       "name": "startsUnlocked",
       "type": "bool",
       "value": false
      },
      {
       "name": "interior",
       "type": "bool",
       "value": false
      },
      {
       "name": "openSpawns",
       "type": "bool",
       "value": false
      }
     ]
    },
    {
     "id": 47,
     "rotation": 0,
     "visible": true,
     "name": "jardin",
     "type": "zone",
     "x": 1376,
     "y": 576,
     "width": 352,
     "height": 32,
     "properties": [
      {
       "name": "id",
       "type": "string",
       "value": "jardin"
      },
      {
       "name": "name",
       "type": "string",
       "value": "Jardín trasero"
      },
      {
       "name": "startsUnlocked",
       "type": "bool",
       "value": false
      },
      {
       "name": "interior",
       "type": "bool",
       "value": false
      },
      {
       "name": "openSpawns",
       "type": "bool",
       "value": false
      }
     ]
    },
    {
     "id": 48,
     "rotation": 0,
     "visible": true,
     "name": "jardin",
     "type": "zone",
     "x": 1920,
     "y": 576,
     "width": 352,
     "height": 128,
     "properties": [
      {
       "name": "id",
       "type": "string",
       "value": "jardin"
      },
      {
       "name": "name",
       "type": "string",
       "value": "Jardín trasero"
      },
      {
       "name": "startsUnlocked",
       "type": "bool",
       "value": false
      },
      {
       "name": "interior",
       "type": "bool",
       "value": false
      },
      {
       "name": "openSpawns",
       "type": "bool",
       "value": false
      }
     ]
    },
    {
     "id": 49,
     "rotation": 0,
     "visible": true,
     "name": "jardin",
     "type": "zone",
     "x": 1504,
     "y": 608,
     "width": 224,
     "height": 96,
     "properties": [
      {
       "name": "id",
       "type": "string",
       "value": "jardin"
      },
      {
       "name": "name",
       "type": "string",
       "value": "Jardín trasero"
      },
      {
       "name": "startsUnlocked",
       "type": "bool",
       "value": false
      },
      {
       "name": "interior",
       "type": "bool",
       "value": false
      },
      {
       "name": "openSpawns",
       "type": "bool",
       "value": false
      }
     ]
    },
    {
     "id": 50,
     "rotation": 0,
     "visible": true,
     "name": "jardin",
     "type": "zone",
     "x": 2144,
     "y": 704,
     "width": 128,
     "height": 352,
     "properties": [
      {
       "name": "id",
       "type": "string",
       "value": "jardin"
      },
      {
       "name": "name",
       "type": "string",
       "value": "Jardín trasero"
      },
      {
       "name": "startsUnlocked",
       "type": "bool",
       "value": false
      },
      {
       "name": "interior",
       "type": "bool",
       "value": false
      },
      {
       "name": "openSpawns",
       "type": "bool",
       "value": false
      }
     ]
    },
    {
     "id": 51,
     "rotation": 0,
     "visible": true,
     "name": "jardin",
     "type": "zone",
     "x": 384,
     "y": 1024,
     "width": 64,
     "height": 192,
     "properties": [
      {
       "name": "id",
       "type": "string",
       "value": "jardin"
      },
      {
       "name": "name",
       "type": "string",
       "value": "Jardín trasero"
      },
      {
       "name": "startsUnlocked",
       "type": "bool",
       "value": false
      },
      {
       "name": "interior",
       "type": "bool",
       "value": false
      },
      {
       "name": "openSpawns",
       "type": "bool",
       "value": false
      }
     ]
    },
    {
     "id": 52,
     "rotation": 0,
     "visible": true,
     "name": "jardin",
     "type": "zone",
     "x": 448,
     "y": 1152,
     "width": 32,
     "height": 64,
     "properties": [
      {
       "name": "id",
       "type": "string",
       "value": "jardin"
      },
      {
       "name": "name",
       "type": "string",
       "value": "Jardín trasero"
      },
      {
       "name": "startsUnlocked",
       "type": "bool",
       "value": false
      },
      {
       "name": "interior",
       "type": "bool",
       "value": false
      },
      {
       "name": "openSpawns",
       "type": "bool",
       "value": false
      }
     ]
    },
    {
     "id": 53,
     "rotation": 0,
     "visible": true,
     "name": "calle",
     "type": "zone",
     "x": 0,
     "y": 0,
     "width": 352,
     "height": 2176,
     "properties": [
      {
       "name": "id",
       "type": "string",
       "value": "calle"
      },
      {
       "name": "name",
       "type": "string",
       "value": "Calle delantera"
      },
      {
       "name": "startsUnlocked",
       "type": "bool",
       "value": false
      },
      {
       "name": "interior",
       "type": "bool",
       "value": false
      },
      {
       "name": "openSpawns",
       "type": "bool",
       "value": true
      }
     ]
    },
    {
     "id": 54,
     "rotation": 0,
     "visible": true,
     "name": "calle",
     "type": "zone",
     "x": 2336,
     "y": 1088,
     "width": 192,
     "height": 960,
     "properties": [
      {
       "name": "id",
       "type": "string",
       "value": "calle"
      },
      {
       "name": "name",
       "type": "string",
       "value": "Calle delantera"
      },
      {
       "name": "startsUnlocked",
       "type": "bool",
       "value": false
      },
      {
       "name": "interior",
       "type": "bool",
       "value": false
      },
      {
       "name": "openSpawns",
       "type": "bool",
       "value": true
      }
     ]
    },
    {
     "id": 55,
     "rotation": 0,
     "visible": true,
     "name": "calle",
     "type": "zone",
     "x": 352,
     "y": 1248,
     "width": 256,
     "height": 800,
     "properties": [
      {
       "name": "id",
       "type": "string",
       "value": "calle"
      },
      {
       "name": "name",
       "type": "string",
       "value": "Calle delantera"
      },
      {
       "name": "startsUnlocked",
       "type": "bool",
       "value": false
      },
      {
       "name": "interior",
       "type": "bool",
       "value": false
      },
      {
       "name": "openSpawns",
       "type": "bool",
       "value": true
      }
     ]
    },
    {
     "id": 56,
     "rotation": 0,
     "visible": true,
     "name": "calle",
     "type": "zone",
     "x": 1376,
     "y": 1312,
     "width": 224,
     "height": 736,
     "properties": [
      {
       "name": "id",
       "type": "string",
       "value": "calle"
      },
      {
       "name": "name",
       "type": "string",
       "value": "Calle delantera"
      },
      {
       "name": "startsUnlocked",
       "type": "bool",
       "value": false
      },
      {
       "name": "interior",
       "type": "bool",
       "value": false
      },
      {
       "name": "openSpawns",
       "type": "bool",
       "value": true
      }
     ]
    },
    {
     "id": 57,
     "rotation": 0,
     "visible": true,
     "name": "calle",
     "type": "zone",
     "x": 1824,
     "y": 1312,
     "width": 64,
     "height": 736,
     "properties": [
      {
       "name": "id",
       "type": "string",
       "value": "calle"
      },
      {
       "name": "name",
       "type": "string",
       "value": "Calle delantera"
      },
      {
       "name": "startsUnlocked",
       "type": "bool",
       "value": false
      },
      {
       "name": "interior",
       "type": "bool",
       "value": false
      },
      {
       "name": "openSpawns",
       "type": "bool",
       "value": true
      }
     ]
    },
    {
     "id": 58,
     "rotation": 0,
     "visible": true,
     "name": "calle",
     "type": "zone",
     "x": 1024,
     "y": 1344,
     "width": 352,
     "height": 32,
     "properties": [
      {
       "name": "id",
       "type": "string",
       "value": "calle"
      },
      {
       "name": "name",
       "type": "string",
       "value": "Calle delantera"
      },
      {
       "name": "startsUnlocked",
       "type": "bool",
       "value": false
      },
      {
       "name": "interior",
       "type": "bool",
       "value": false
      },
      {
       "name": "openSpawns",
       "type": "bool",
       "value": true
      }
     ]
    },
    {
     "id": 59,
     "rotation": 0,
     "visible": true,
     "name": "calle",
     "type": "zone",
     "x": 608,
     "y": 1376,
     "width": 416,
     "height": 672,
     "properties": [
      {
       "name": "id",
       "type": "string",
       "value": "calle"
      },
      {
       "name": "name",
       "type": "string",
       "value": "Calle delantera"
      },
      {
       "name": "startsUnlocked",
       "type": "bool",
       "value": false
      },
      {
       "name": "interior",
       "type": "bool",
       "value": false
      },
      {
       "name": "openSpawns",
       "type": "bool",
       "value": true
      }
     ]
    },
    {
     "id": 60,
     "rotation": 0,
     "visible": true,
     "name": "calle",
     "type": "zone",
     "x": 1056,
     "y": 1376,
     "width": 288,
     "height": 672,
     "properties": [
      {
       "name": "id",
       "type": "string",
       "value": "calle"
      },
      {
       "name": "name",
       "type": "string",
       "value": "Calle delantera"
      },
      {
       "name": "startsUnlocked",
       "type": "bool",
       "value": false
      },
      {
       "name": "interior",
       "type": "bool",
       "value": false
      },
      {
       "name": "openSpawns",
       "type": "bool",
       "value": true
      }
     ]
    },
    {
     "id": 61,
     "rotation": 0,
     "visible": true,
     "name": "calle",
     "type": "zone",
     "x": 1600,
     "y": 1376,
     "width": 224,
     "height": 672,
     "properties": [
      {
       "name": "id",
       "type": "string",
       "value": "calle"
      },
      {
       "name": "name",
       "type": "string",
       "value": "Calle delantera"
      },
      {
       "name": "startsUnlocked",
       "type": "bool",
       "value": false
      },
      {
       "name": "interior",
       "type": "bool",
       "value": false
      },
      {
       "name": "openSpawns",
       "type": "bool",
       "value": true
      }
     ]
    },
    {
     "id": 62,
     "rotation": 0,
     "visible": true,
     "name": "calle",
     "type": "zone",
     "x": 1024,
     "y": 1408,
     "width": 32,
     "height": 640,
     "properties": [
      {
       "name": "id",
       "type": "string",
       "value": "calle"
      },
      {
       "name": "name",
       "type": "string",
       "value": "Calle delantera"
      },
      {
       "name": "startsUnlocked",
       "type": "bool",
       "value": false
      },
      {
       "name": "interior",
       "type": "bool",
       "value": false
      },
      {
       "name": "openSpawns",
       "type": "bool",
       "value": true
      }
     ]
    },
    {
     "id": 63,
     "rotation": 0,
     "visible": true,
     "name": "calle",
     "type": "zone",
     "x": 1344,
     "y": 1408,
     "width": 32,
     "height": 640,
     "properties": [
      {
       "name": "id",
       "type": "string",
       "value": "calle"
      },
      {
       "name": "name",
       "type": "string",
       "value": "Calle delantera"
      },
      {
       "name": "startsUnlocked",
       "type": "bool",
       "value": false
      },
      {
       "name": "interior",
       "type": "bool",
       "value": false
      },
      {
       "name": "openSpawns",
       "type": "bool",
       "value": true
      }
     ]
    },
    {
     "id": 64,
     "rotation": 0,
     "visible": true,
     "name": "calle",
     "type": "zone",
     "x": 1888,
     "y": 1440,
     "width": 448,
     "height": 608,
     "properties": [
      {
       "name": "id",
       "type": "string",
       "value": "calle"
      },
      {
       "name": "name",
       "type": "string",
       "value": "Calle delantera"
      },
      {
       "name": "startsUnlocked",
       "type": "bool",
       "value": false
      },
      {
       "name": "interior",
       "type": "bool",
       "value": false
      },
      {
       "name": "openSpawns",
       "type": "bool",
       "value": true
      }
     ]
    },
    {
     "id": 65,
     "rotation": 0,
     "visible": true,
     "name": "calle",
     "type": "zone",
     "x": 2528,
     "y": 1632,
     "width": 672,
     "height": 416,
     "properties": [
      {
       "name": "id",
       "type": "string",
       "value": "calle"
      },
      {
       "name": "name",
       "type": "string",
       "value": "Calle delantera"
      },
      {
       "name": "startsUnlocked",
       "type": "bool",
       "value": false
      },
      {
       "name": "interior",
       "type": "bool",
       "value": false
      },
      {
       "name": "openSpawns",
       "type": "bool",
       "value": true
      }
     ]
    },
    {
     "id": 66,
     "rotation": 0,
     "visible": true,
     "name": "sotano",
     "type": "zone",
     "x": 2656,
     "y": 832,
     "width": 320,
     "height": 320,
     "properties": [
      {
       "name": "id",
       "type": "string",
       "value": "sotano"
      },
      {
       "name": "name",
       "type": "string",
       "value": "Sótano"
      },
      {
       "name": "startsUnlocked",
       "type": "bool",
       "value": false
      },
      {
       "name": "interior",
       "type": "bool",
       "value": true
      },
      {
       "name": "openSpawns",
       "type": "bool",
       "value": false
      }
     ]
    },
    {
     "id": 67,
     "rotation": 0,
     "visible": true,
     "name": "sotano",
     "type": "zone",
     "x": 3008,
     "y": 832,
     "width": 160,
     "height": 160,
     "properties": [
      {
       "name": "id",
       "type": "string",
       "value": "sotano"
      },
      {
       "name": "name",
       "type": "string",
       "value": "Sótano"
      },
      {
       "name": "startsUnlocked",
       "type": "bool",
       "value": false
      },
      {
       "name": "interior",
       "type": "bool",
       "value": true
      },
      {
       "name": "openSpawns",
       "type": "bool",
       "value": false
      }
     ]
    },
    {
     "id": 68,
     "rotation": 0,
     "visible": true,
     "name": "sotano",
     "type": "zone",
     "x": 2976,
     "y": 864,
     "width": 32,
     "height": 64,
     "properties": [
      {
       "name": "id",
       "type": "string",
       "value": "sotano"
      },
      {
       "name": "name",
       "type": "string",
       "value": "Sótano"
      },
      {
       "name": "startsUnlocked",
       "type": "bool",
       "value": false
      },
      {
       "name": "interior",
       "type": "bool",
       "value": true
      },
      {
       "name": "openSpawns",
       "type": "bool",
       "value": false
      }
     ]
    },
    {
     "id": 69,
     "rotation": 0,
     "visible": true,
     "name": "sotano",
     "type": "zone",
     "x": 3072,
     "y": 992,
     "width": 64,
     "height": 192,
     "properties": [
      {
       "name": "id",
       "type": "string",
       "value": "sotano"
      },
      {
       "name": "name",
       "type": "string",
       "value": "Sótano"
      },
      {
       "name": "startsUnlocked",
       "type": "bool",
       "value": false
      },
      {
       "name": "interior",
       "type": "bool",
       "value": true
      },
      {
       "name": "openSpawns",
       "type": "bool",
       "value": false
      }
     ]
    },
    {
     "id": 70,
     "rotation": 0,
     "visible": true,
     "name": "sotano",
     "type": "zone",
     "x": 3008,
     "y": 1024,
     "width": 64,
     "height": 160,
     "properties": [
      {
       "name": "id",
       "type": "string",
       "value": "sotano"
      },
      {
       "name": "name",
       "type": "string",
       "value": "Sótano"
      },
      {
       "name": "startsUnlocked",
       "type": "bool",
       "value": false
      },
      {
       "name": "interior",
       "type": "bool",
       "value": true
      },
      {
       "name": "openSpawns",
       "type": "bool",
       "value": false
      }
     ]
    },
    {
     "id": 71,
     "rotation": 0,
     "visible": true,
     "name": "sotano",
     "type": "zone",
     "x": 3136,
     "y": 1024,
     "width": 32,
     "height": 160,
     "properties": [
      {
       "name": "id",
       "type": "string",
       "value": "sotano"
      },
      {
       "name": "name",
       "type": "string",
       "value": "Sótano"
      },
      {
       "name": "startsUnlocked",
       "type": "bool",
       "value": false
      },
      {
       "name": "interior",
       "type": "bool",
       "value": true
      },
      {
       "name": "openSpawns",
       "type": "bool",
       "value": false
      }
     ]
    },
    {
     "id": 72,
     "rotation": 0,
     "visible": true,
     "name": "sotano",
     "type": "zone",
     "x": 2976,
     "y": 1056,
     "width": 32,
     "height": 64,
     "properties": [
      {
       "name": "id",
       "type": "string",
       "value": "sotano"
      },
      {
       "name": "name",
       "type": "string",
       "value": "Sótano"
      },
      {
       "name": "startsUnlocked",
       "type": "bool",
       "value": false
      },
      {
       "name": "interior",
       "type": "bool",
       "value": true
      },
      {
       "name": "openSpawns",
       "type": "bool",
       "value": false
      }
     ]
    },
    {
     "id": 73,
     "rotation": 0,
     "visible": true,
     "name": "sotano",
     "type": "zone",
     "x": 2656,
     "y": 1152,
     "width": 192,
     "height": 256,
     "properties": [
      {
       "name": "id",
       "type": "string",
       "value": "sotano"
      },
      {
       "name": "name",
       "type": "string",
       "value": "Sótano"
      },
      {
       "name": "startsUnlocked",
       "type": "bool",
       "value": false
      },
      {
       "name": "interior",
       "type": "bool",
       "value": true
      },
      {
       "name": "openSpawns",
       "type": "bool",
       "value": false
      }
     ]
    },
    {
     "id": 74,
     "rotation": 0,
     "visible": true,
     "name": "sotano",
     "type": "zone",
     "x": 3040,
     "y": 1184,
     "width": 64,
     "height": 224,
     "properties": [
      {
       "name": "id",
       "type": "string",
       "value": "sotano"
      },
      {
       "name": "name",
       "type": "string",
       "value": "Sótano"
      },
      {
       "name": "startsUnlocked",
       "type": "bool",
       "value": false
      },
      {
       "name": "interior",
       "type": "bool",
       "value": true
      },
      {
       "name": "openSpawns",
       "type": "bool",
       "value": false
      }
     ]
    },
    {
     "id": 75,
     "rotation": 0,
     "visible": true,
     "name": "sotano",
     "type": "zone",
     "x": 2880,
     "y": 1216,
     "width": 160,
     "height": 192,
     "properties": [
      {
       "name": "id",
       "type": "string",
       "value": "sotano"
      },
      {
       "name": "name",
       "type": "string",
       "value": "Sótano"
      },
      {
       "name": "startsUnlocked",
       "type": "bool",
       "value": false
      },
      {
       "name": "interior",
       "type": "bool",
       "value": true
      },
      {
       "name": "openSpawns",
       "type": "bool",
       "value": false
      }
     ]
    },
    {
     "id": 76,
     "rotation": 0,
     "visible": true,
     "name": "sotano",
     "type": "zone",
     "x": 3104,
     "y": 1216,
     "width": 64,
     "height": 192,
     "properties": [
      {
       "name": "id",
       "type": "string",
       "value": "sotano"
      },
      {
       "name": "name",
       "type": "string",
       "value": "Sótano"
      },
      {
       "name": "startsUnlocked",
       "type": "bool",
       "value": false
      },
      {
       "name": "interior",
       "type": "bool",
       "value": true
      },
      {
       "name": "openSpawns",
       "type": "bool",
       "value": false
      }
     ]
    },
    {
     "id": 77,
     "rotation": 0,
     "visible": true,
     "name": "sotano",
     "type": "zone",
     "x": 2848,
     "y": 1248,
     "width": 32,
     "height": 64,
     "properties": [
      {
       "name": "id",
       "type": "string",
       "value": "sotano"
      },
      {
       "name": "name",
       "type": "string",
       "value": "Sótano"
      },
      {
       "name": "startsUnlocked",
       "type": "bool",
       "value": false
      },
      {
       "name": "interior",
       "type": "bool",
       "value": true
      },
      {
       "name": "openSpawns",
       "type": "bool",
       "value": false
      }
     ]
    },
    {
     "id": 78,
     "rotation": 0,
     "visible": true,
     "name": "azotea",
     "type": "zone",
     "x": 2656,
     "y": 96,
     "width": 320,
     "height": 160,
     "properties": [
      {
       "name": "id",
       "type": "string",
       "value": "azotea"
      },
      {
       "name": "name",
       "type": "string",
       "value": "Azotea"
      },
      {
       "name": "startsUnlocked",
       "type": "bool",
       "value": false
      },
      {
       "name": "interior",
       "type": "bool",
       "value": false
      },
      {
       "name": "openSpawns",
       "type": "bool",
       "value": true
      }
     ]
    },
    {
     "id": 79,
     "rotation": 0,
     "visible": true,
     "name": "azotea",
     "type": "zone",
     "x": 2656,
     "y": 256,
     "width": 96,
     "height": 384,
     "properties": [
      {
       "name": "id",
       "type": "string",
       "value": "azotea"
      },
      {
       "name": "name",
       "type": "string",
       "value": "Azotea"
      },
      {
       "name": "startsUnlocked",
       "type": "bool",
       "value": false
      },
      {
       "name": "interior",
       "type": "bool",
       "value": false
      },
      {
       "name": "openSpawns",
       "type": "bool",
       "value": true
      }
     ]
    },
    {
     "id": 80,
     "rotation": 0,
     "visible": true,
     "name": "azotea",
     "type": "zone",
     "x": 2816,
     "y": 256,
     "width": 160,
     "height": 96,
     "properties": [
      {
       "name": "id",
       "type": "string",
       "value": "azotea"
      },
      {
       "name": "name",
       "type": "string",
       "value": "Azotea"
      },
      {
       "name": "startsUnlocked",
       "type": "bool",
       "value": false
      },
      {
       "name": "interior",
       "type": "bool",
       "value": false
      },
      {
       "name": "openSpawns",
       "type": "bool",
       "value": true
      }
     ]
    },
    {
     "id": 81,
     "rotation": 0,
     "visible": true,
     "name": "azotea",
     "type": "zone",
     "x": 2976,
     "y": 288,
     "width": 192,
     "height": 160,
     "properties": [
      {
       "name": "id",
       "type": "string",
       "value": "azotea"
      },
      {
       "name": "name",
       "type": "string",
       "value": "Azotea"
      },
      {
       "name": "startsUnlocked",
       "type": "bool",
       "value": false
      },
      {
       "name": "interior",
       "type": "bool",
       "value": false
      },
      {
       "name": "openSpawns",
       "type": "bool",
       "value": true
      }
     ]
    },
    {
     "id": 82,
     "rotation": 0,
     "visible": true,
     "name": "azotea",
     "type": "zone",
     "x": 2752,
     "y": 320,
     "width": 64,
     "height": 320,
     "properties": [
      {
       "name": "id",
       "type": "string",
       "value": "azotea"
      },
      {
       "name": "name",
       "type": "string",
       "value": "Azotea"
      },
      {
       "name": "startsUnlocked",
       "type": "bool",
       "value": false
      },
      {
       "name": "interior",
       "type": "bool",
       "value": false
      },
      {
       "name": "openSpawns",
       "type": "bool",
       "value": true
      }
     ]
    },
    {
     "id": 83,
     "rotation": 0,
     "visible": true,
     "name": "azotea",
     "type": "zone",
     "x": 2816,
     "y": 352,
     "width": 32,
     "height": 288,
     "properties": [
      {
       "name": "id",
       "type": "string",
       "value": "azotea"
      },
      {
       "name": "name",
       "type": "string",
       "value": "Azotea"
      },
      {
       "name": "startsUnlocked",
       "type": "bool",
       "value": false
      },
      {
       "name": "interior",
       "type": "bool",
       "value": false
      },
      {
       "name": "openSpawns",
       "type": "bool",
       "value": true
      }
     ]
    },
    {
     "id": 84,
     "rotation": 0,
     "visible": true,
     "name": "azotea",
     "type": "zone",
     "x": 2944,
     "y": 352,
     "width": 32,
     "height": 288,
     "properties": [
      {
       "name": "id",
       "type": "string",
       "value": "azotea"
      },
      {
       "name": "name",
       "type": "string",
       "value": "Azotea"
      },
      {
       "name": "startsUnlocked",
       "type": "bool",
       "value": false
      },
      {
       "name": "interior",
       "type": "bool",
       "value": false
      },
      {
       "name": "openSpawns",
       "type": "bool",
       "value": true
      }
     ]
    },
    {
     "id": 85,
     "rotation": 0,
     "visible": true,
     "name": "azotea",
     "type": "zone",
     "x": 2848,
     "y": 416,
     "width": 96,
     "height": 224,
     "properties": [
      {
       "name": "id",
       "type": "string",
       "value": "azotea"
      },
      {
       "name": "name",
       "type": "string",
       "value": "Azotea"
      },
      {
       "name": "startsUnlocked",
       "type": "bool",
       "value": false
      },
      {
       "name": "interior",
       "type": "bool",
       "value": false
      },
      {
       "name": "openSpawns",
       "type": "bool",
       "value": true
      }
     ]
    },
    {
     "id": 86,
     "rotation": 0,
     "visible": true,
     "name": "azotea",
     "type": "zone",
     "x": 3040,
     "y": 448,
     "width": 128,
     "height": 192,
     "properties": [
      {
       "name": "id",
       "type": "string",
       "value": "azotea"
      },
      {
       "name": "name",
       "type": "string",
       "value": "Azotea"
      },
      {
       "name": "startsUnlocked",
       "type": "bool",
       "value": false
      },
      {
       "name": "interior",
       "type": "bool",
       "value": false
      },
      {
       "name": "openSpawns",
       "type": "bool",
       "value": true
      }
     ]
    },
    {
     "id": 87,
     "rotation": 0,
     "visible": true,
     "name": "azotea",
     "type": "zone",
     "x": 2976,
     "y": 512,
     "width": 64,
     "height": 128,
     "properties": [
      {
       "name": "id",
       "type": "string",
       "value": "azotea"
      },
      {
       "name": "name",
       "type": "string",
       "value": "Azotea"
      },
      {
       "name": "startsUnlocked",
       "type": "bool",
       "value": false
      },
      {
       "name": "interior",
       "type": "bool",
       "value": false
      },
      {
       "name": "openSpawns",
       "type": "bool",
       "value": true
      }
     ]
    },
    {
     "id": 88,
     "rotation": 0,
     "visible": true,
     "name": "player",
     "type": "player_spawn",
     "point": true,
     "x": 1264,
     "y": 1008,
     "width": 0,
     "height": 0
    },
    {
     "id": 89,
     "rotation": 0,
     "visible": true,
     "name": "W1",
     "type": "window",
     "x": 1248,
     "y": 1312,
     "width": 32,
     "height": 32,
     "properties": [
      {
       "name": "id",
       "type": "string",
       "value": "W1"
      },
      {
       "name": "zone",
       "type": "string",
       "value": "recibidor"
      },
      {
       "name": "planks",
       "type": "int",
       "value": 5
      },
      {
       "name": "kind",
       "type": "string",
       "value": "window"
      }
     ]
    },
    {
     "id": 90,
     "rotation": 0,
     "visible": true,
     "name": "spawn_W1",
     "type": "zombie_spawn",
     "point": true,
     "x": 1264,
     "y": 1392,
     "width": 0,
     "height": 0,
     "properties": [
      {
       "name": "window",
       "type": "string",
       "value": "W1"
      }
     ]
    },
    {
     "id": 91,
     "rotation": 0,
     "visible": true,
     "name": "W2",
     "type": "window",
     "x": 1408,
     "y": 1280,
     "width": 32,
     "height": 32,
     "properties": [
      {
       "name": "id",
       "type": "string",
       "value": "W2"
      },
      {
       "name": "zone",
       "type": "string",
       "value": "recibidor"
      },
      {
       "name": "planks",
       "type": "int",
       "value": 5
      },
      {
       "name": "kind",
       "type": "string",
       "value": "window"
      }
     ]
    },
    {
     "id": 92,
     "rotation": 0,
     "visible": true,
     "name": "spawn_W2",
     "type": "zombie_spawn",
     "point": true,
     "x": 1424,
     "y": 1360,
     "width": 0,
     "height": 0,
     "properties": [
      {
       "name": "window",
       "type": "string",
       "value": "W2"
      }
     ]
    },
    {
     "id": 93,
     "rotation": 0,
     "visible": true,
     "name": "W3",
     "type": "window",
     "x": 480,
     "y": 992,
     "width": 32,
     "height": 32,
     "properties": [
      {
       "name": "id",
       "type": "string",
       "value": "W3"
      },
      {
       "name": "zone",
       "type": "string",
       "value": "salon"
      },
      {
       "name": "planks",
       "type": "int",
       "value": 5
      },
      {
       "name": "kind",
       "type": "string",
       "value": "window"
      }
     ]
    },
    {
     "id": 94,
     "rotation": 0,
     "visible": true,
     "name": "spawn_W3",
     "type": "zombie_spawn",
     "point": true,
     "x": 432,
     "y": 1008,
     "width": 0,
     "height": 0,
     "properties": [
      {
       "name": "window",
       "type": "string",
       "value": "W3"
      }
     ]
    },
    {
     "id": 95,
     "rotation": 0,
     "visible": true,
     "name": "W4",
     "type": "window",
     "x": 480,
     "y": 1152,
     "width": 32,
     "height": 32,
     "properties": [
      {
       "name": "id",
       "type": "string",
       "value": "W4"
      },
      {
       "name": "zone",
       "type": "string",
       "value": "salon"
      },
      {
       "name": "planks",
       "type": "int",
       "value": 5
      },
      {
       "name": "kind",
       "type": "string",
       "value": "window"
      }
     ]
    },
    {
     "id": 96,
     "rotation": 0,
     "visible": true,
     "name": "spawn_W4",
     "type": "zombie_spawn",
     "point": true,
     "x": 432,
     "y": 1168,
     "width": 0,
     "height": 0,
     "properties": [
      {
       "name": "window",
       "type": "string",
       "value": "W4"
      }
     ]
    },
    {
     "id": 97,
     "rotation": 0,
     "visible": true,
     "name": "W5",
     "type": "window",
     "x": 896,
     "y": 1344,
     "width": 32,
     "height": 32,
     "properties": [
      {
       "name": "id",
       "type": "string",
       "value": "W5"
      },
      {
       "name": "zone",
       "type": "string",
       "value": "salon"
      },
      {
       "name": "planks",
       "type": "int",
       "value": 5
      },
      {
       "name": "kind",
       "type": "string",
       "value": "window"
      }
     ]
    },
    {
     "id": 98,
     "rotation": 0,
     "visible": true,
     "name": "spawn_W5",
     "type": "zombie_spawn",
     "point": true,
     "x": 912,
     "y": 1424,
     "width": 0,
     "height": 0,
     "properties": [
      {
       "name": "window",
       "type": "string",
       "value": "W5"
      }
     ]
    },
    {
     "id": 99,
     "rotation": 0,
     "visible": true,
     "name": "W6",
     "type": "window",
     "x": 1696,
     "y": 1344,
     "width": 32,
     "height": 32,
     "properties": [
      {
       "name": "id",
       "type": "string",
       "value": "W6"
      },
      {
       "name": "zone",
       "type": "string",
       "value": "comedor"
      },
      {
       "name": "planks",
       "type": "int",
       "value": 5
      },
      {
       "name": "kind",
       "type": "string",
       "value": "window"
      }
     ]
    },
    {
     "id": 100,
     "rotation": 0,
     "visible": true,
     "name": "spawn_W6",
     "type": "zombie_spawn",
     "point": true,
     "x": 1712,
     "y": 1424,
     "width": 0,
     "height": 0,
     "properties": [
      {
       "name": "window",
       "type": "string",
       "value": "W6"
      }
     ]
    },
    {
     "id": 101,
     "rotation": 0,
     "visible": true,
     "name": "W7",
     "type": "window",
     "x": 1824,
     "y": 1280,
     "width": 32,
     "height": 32,
     "properties": [
      {
       "name": "id",
       "type": "string",
       "value": "W7"
      },
      {
       "name": "zone",
       "type": "string",
       "value": "comedor"
      },
      {
       "name": "planks",
       "type": "int",
       "value": 5
      },
      {
       "name": "kind",
       "type": "string",
       "value": "window"
      }
     ]
    },
    {
     "id": 102,
     "rotation": 0,
     "visible": true,
     "name": "spawn_W7",
     "type": "zombie_spawn",
     "point": true,
     "x": 1840,
     "y": 1360,
     "width": 0,
     "height": 0,
     "properties": [
      {
       "name": "window",
       "type": "string",
       "value": "W7"
      }
     ]
    },
    {
     "id": 103,
     "rotation": 0,
     "visible": true,
     "name": "W8",
     "type": "window",
     "x": 480,
     "y": 672,
     "width": 32,
     "height": 32,
     "properties": [
      {
       "name": "id",
       "type": "string",
       "value": "W8"
      },
      {
       "name": "zone",
       "type": "string",
       "value": "biblioteca"
      },
      {
       "name": "planks",
       "type": "int",
       "value": 5
      },
      {
       "name": "kind",
       "type": "string",
       "value": "window"
      }
     ]
    },
    {
     "id": 104,
     "rotation": 0,
     "visible": true,
     "name": "spawn_W8",
     "type": "zombie_spawn",
     "point": true,
     "x": 432,
     "y": 688,
     "width": 0,
     "height": 0,
     "properties": [
      {
       "name": "window",
       "type": "string",
       "value": "W8"
      }
     ]
    },
    {
     "id": 105,
     "rotation": 0,
     "visible": true,
     "name": "W9",
     "type": "window",
     "x": 960,
     "y": 576,
     "width": 32,
     "height": 32,
     "properties": [
      {
       "name": "id",
       "type": "string",
       "value": "W9"
      },
      {
       "name": "zone",
       "type": "string",
       "value": "biblioteca"
      },
      {
       "name": "planks",
       "type": "int",
       "value": 5
      },
      {
       "name": "kind",
       "type": "string",
       "value": "window"
      }
     ]
    },
    {
     "id": 106,
     "rotation": 0,
     "visible": true,
     "name": "spawn_W9",
     "type": "zombie_spawn",
     "point": true,
     "x": 976,
     "y": 528,
     "width": 0,
     "height": 0,
     "properties": [
      {
       "name": "window",
       "type": "string",
       "value": "W9"
      }
     ]
    },
    {
     "id": 107,
     "rotation": 0,
     "visible": true,
     "name": "W10",
     "type": "window",
     "x": 1280,
     "y": 512,
     "width": 32,
     "height": 32,
     "properties": [
      {
       "name": "id",
       "type": "string",
       "value": "W10"
      },
      {
       "name": "zone",
       "type": "string",
       "value": "cocina"
      },
      {
       "name": "planks",
       "type": "int",
       "value": 5
      },
      {
       "name": "kind",
       "type": "string",
       "value": "window"
      }
     ]
    },
    {
     "id": 108,
     "rotation": 0,
     "visible": true,
     "name": "spawn_W10",
     "type": "zombie_spawn",
     "point": true,
     "x": 1296,
     "y": 464,
     "width": 0,
     "height": 0,
     "properties": [
      {
       "name": "window",
       "type": "string",
       "value": "W10"
      }
     ]
    },
    {
     "id": 109,
     "rotation": 0,
     "visible": true,
     "name": "W11",
     "type": "window",
     "x": 1632,
     "y": 704,
     "width": 32,
     "height": 32,
     "properties": [
      {
       "name": "id",
       "type": "string",
       "value": "W11"
      },
      {
       "name": "zone",
       "type": "string",
       "value": "cocina"
      },
      {
       "name": "planks",
       "type": "int",
       "value": 5
      },
      {
       "name": "kind",
       "type": "string",
       "value": "window"
      }
     ]
    },
    {
     "id": 110,
     "rotation": 0,
     "visible": true,
     "name": "spawn_W11",
     "type": "zombie_spawn",
     "point": true,
     "x": 1648,
     "y": 656,
     "width": 0,
     "height": 0,
     "properties": [
      {
       "name": "window",
       "type": "string",
       "value": "W11"
      }
     ]
    },
    {
     "id": 111,
     "rotation": 0,
     "visible": true,
     "name": "W12",
     "type": "window",
     "x": 2304,
     "y": 1216,
     "width": 32,
     "height": 32,
     "properties": [
      {
       "name": "id",
       "type": "string",
       "value": "W12"
      },
      {
       "name": "zone",
       "type": "string",
       "value": "garaje"
      },
      {
       "name": "planks",
       "type": "int",
       "value": 5
      },
      {
       "name": "kind",
       "type": "string",
       "value": "window"
      }
     ]
    },
    {
     "id": 112,
     "rotation": 0,
     "visible": true,
     "name": "spawn_W12",
     "type": "zombie_spawn",
     "point": true,
     "x": 2384,
     "y": 1232,
     "width": 0,
     "height": 0,
     "properties": [
      {
       "name": "window",
       "type": "string",
       "value": "W12"
      }
     ]
    },
    {
     "id": 113,
     "rotation": 0,
     "visible": true,
     "name": "W13",
     "type": "window",
     "x": 2016,
     "y": 704,
     "width": 32,
     "height": 32,
     "properties": [
      {
       "name": "id",
       "type": "string",
       "value": "W13"
      },
      {
       "name": "zone",
       "type": "string",
       "value": "garaje"
      },
      {
       "name": "planks",
       "type": "int",
       "value": 5
      },
      {
       "name": "kind",
       "type": "string",
       "value": "window"
      }
     ]
    },
    {
     "id": 114,
     "rotation": 0,
     "visible": true,
     "name": "spawn_W13",
     "type": "zombie_spawn",
     "point": true,
     "x": 2032,
     "y": 656,
     "width": 0,
     "height": 0,
     "properties": [
      {
       "name": "window",
       "type": "string",
       "value": "W13"
      }
     ]
    },
    {
     "id": 115,
     "rotation": 0,
     "visible": true,
     "name": "F1",
     "type": "window",
     "x": 736,
     "y": 64,
     "width": 32,
     "height": 32,
     "properties": [
      {
       "name": "id",
       "type": "string",
       "value": "F1"
      },
      {
       "name": "zone",
       "type": "string",
       "value": "jardin"
      },
      {
       "name": "planks",
       "type": "int",
       "value": 5
      },
      {
       "name": "kind",
       "type": "string",
       "value": "fence"
      }
     ]
    },
    {
     "id": 116,
     "rotation": 0,
     "visible": true,
     "name": "spawn_F1",
     "type": "zombie_spawn",
     "point": true,
     "x": 752,
     "y": 16,
     "width": 0,
     "height": 0,
     "properties": [
      {
       "name": "window",
       "type": "string",
       "value": "F1"
      }
     ]
    },
    {
     "id": 117,
     "rotation": 0,
     "visible": true,
     "name": "F2",
     "type": "window",
     "x": 1952,
     "y": 64,
     "width": 32,
     "height": 32,
     "properties": [
      {
       "name": "id",
       "type": "string",
       "value": "F2"
      },
      {
       "name": "zone",
       "type": "string",
       "value": "jardin"
      },
      {
       "name": "planks",
       "type": "int",
       "value": 5
      },
      {
       "name": "kind",
       "type": "string",
       "value": "fence"
      }
     ]
    },
    {
     "id": 118,
     "rotation": 0,
     "visible": true,
     "name": "spawn_F2",
     "type": "zombie_spawn",
     "point": true,
     "x": 1968,
     "y": 16,
     "width": 0,
     "height": 0,
     "properties": [
      {
       "name": "window",
       "type": "string",
       "value": "F2"
      }
     ]
    },
    {
     "id": 119,
     "rotation": 0,
     "visible": true,
     "name": "F3",
     "type": "window",
     "x": 352,
     "y": 320,
     "width": 32,
     "height": 32,
     "properties": [
      {
       "name": "id",
       "type": "string",
       "value": "F3"
      },
      {
       "name": "zone",
       "type": "string",
       "value": "jardin"
      },
      {
       "name": "planks",
       "type": "int",
       "value": 5
      },
      {
       "name": "kind",
       "type": "string",
       "value": "fence"
      }
     ]
    },
    {
     "id": 120,
     "rotation": 0,
     "visible": true,
     "name": "spawn_F3",
     "type": "zombie_spawn",
     "point": true,
     "x": 304,
     "y": 336,
     "width": 0,
     "height": 0,
     "properties": [
      {
       "name": "window",
       "type": "string",
       "value": "F3"
      }
     ]
    },
    {
     "id": 121,
     "rotation": 0,
     "visible": true,
     "name": "S1",
     "type": "window",
     "x": 2784,
     "y": 800,
     "width": 32,
     "height": 32,
     "properties": [
      {
       "name": "id",
       "type": "string",
       "value": "S1"
      },
      {
       "name": "zone",
       "type": "string",
       "value": "sotano"
      },
      {
       "name": "planks",
       "type": "int",
       "value": 5
      },
      {
       "name": "kind",
       "type": "string",
       "value": "window"
      }
     ]
    },
    {
     "id": 122,
     "rotation": 0,
     "visible": true,
     "name": "spawn_S1",
     "type": "zombie_spawn",
     "point": true,
     "x": 2800,
     "y": 752,
     "width": 0,
     "height": 0,
     "properties": [
      {
       "name": "window",
       "type": "string",
       "value": "S1"
      }
     ]
    },
    {
     "id": 123,
     "rotation": 0,
     "visible": true,
     "name": "S2",
     "type": "window",
     "x": 3040,
     "y": 1408,
     "width": 32,
     "height": 32,
     "properties": [
      {
       "name": "id",
       "type": "string",
       "value": "S2"
      },
      {
       "name": "zone",
       "type": "string",
       "value": "sotano"
      },
      {
       "name": "planks",
       "type": "int",
       "value": 5
      },
      {
       "name": "kind",
       "type": "string",
       "value": "window"
      }
     ]
    },
    {
     "id": 124,
     "rotation": 0,
     "visible": true,
     "name": "spawn_S2",
     "type": "zombie_spawn",
     "point": true,
     "x": 3056,
     "y": 1488,
     "width": 0,
     "height": 0,
     "properties": [
      {
       "name": "window",
       "type": "string",
       "value": "S2"
      }
     ]
    },
    {
     "id": 125,
     "rotation": 0,
     "visible": true,
     "name": "O1",
     "type": "zombie_spawn",
     "point": true,
     "x": 112,
     "y": 1296,
     "width": 0,
     "height": 0
    },
    {
     "id": 126,
     "rotation": 0,
     "visible": true,
     "name": "O2",
     "type": "zombie_spawn",
     "point": true,
     "x": 2224,
     "y": 2000,
     "width": 0,
     "height": 0
    },
    {
     "id": 127,
     "rotation": 0,
     "visible": true,
     "name": "O3",
     "type": "zombie_spawn",
     "point": true,
     "x": 2736,
     "y": 144,
     "width": 0,
     "height": 0
    },
    {
     "id": 128,
     "rotation": 0,
     "visible": true,
     "name": "O4",
     "type": "zombie_spawn",
     "point": true,
     "x": 2928,
     "y": 144,
     "width": 0,
     "height": 0
    },
    {
     "id": 129,
     "rotation": 0,
     "visible": true,
     "name": "O5",
     "type": "zombie_spawn",
     "point": true,
     "x": 3120,
     "y": 400,
     "width": 0,
     "height": 0
    },
    {
     "id": 130,
     "rotation": 0,
     "visible": true,
     "name": "D1",
     "type": "door",
     "x": 1024,
     "y": 1216,
     "width": 32,
     "height": 64,
     "properties": [
      {
       "name": "id",
       "type": "string",
       "value": "D1"
      },
      {
       "name": "cost",
       "type": "int",
       "value": 750
      },
      {
       "name": "fromZone",
       "type": "string",
       "value": "recibidor"
      },
      {
       "name": "toZone",
       "type": "string",
       "value": "salon"
      }
     ]
    },
    {
     "id": 131,
     "rotation": 0,
     "visible": true,
     "name": "D2",
     "type": "door",
     "x": 1504,
     "y": 960,
     "width": 32,
     "height": 64,
     "properties": [
      {
       "name": "id",
       "type": "string",
       "value": "D2"
      },
      {
       "name": "cost",
       "type": "int",
       "value": 750
      },
      {
       "name": "fromZone",
       "type": "string",
       "value": "recibidor"
      },
      {
       "name": "toZone",
       "type": "string",
       "value": "comedor"
      }
     ]
    },
    {
     "id": 132,
     "rotation": 0,
     "visible": true,
     "name": "D3",
     "type": "door",
     "x": 544,
     "y": 928,
     "width": 64,
     "height": 32,
     "properties": [
      {
       "name": "id",
       "type": "string",
       "value": "D3"
      },
      {
       "name": "cost",
       "type": "int",
       "value": 1000
      },
      {
       "name": "fromZone",
       "type": "string",
       "value": "salon"
      },
      {
       "name": "toZone",
       "type": "string",
       "value": "biblioteca"
      }
     ]
    },
    {
     "id": 133,
     "rotation": 0,
     "visible": true,
     "name": "D4",
     "type": "door",
     "x": 1568,
     "y": 928,
     "width": 64,
     "height": 32,
     "properties": [
      {
       "name": "id",
       "type": "string",
       "value": "D4"
      },
      {
       "name": "cost",
       "type": "int",
       "value": 1000
      },
      {
       "name": "fromZone",
       "type": "string",
       "value": "comedor"
      },
      {
       "name": "toZone",
       "type": "string",
       "value": "cocina"
      }
     ]
    },
    {
     "id": 134,
     "rotation": 0,
     "visible": true,
     "name": "D5",
     "type": "door",
     "x": 1024,
     "y": 800,
     "width": 32,
     "height": 64,
     "properties": [
      {
       "name": "id",
       "type": "string",
       "value": "D5"
      },
      {
       "name": "cost",
       "type": "int",
       "value": 1250
      },
      {
       "name": "fromZone",
       "type": "string",
       "value": "biblioteca"
      },
      {
       "name": "toZone",
       "type": "string",
       "value": "cocina"
      }
     ]
    },
    {
     "id": 135,
     "rotation": 0,
     "visible": true,
     "name": "D6",
     "type": "door",
     "x": 1888,
     "y": 864,
     "width": 32,
     "height": 64,
     "properties": [
      {
       "name": "id",
       "type": "string",
       "value": "D6"
      },
      {
       "name": "cost",
       "type": "int",
       "value": 1250
      },
      {
       "name": "fromZone",
       "type": "string",
       "value": "cocina"
      },
      {
       "name": "toZone",
       "type": "string",
       "value": "garaje"
      }
     ]
    },
    {
     "id": 136,
     "rotation": 0,
     "visible": true,
     "name": "D7",
     "type": "door",
     "x": 1984,
     "y": 1408,
     "width": 64,
     "height": 32,
     "properties": [
      {
       "name": "id",
       "type": "string",
       "value": "D7"
      },
      {
       "name": "cost",
       "type": "int",
       "value": 1250
      },
      {
       "name": "fromZone",
       "type": "string",
       "value": "garaje"
      },
      {
       "name": "toZone",
       "type": "string",
       "value": "calle"
      }
     ]
    },
    {
     "id": 137,
     "rotation": 0,
     "visible": true,
     "name": "D8",
     "type": "door",
     "x": 1088,
     "y": 1312,
     "width": 64,
     "height": 32,
     "properties": [
      {
       "name": "id",
       "type": "string",
       "value": "D8"
      },
      {
       "name": "cost",
       "type": "int",
       "value": 1500
      },
      {
       "name": "fromZone",
       "type": "string",
       "value": "recibidor"
      },
      {
       "name": "toZone",
       "type": "string",
       "value": "calle"
      }
     ]
    },
    {
     "id": 138,
     "rotation": 0,
     "visible": true,
     "name": "D9",
     "type": "door",
     "x": 1376,
     "y": 608,
     "width": 64,
     "height": 32,
     "properties": [
      {
       "name": "id",
       "type": "string",
       "value": "D9"
      },
      {
       "name": "cost",
       "type": "int",
       "value": 1500
      },
      {
       "name": "fromZone",
       "type": "string",
       "value": "cocina"
      },
      {
       "name": "toZone",
       "type": "string",
       "value": "jardin"
      }
     ]
    },
    {
     "id": 139,
     "rotation": 0,
     "visible": true,
     "name": "D10",
     "type": "door",
     "x": 768,
     "y": 512,
     "width": 64,
     "height": 32,
     "properties": [
      {
       "name": "id",
       "type": "string",
       "value": "D10"
      },
      {
       "name": "cost",
       "type": "int",
       "value": 1500
      },
      {
       "name": "fromZone",
       "type": "string",
       "value": "biblioteca"
      },
      {
       "name": "toZone",
       "type": "string",
       "value": "jardin"
      }
     ]
    },
    {
     "id": 140,
     "rotation": 0,
     "visible": true,
     "name": "P1a",
     "type": "portal",
     "x": 1824,
     "y": 608,
     "width": 64,
     "height": 32,
     "properties": [
      {
       "name": "id",
       "type": "string",
       "value": "P1a"
      },
      {
       "name": "pair",
       "type": "string",
       "value": "P1b"
      },
      {
       "name": "cost",
       "type": "int",
       "value": 1750
      },
      {
       "name": "zone",
       "type": "string",
       "value": "cocina"
      },
      {
       "name": "secondary",
       "type": "bool",
       "value": false
      },
      {
       "name": "kind",
       "type": "string",
       "value": "stairs"
      }
     ]
    },
    {
     "id": 141,
     "rotation": 0,
     "visible": true,
     "name": "P1b",
     "type": "portal",
     "x": 2688,
     "y": 1376,
     "width": 64,
     "height": 32,
     "properties": [
      {
       "name": "id",
       "type": "string",
       "value": "P1b"
      },
      {
       "name": "pair",
       "type": "string",
       "value": "P1a"
      },
      {
       "name": "cost",
       "type": "int",
       "value": 1750
      },
      {
       "name": "zone",
       "type": "string",
       "value": "sotano"
      },
      {
       "name": "secondary",
       "type": "bool",
       "value": false
      },
      {
       "name": "kind",
       "type": "string",
       "value": "stairs"
      }
     ]
    },
    {
     "id": 142,
     "rotation": 0,
     "visible": true,
     "name": "P2a",
     "type": "portal",
     "x": 2144,
     "y": 832,
     "width": 32,
     "height": 64,
     "properties": [
      {
       "name": "id",
       "type": "string",
       "value": "P2a"
      },
      {
       "name": "pair",
       "type": "string",
       "value": "P2b"
      },
      {
       "name": "cost",
       "type": "int",
       "value": 2000
      },
      {
       "name": "zone",
       "type": "string",
       "value": "jardin"
      },
      {
       "name": "secondary",
       "type": "bool",
       "value": false
      },
      {
       "name": "kind",
       "type": "string",
       "value": "ladder"
      }
     ]
    },
    {
     "id": 143,
     "rotation": 0,
     "visible": true,
     "name": "P2b",
     "type": "portal",
     "x": 2688,
     "y": 608,
     "width": 64,
     "height": 32,
     "properties": [
      {
       "name": "id",
       "type": "string",
       "value": "P2b"
      },
      {
       "name": "pair",
       "type": "string",
       "value": "P2a"
      },
      {
       "name": "cost",
       "type": "int",
       "value": 2000
      },
      {
       "name": "zone",
       "type": "string",
       "value": "azotea"
      },
      {
       "name": "secondary",
       "type": "bool",
       "value": false
      },
      {
       "name": "kind",
       "type": "string",
       "value": "ladder"
      }
     ]
    },
    {
     "id": 144,
     "rotation": 0,
     "visible": true,
     "name": "P3a",
     "type": "portal",
     "x": 544,
     "y": 544,
     "width": 64,
     "height": 32,
     "properties": [
      {
       "name": "id",
       "type": "string",
       "value": "P3a"
      },
      {
       "name": "pair",
       "type": "string",
       "value": "P3b"
      },
      {
       "name": "cost",
       "type": "int",
       "value": 1000
      },
      {
       "name": "zone",
       "type": "string",
       "value": "jardin"
      },
      {
       "name": "secondary",
       "type": "bool",
       "value": true
      },
      {
       "name": "kind",
       "type": "string",
       "value": "hatch"
      }
     ]
    },
    {
     "id": 145,
     "rotation": 0,
     "visible": true,
     "name": "P3b",
     "type": "portal",
     "x": 3072,
     "y": 832,
     "width": 64,
     "height": 32,
     "properties": [
      {
       "name": "id",
       "type": "string",
       "value": "P3b"
      },
      {
       "name": "pair",
       "type": "string",
       "value": "P3a"
      },
      {
       "name": "cost",
       "type": "int",
       "value": 1000
      },
      {
       "name": "zone",
       "type": "string",
       "value": "sotano"
      },
      {
       "name": "secondary",
       "type": "bool",
       "value": true
      },
      {
       "name": "kind",
       "type": "string",
       "value": "hatch"
      }
     ]
    },
    {
     "id": 146,
     "rotation": 0,
     "visible": true,
     "name": "P4a",
     "type": "portal",
     "x": 544,
     "y": 1248,
     "width": 64,
     "height": 32,
     "properties": [
      {
       "name": "id",
       "type": "string",
       "value": "P4a"
      },
      {
       "name": "pair",
       "type": "string",
       "value": "P4b"
      },
      {
       "name": "cost",
       "type": "int",
       "value": 1250
      },
      {
       "name": "zone",
       "type": "string",
       "value": "calle"
      },
      {
       "name": "secondary",
       "type": "bool",
       "value": true
      },
      {
       "name": "kind",
       "type": "string",
       "value": "ladder"
      }
     ]
    },
    {
     "id": 147,
     "rotation": 0,
     "visible": true,
     "name": "P4b",
     "type": "portal",
     "x": 3072,
     "y": 608,
     "width": 64,
     "height": 32,
     "properties": [
      {
       "name": "id",
       "type": "string",
       "value": "P4b"
      },
      {
       "name": "pair",
       "type": "string",
       "value": "P4a"
      },
      {
       "name": "cost",
       "type": "int",
       "value": 1250
      },
      {
       "name": "zone",
       "type": "string",
       "value": "azotea"
      },
      {
       "name": "secondary",
       "type": "bool",
       "value": true
      },
      {
       "name": "kind",
       "type": "string",
       "value": "ladder"
      }
     ]
    }
   ]
  }
 ],
 "tilesets": [
  {
   "firstgid": 1,
   "source": "tilesets/tileset_street.tsj"
  },
  {
   "firstgid": 21,
   "source": "tilesets/tileset_pool.tsj"
  },
  {
   "firstgid": 41,
   "source": "tilesets/tileset_garden.tsj"
  },
  {
   "firstgid": 61,
   "source": "tilesets/floors_interior.tsj"
  },
  {
   "firstgid": 77,
   "source": "tilesets/kit_interior.tsj"
  },
  {
   "firstgid": 97,
   "source": "tilesets/kit_exterior.tsj"
  },
  {
   "firstgid": 117,
   "source": "tilesets/kit_basement.tsj"
  },
  {
   "firstgid": 137,
   "source": "tilesets/kit_fence.tsj"
  },
  {
   "firstgid": 157,
   "source": "tilesets/decals_asphalt.tsj"
  },
  {
   "firstgid": 173,
   "source": "tilesets/decals_grass.tsj"
  },
  {
   "firstgid": 189,
   "source": "tilesets/map_special.tsj"
  }
 ],
 "properties": [
  {
   "name": "compiledFrom",
   "type": "string",
   "value": "maps/src/mansion.txt"
  },
  {
   "name": "compiledHash",
   "type": "string",
   "value": "2f1ff4dbab1d3bcf"
  }
 ]
}
